ncols        175
nrows        216
xllcorner    596486.994399999967
yllcorner    5550708.937300000340
cellsize     100.000000000000
NODATA_value -9999
-9999.0 -9999 -9999 -9999 -9999 -9999 -9999 -9999 -9999 -9999 -9999 -9999 -9999 -9999 -9999 -9999 -9999 -9999 -9999 -9999 -9999 -9999 -9999 -9999 -9999 -9999 -9999 -9999 -9999 -9999 -9999 -9999 -9999 -9999 -9999 -9999 -9999 -9999 -9999 -9999 -9999 -9999 -9999 -9999 -9999 -9999 -9999 -9999 -9999 -9999 -9999 -9999 -9999 -9999 -9999 -9999 -9999 -9999 -9999 -9999 -9999 -9999 -9999 -9999 -9999 -9999 -9999 -9999 -9999 -9999 -9999 -9999 -9999 -9999 -9999 -9999 -9999 -9999 -9999 -9999 -9999 -9999 -9999 -9999 -9999 -9999 -9999 -9999 -9999 -9999 -9999 -9999 -9999 -9999 -9999 -9999 -9999 -9999 -9999 -9999 -9999 -9999 -9999 -9999 -9999 -9999 -9999 -9999 -9999 -9999 -9999 -9999 -9999 -9999 -9999 -9999 -9999 -9999 -9999 -9999 -9999 -9999 -9999 -9999 -9999 -9999 -9999 -9999 -9999 -9999 -9999 -9999 -9999 -9999 -9999 -9999 -9999 -9999 -9999 -9999 -9999 -9999 -9999 -9999 -9999 -9999 -9999 -9999 -9999 -9999 -9999 -9999 -9999 -9999 -9999 -9999 -9999 -9999 -9999 -9999 -9999 -9999 -9999 -9999 -9999 -9999 -9999 -9999 -9999 -9999 -9999 -9999 -9999 -9999 -9999 
-9999 12.189404487609863281 10.892535209655761719 0.37697678804397583008 10.034229278564453125 13.971138954162597656 15.89595794677734375 15.391489982604980469 17.146242141723632812 24.030765533447265625 30.248094558715820312 30.456392288208007812 25.83968353271484375 13.983077049255371094 2.3137717247009277344 1.3916791677474975586 7.4579739570617675781 15.157526969909667969 22.259035110473632812 26.329593658447265625 23.091274261474609375 20.742313385009765625 20.677066802978515625 19.079423904418945312 18.520776748657226562 17.687704086303710938 17.120845794677734375 17.73675537109375 19.597141265869140625 20.1605987548828125 18.4217376708984375 16.329372406005859375 17.138652801513671875 21.635725021362304688 24.657064437866210938 26.577398300170898438 30.680492401123046875 33.404052734375 32.136402130126953125 31.138814926147460938 33.5029449462890625 36.341640472412109375 37.846744537353515625 37.347568511962890625 35.907527923583984375 32.224212646484375 27.693624496459960938 19.168668746948242188 14.841091156005859375 21.255311965942382812 26.48639678955078125 30.35511016845703125 30.530237197875976562 29.805166244506835938 27.979066848754882812 23.772003173828125 17.812582015991210938 11.586312294006347656 7.7944293022155761719 5.7270078659057617188 3.6364469528198242188 2.9100849628448486328 2.5998723506927490234 2.0197856426239013672 7.3358612060546875 7.9034681320190429688 4.0119085311889648438 8.219707489013671875 6.1576075553894042969 9.968097686767578125 16.793027877807617188 21.598934173583984375 21.916797637939453125 23.99515533447265625 29.230684280395507812 31.368818283081054688 31.453763961791992188 31.171693801879882812 29.706075668334960938 25.794437408447265625 23.949598312377929688 26.391635894775390625 29.631864547729492188 33.4412841796875 32.656131744384765625 25.806674957275390625 15.622991561889648438 4.07013702392578125 13.256369590759277344 25.892147064208984375 31.962163925170898438 30.767120361328125 28.08211517333984375 24.031618118286132812 27.39426422119140625 27.73992156982421875 27.1518096923828125 27.137914657592773438 28.69643402099609375 29.726579666137695312 20.599254608154296875 17.741552352905273438 31.105968475341796875 35.644500732421875 38.293392181396484375 40.467731475830078125 32.219226837158203125 29.265707015991210938 30.242584228515625 23.409107208251953125 30.680782318115234375 24.934619903564453125 22.128885269165039062 40.46019744873046875 43.22479248046875 38.96495819091796875 34.604007720947265625 36.22954559326171875 40.2942962646484375 44.23732757568359375 46.699848175048828125 42.029998779296875 31.1476593017578125 28.543531417846679688 32.52655029296875 32.597637176513671875 34.42006683349609375 36.33472442626953125 36.9549407958984375 37.00403594970703125 35.720760345458984375 34.22338104248046875 28.153957366943359375 9.6834039688110351562 9.47475433349609375 9.7278499603271484375 8.0793695449829101562 6.3804364204406738281 5.7460198402404785156 8.7662839889526367188 11.245169639587402344 11.577417373657226562 10.079893112182617188 8.895420074462890625 8.4472255706787109375 8.6576824188232421875 7.5275101661682128906 10.452739715576171875 22.10785675048828125 29.5043792724609375 31.068300247192382812 31.559024810791015625 32.829677581787109375 33.304962158203125 31.660875320434570312 29.595964431762695312 28.643629074096679688 30.044496536254882812 30.16445159912109375 28.718305587768554688 28.433229446411132812 29.575565338134765625 31.033796310424804688 28.57323455810546875 22.072298049926757812 16.764530181884765625 13.658281326293945312 12.982593536376953125 15.442422866821289062 19.865022659301757812 24.921728134155273438 26.29523468017578125 21.860742568969726562 14.142543792724609375 -9999 
-9999 11.215473175048828125 14.139848709106445312 10.799905776977539062 5.8718357086181640625 2.0834741592407226562 2.3100140094757080078 1.7759391069412231445 4.8374018669128417969 14.124858856201171875 26.86164093017578125 33.445209503173828125 32.662731170654296875 22.928686141967773438 6.7414364814758300781 1.4413880109786987305 2.6465229988098144531 8.3497161865234375 14.956120491027832031 20.881914138793945312 19.923578262329101562 16.236017227172851562 14.805115699768066406 13.305688858032226562 13.655709266662597656 13.087480545043945312 13.002663612365722656 13.750235557556152344 14.797710418701171875 15.351704597473144531 14.423806190490722656 13.446468353271484375 14.067447662353515625 16.242418289184570312 19.048902511596679688 25.267286300659179688 32.30831146240234375 34.65093231201171875 34.550884246826171875 34.154056549072265625 33.570590972900390625 33.70711517333984375 34.6483154296875 35.9732818603515625 35.34896087646484375 32.427227020263671875 31.447256088256835938 26.81381988525390625 14.731856346130371094 19.006452560424804688 25.521558761596679688 30.049036026000976562 30.51456451416015625 29.61846923828125 28.429571151733398438 24.508502960205078125 19.082098007202148438 12.528289794921875 7.6129131317138671875 5.2524099349975585938 3.1307518482208251953 2.4981174468994140625 2.3654360771179199219 1.6819622516632080078 6.3789248466491699219 8.9553709030151367188 2.6602067947387695312 8.2396640777587890625 5.9143395423889160156 9.2170562744140625 17.8651580810546875 24.33834075927734375 24.862781524658203125 26.519563674926757812 31.731393814086914062 33.511013031005859375 32.8981475830078125 31.495513916015625 26.987239837646484375 20.92458343505859375 19.591608047485351562 23.132183074951171875 27.803777694702148438 32.448505401611328125 33.009246826171875 28.191997528076171875 17.41881561279296875 4.3256969451904296875 19.8384552001953125 28.643524169921875 31.776218414306640625 29.93285369873046875 30.04543304443359375 24.0241851806640625 23.005922317504882812 25.453338623046875 25.693157196044921875 26.261053085327148438 28.751291275024414062 29.423597335815429688 20.301359176635742188 14.022990226745605469 28.793264389038085938 34.4818878173828125 36.725704193115234375 37.478519439697265625 30.73284149169921875 31.975481033325195312 27.075984954833984375 25.41077423095703125 34.0298004150390625 19.586988449096679688 23.34741973876953125 38.7371826171875 39.436801910400390625 36.892948150634765625 32.626018524169921875 33.273433685302734375 38.51265716552734375 40.887355804443359375 42.55867767333984375 40.278949737548828125 34.1442718505859375 31.471231460571289062 31.205251693725585938 29.151256561279296875 31.45812225341796875 34.8668212890625 35.910419464111328125 35.356716156005859375 34.6854248046875 35.6670074462890625 31.564111709594726562 16.868213653564453125 19.058549880981445312 21.791202545166015625 22.028743743896484375 20.259552001953125 17.417573928833007812 13.254832267761230469 6.8216462135314941406 7.1134896278381347656 9.2155609130859375 8.2097635269165039062 7.6979088783264160156 9.7584619522094726562 10.333975791931152344 14.668087959289550781 26.70836639404296875 33.7878265380859375 34.06290435791015625 33.642704010009765625 34.280368804931640625 33.988780975341796875 30.722866058349609375 27.28960418701171875 27.86064910888671875 30.235813140869140625 30.142892837524414062 28.929327011108398438 28.72607421875 29.348852157592773438 30.55322265625 28.522937774658203125 21.137765884399414062 13.740452766418457031 11.12508392333984375 12.965357780456542969 14.872225761413574219 17.213314056396484375 22.3662872314453125 22.952411651611328125 15.219902992248535156 2.3769257068634033203 -9999 
-9999 11.196450233459472656 12.885280609130859375 13.347947120666503906 12.451560020446777344 12.273784637451171875 12.840891838073730469 12.111591339111328125 9.0553531646728515625 1.0038900375366210938 15.516122817993164062 30.389764785766601562 35.02371978759765625 29.143768310546875 15.155338287353515625 3.7494566440582275391 1.1719009876251220703 3.4099223613739013672 8.524261474609375 14.719943046569824219 16.506622314453125 13.677829742431640625 12.142859458923339844 11.497341156005859375 12.262528419494628906 12.432659149169921875 12.734149932861328125 12.808795928955078125 12.835669517517089844 12.63654327392578125 12.349218368530273438 12.255337715148925781 12.838603973388671875 14.313272476196289062 17.481195449829101562 24.596998214721679688 32.21086883544921875 35.09183502197265625 35.151622772216796875 34.287761688232421875 32.774005889892578125 32.051357269287109375 33.601688385009765625 35.83414459228515625 34.671009063720703125 32.034969329833984375 32.45630645751953125 32.082134246826171875 21.01770782470703125 17.06316375732421875 24.970455169677734375 29.762639999389648438 30.646759033203125 29.964853286743164062 28.427755355834960938 24.01592254638671875 19.165771484375 13.167222023010253906 7.3905534744262695312 4.1768503189086914062 2.3286707401275634766 2.0783321857452392578 2.3271861076354980469 1.9374368190765380859 6.3938608169555664062 9.2718210220336914062 2.2006199359893798828 7.9634928703308105469 4.70401763916015625 8.6958189010620117188 18.939807891845703125 26.07563018798828125 26.81127166748046875 28.473377227783203125 33.2776947021484375 34.222652435302734375 32.57506561279296875 29.035388946533203125 21.675861358642578125 17.681753158569335938 19.97916412353515625 23.287424087524414062 26.8497467041015625 30.459781646728515625 31.446741104125976562 28.08289337158203125 17.503973007202148438 7.8685846328735351562 24.531402587890625 30.932342529296875 31.356109619140625 26.741207122802734375 30.397691726684570312 29.587198257446289062 22.6635894775390625 22.102712631225585938 24.066654205322265625 26.09223175048828125 28.14493560791015625 28.615770339965820312 22.261941909790039062 10.42261505126953125 25.859867095947265625 34.148532867431640625 35.515811920166015625 32.240695953369140625 30.0684661865234375 30.670385360717773438 24.686920166015625 31.909938812255859375 35.7212677001953125 17.021617889404296875 24.609859466552734375 37.466217041015625 37.08840179443359375 35.578502655029296875 31.273283004760742188 29.330211639404296875 32.501865386962890625 31.821573257446289062 32.6591644287109375 28.063686370849609375 26.827632904052734375 31.05130767822265625 27.876863479614257812 23.4572601318359375 24.712606430053710938 29.464998245239257812 32.22374725341796875 32.96016693115234375 35.039363861083984375 36.40728759765625 29.704923629760742188 17.096651077270507812 24.780694961547851562 29.345327377319335938 30.920223236083984375 31.416164398193359375 31.49806976318359375 29.581623077392578125 22.97479248046875 10.743580818176269531 7.4527912139892578125 10.578517913818359375 13.770928382873535156 19.8273162841796875 23.989515304565429688 24.4440460205078125 25.642858505249023438 33.372592926025390625 35.134349822998046875 33.38990020751953125 33.06653594970703125 33.017486572265625 31.566379547119140625 30.397153854370117188 30.211019515991210938 29.800922393798828125 29.837423324584960938 30.602329254150390625 30.405630111694335938 29.4929962158203125 29.555902481079101562 27.67734527587890625 20.952093124389648438 13.920873641967773438 11.269733428955078125 9.3720464706420898438 12.885446548461914062 23.590763092041015625 26.837369918823242188 19.40869140625 4.1274981498718261719 10.899835586547851562 -9999 
-9999 11.296332359313964844 9.6058740615844726562 8.0933732986450195312 7.8568115234375 8.9556055068969726562 10.553618431091308594 11.84786224365234375 12.901448249816894531 11.131757736206054688 3.0373220443725585938 23.705846786499023438 34.336833953857421875 33.311370849609375 25.764545440673828125 16.294353485107421875 7.5024843215942382812 2.5722894668579101562 3.6492924690246582031 8.0888490676879882812 11.009775161743164062 10.623357772827148438 10.60254669189453125 10.690514564514160156 11.617191314697265625 11.973585128784179688 12.21268463134765625 12.1846771240234375 12.287298202514648438 12.118016242980957031 11.928554534912109375 12.096508979797363281 12.813490867614746094 13.80397796630859375 16.040225982666015625 21.476964950561523438 28.29235076904296875 31.131977081298828125 30.843576431274414062 29.894474029541015625 29.659151077270507812 30.969705581665039062 33.59455108642578125 35.9136505126953125 34.572021484375 32.20250701904296875 32.45020294189453125 34.569812774658203125 27.242277145385742188 19.530050277709960938 27.593395233154296875 31.426788330078125 31.064058303833007812 29.53839111328125 27.108890533447265625 22.965864181518554688 19.202356338500976562 13.807783126831054688 7.3068308830261230469 3.1865892410278320312 1.8960390090942382812 1.8324636220932006836 2.2534215450286865234 2.4446954727172851562 7.5861539840698242188 8.8930692672729492188 4.1401433944702148438 7.6560268402099609375 3.7678654193878173828 9.1657257080078125 19.8779144287109375 26.86331939697265625 28.0201263427734375 29.510128021240234375 33.157917022705078125 34.271331787109375 33.313961029052734375 28.379709243774414062 18.913728713989257812 17.014781951904296875 21.39209747314453125 23.54416656494140625 24.848592758178710938 27.450811386108398438 29.24967193603515625 26.655263900756835938 15.618521690368652344 10.147046089172363281 27.228353500366210938 32.29811859130859375 32.064525604248046875 25.81060791015625 26.2056732177734375 31.50441741943359375 28.25330352783203125 22.611951828002929688 21.357713699340820312 26.491601943969726562 29.2933197021484375 28.537168502807617188 23.356004714965820312 10.985148429870605469 23.960695266723632812 34.13642120361328125 33.648586273193359375 27.819654464721679688 28.62911224365234375 24.52411651611328125 27.69073486328125 35.6621856689453125 35.717021942138671875 17.638141632080078125 21.316545486450195312 35.818843841552734375 36.230937957763671875 36.80887603759765625 36.74419403076171875 31.539255142211914062 20.853845596313476562 24.180843353271484375 28.044097900390625 18.191900253295898438 24.991779327392578125 29.860546112060546875 25.58504486083984375 19.68685150146484375 18.746845245361328125 22.634935379028320312 28.026666641235351562 32.749176025390625 35.987186431884765625 35.37207794189453125 28.742586135864257812 20.07010650634765625 24.59133148193359375 29.6609649658203125 31.765804290771484375 33.63214874267578125 34.366428375244140625 33.348545074462890625 31.47667694091796875 23.3558807373046875 16.116579055786132812 21.068700790405273438 26.108095169067382812 29.276262283325195312 31.570371627807617188 29.761310577392578125 24.76668548583984375 26.845308303833007812 33.882160186767578125 34.178173065185546875 32.68024444580078125 30.364412307739257812 28.6540679931640625 29.180353164672851562 30.356363296508789062 30.364048004150390625 31.026845932006835938 31.94574737548828125 30.510633468627929688 27.738798141479492188 26.368696212768554688 24.753530502319335938 19.799837112426757812 14.249767303466796875 11.464000701904296875 11.124599456787109375 15.094536781311035156 25.828733444213867188 28.934537887573242188 14.871582984924316406 7.1643352508544921875 19.00160980224609375 -9999 
-9999 12.0316162109375 9.6829080581665039062 5.89179229736328125 2.9265871047973632812 2.2539210319519042969 2.3957250118255615234 3.3916707038879394531 7.5679025650024414062 12.042506217956542969 5.536327362060546875 13.258824348449707031 28.9763336181640625 34.794727325439453125 33.51348876953125 28.421337127685546875 20.2822265625 10.413435935974121094 4.8985075950622558594 5.1050729751586914062 7.7698311805725097656 9.098354339599609375 9.7505807876586914062 9.7263622283935546875 11.076631546020507812 11.432652473449707031 11.385972023010253906 11.385136604309082031 11.607011795043945312 11.628658294677734375 11.362003326416015625 11.688754081726074219 12.639582633972167969 13.524577140808105469 14.654601097106933594 17.202297210693359375 22.146120071411132812 25.07904052734375 25.708431243896484375 25.335371017456054688 26.378946304321289062 29.834300994873046875 33.655879974365234375 36.10529327392578125 35.089344024658203125 32.7204132080078125 32.87188720703125 35.533191680908203125 30.537845611572265625 20.52913665771484375 27.716409683227539062 31.489501953125 30.403371810913085938 27.86092376708984375 24.5447998046875 21.412862777709960938 19.231603622436523438 13.651583671569824219 6.3549551963806152344 2.8731036186218261719 2.6307921409606933594 2.5174167156219482422 2.5480489730834960938 2.9856407642364501953 8.7378759384155273438 8.04412841796875 6.3405976295471191406 7.7092523574829101562 3.7406828403472900391 10.021205902099609375 20.5864410400390625 27.380458831787109375 28.6722869873046875 29.54561614990234375 32.264301300048828125 34.181133270263671875 33.770221710205078125 28.563432693481445312 19.929796218872070312 18.44731903076171875 22.299333572387695312 23.6605072021484375 23.562730789184570312 25.643217086791992188 27.479772567749023438 25.158679962158203125 12.920235633850097656 11.652522087097167969 27.5027313232421875 31.798330307006835938 32.050434112548828125 28.0734710693359375 22.66445159912109375 29.0744476318359375 32.522686004638671875 30.300106048583984375 24.541095733642578125 26.718877792358398438 32.831455230712890625 31.226942062377929688 24.69522857666015625 14.278011322021484375 23.77923583984375 34.038082122802734375 32.627216339111328125 26.880624771118164062 21.236310958862304688 20.452350616455078125 31.17508697509765625 35.809688568115234375 34.0519256591796875 17.727075576782226562 16.820941925048828125 32.880496978759765625 32.8611297607421875 33.36394500732421875 38.567119598388671875 40.456882476806640625 28.957777023315429688 23.001733779907226562 25.3370513916015625 16.94849395751953125 27.00147247314453125 29.495441436767578125 26.237642288208007812 20.574476242065429688 19.445863723754882812 22.101633071899414062 28.026384353637695312 32.01747894287109375 33.234893798828125 34.988063812255859375 34.438243865966796875 25.8102264404296875 17.162982940673828125 27.8487396240234375 29.54338836669921875 29.705884933471679688 31.90889739990234375 32.70735931396484375 33.35009765625 29.075899124145507812 26.292781829833984375 28.710514068603515625 31.646533966064453125 32.08637237548828125 32.5263824462890625 29.293376922607421875 25.234231948852539062 16.227260589599609375 27.136316299438476562 34.2984771728515625 34.973751068115234375 33.826885223388671875 33.681781768798828125 33.025787353515625 29.221815109252929688 27.838283538818359375 30.2823638916015625 31.401506423950195312 29.623785018920898438 26.006261825561523438 22.948947906494140625 21.390003204345703125 18.217685699462890625 14.697154998779296875 14.073937416076660156 13.015554428100585938 14.093606948852539062 23.15497589111328125 25.998140335083007812 9.5053911209106445312 14.735942840576171875 21.649808883666992188 -9999 
-9999 12.852337837219238281 10.357103347778320312 6.2067236900329589844 2.5193059444427490234 1.5563199520111083984 1.5085455179214477539 2.0418970584869384766 5.5936827659606933594 10.412932395935058594 7.9813365936279296875 3.4849512577056884766 16.632232666015625 28.526760101318359375 34.274387359619140625 33.408290863037109375 27.777090072631835938 21.130428314208984375 16.315923690795898438 14.021364212036132812 13.76331329345703125 12.670892715454101562 10.676442146301269531 9.0798006057739257812 10.106830596923828125 10.582781791687011719 10.743710517883300781 10.859201431274414062 10.812558174133300781 10.510729789733886719 10.410890579223632812 10.616463661193847656 11.023392677307128906 11.856302261352539062 12.461091995239257812 13.414735794067382812 16.796556472778320312 19.57579803466796875 21.229623794555664062 21.417467117309570312 23.165208816528320312 27.765735626220703125 32.870685577392578125 35.759754180908203125 35.07985687255859375 32.81398773193359375 33.344051361083984375 35.390224456787109375 32.0984954833984375 20.3386077880859375 23.9129791259765625 29.761526107788085938 29.133047103881835938 25.112016677856445312 21.073076248168945312 19.132244110107421875 17.8820037841796875 12.441325187683105469 5.4827065467834472656 2.6040523052215576172 2.6270940303802490234 2.6523108482360839844 2.7323436737060546875 3.2668049335479736328 8.357868194580078125 6.1506285667419433594 6.8830761909484863281 7.7773947715759277344 4.1496610641479492188 10.948636054992675781 21.112712860107421875 27.642055511474609375 28.805994033813476562 29.088121414184570312 31.114915847778320312 33.15230560302734375 32.95030975341796875 29.065771102905273438 23.888477325439453125 22.243139266967773438 23.86476898193359375 23.886445999145507812 23.143301010131835938 24.818813323974609375 25.783050537109375 22.948581695556640625 10.132968902587890625 12.415723800659179688 25.798990249633789062 30.785800933837890625 33.17017364501953125 31.827190399169921875 23.004816055297851562 19.935419082641601562 29.147157669067382812 32.784427642822265625 30.2283477783203125 28.3230133056640625 35.099811553955078125 33.478748321533203125 24.298555374145507812 14.549306869506835938 21.977718353271484375 31.252748489379882812 30.200878143310546875 23.173274993896484375 20.5471954345703125 28.511539459228515625 34.03826904296875 35.72789764404296875 32.56203460693359375 15.869574546813964844 17.298295974731445312 33.129909515380859375 32.402736663818359375 30.68180084228515625 35.774200439453125 41.856235504150390625 37.49076080322265625 25.904096603393554688 20.130260467529296875 19.556795120239257812 28.727874755859375 30.89885711669921875 28.776796340942382812 26.579784393310546875 27.032094955444335938 29.09210968017578125 31.215490341186523438 29.812677383422851562 32.247314453125 37.735485076904296875 38.832912445068359375 33.044239044189453125 10.183927536010742188 26.901140213012695312 33.049652099609375 26.271472930908203125 25.646900177001953125 32.2430877685546875 34.40779876708984375 30.424449920654296875 30.63018035888671875 31.422292709350585938 33.767833709716796875 33.9911346435546875 32.879474639892578125 29.331575393676757812 26.850248336791992188 20.655416488647460938 11.939576148986816406 30.1147003173828125 35.6748809814453125 35.854122161865234375 37.43683624267578125 38.156795501708984375 34.4478302001953125 29.916841506958007812 27.770816802978515625 26.575527191162109375 24.88787078857421875 21.668443679809570312 19.212718963623046875 19.0064239501953125 17.799688339233398438 15.750554084777832031 14.921591758728027344 14.33145904541015625 14.888721466064453125 21.377330780029296875 23.444004058837890625 5.6046843528747558594 18.386747360229492188 22.603565216064453125 -9999 
-9999 13.654672622680664062 9.8922376632690429688 5.7300257682800292969 2.3869509696960449219 1.4171379804611206055 2.077404022216796875 3.086669921875 6.4980607032775878906 9.6997385025024414062 6.006877899169921875 2.7551064491271972656 1.6411446332931518555 12.781780242919921875 26.268941879272460938 32.343936920166015625 27.746448516845703125 24.018548965454101562 23.7944793701171875 21.983394622802734375 19.302486419677734375 15.9599761962890625 12.179661750793457031 10.054917335510253906 10.030127525329589844 10.074240684509277344 10.637872695922851562 11.066804885864257812 10.999169349670410156 10.485662460327148438 10.258943557739257812 9.9211025238037109375 9.7701873779296875 10.203863143920898438 10.259950637817382812 11.54830169677734375 13.899161338806152344 16.001321792602539062 17.874973297119140625 18.140697479248046875 19.86847686767578125 24.67340087890625 30.771087646484375 34.260501861572265625 34.1217498779296875 32.81266021728515625 33.30638885498046875 34.15529632568359375 32.29425811767578125 22.29058837890625 21.364093780517578125 28.074604034423828125 28.76276397705078125 23.18134307861328125 18.1979217529296875 16.847646713256835938 15.823491096496582031 11.600351333618164062 5.8570356369018554688 2.8964905738830566406 2.0279405117034912109 1.8351293802261352539 1.9219791889190673828 3.4784750938415527344 8.04524993896484375 4.8433437347412109375 7.5589780807495117188 8.3502445220947265625 5.6508221626281738281 12.165528297424316406 20.863094329833984375 26.665117263793945312 27.762193679809570312 27.90547943115234375 29.598314285278320312 31.863222122192382812 33.04958343505859375 31.837245941162109375 29.947675704956054688 28.28304290771484375 26.417217254638671875 23.7483673095703125 22.405284881591796875 23.878557205200195312 23.743602752685546875 19.471960067749023438 9.6044015884399414062 12.486576080322265625 21.650415420532226562 26.962677001953125 32.14481353759765625 34.602325439453125 31.134954452514648438 21.194122314453125 17.831411361694335938 24.919046401977539062 30.053819656372070312 30.253747940063476562 34.405834197998046875 32.466320037841796875 19.49082183837890625 10.210191726684570312 17.581983566284179688 24.162187576293945312 23.479780197143554688 22.838682174682617188 28.607639312744140625 33.63875579833984375 35.474578857421875 34.920032501220703125 30.349542617797851562 13.625157356262207031 20.653827667236328125 35.0614013671875 32.914642333984375 29.578557968139648438 34.596118927001953125 41.29950714111328125 39.159114837646484375 30.338655471801757812 19.254453659057617188 18.361196517944335938 29.405862808227539062 32.62328338623046875 30.141302108764648438 30.389276504516601562 33.18535614013671875 35.9036102294921875 35.68076324462890625 33.15274810791015625 36.52169036865234375 39.951686859130859375 41.448455810546875 40.788410186767578125 25.752496719360351562 24.169065475463867188 35.03704833984375 32.152309417724609375 20.652219772338867188 28.803468704223632812 34.8473052978515625 32.25429534912109375 33.791194915771484375 34.878307342529296875 36.411342620849609375 35.319477081298828125 32.63376617431640625 30.588609695434570312 29.58280181884765625 30.941802978515625 14.971478462219238281 17.429830551147460938 34.041584014892578125 37.802791595458984375 39.168087005615234375 38.66121673583984375 35.875911712646484375 34.12950897216796875 33.94684600830078125 33.34119415283203125 31.842144012451171875 29.536340713500976562 26.600011825561523438 23.83118438720703125 21.419483184814453125 19.214174270629882812 16.875345230102539062 14.747034072875976562 14.673496246337890625 21.15325927734375 21.908487319946289062 1.098117828369140625 21.010469436645507812 24.874887466430664062 -9999 
-9999 15.152691841125488281 8.9590215682983398438 4.9012665748596191406 2.2086958885192871094 1.6485641002655029297 2.9255139827728271484 4.5748810768127441406 7.5192351341247558594 7.6678400039672851562 3.0674242973327636719 5.360553741455078125 6.4849438667297363281 1.6507170200347900391 15.226513862609863281 28.46666717529296875 24.5817108154296875 18.602083206176757812 18.866321563720703125 17.765584945678710938 16.2586822509765625 14.465641021728515625 11.753314018249511719 10.784379959106445312 10.513263702392578125 10.055538177490234375 10.631132125854492188 11.387900352478027344 11.437250137329101562 10.793187141418457031 10.166194915771484375 9.6138849258422851562 9.3406991958618164062 9.5597667694091796875 9.6951999664306640625 11.404238700866699219 12.897494316101074219 14.068693161010742188 15.379572868347167969 15.705610275268554688 16.615146636962890625 19.368177413940429688 24.893640518188476562 29.443193435668945312 31.280031204223632812 32.63329315185546875 33.338695526123046875 32.70197296142578125 30.928234100341796875 20.657955169677734375 17.065526962280273438 24.785909652709960938 26.945894241333007812 22.157810211181640625 16.460941314697265625 14.56906890869140625 13.767170906066894531 11.109568595886230469 6.2278990745544433594 2.8643589019775390625 1.9104629755020141602 2.1174845695495605469 2.5105535984039306641 5.1752047538757324219 8.7942714691162109375 3.9500725269317626953 9.3109073638916015625 10.163882255554199219 7.9674601554870605469 11.795718193054199219 18.7185516357421875 24.40023040771484375 25.70044708251953125 26.180938720703125 28.520185470581054688 31.252054214477539062 33.007232666015625 33.1401824951171875 33.40113067626953125 32.597263336181640625 29.230968475341796875 25.201219558715820312 22.754667282104492188 22.23128509521484375 20.50066375732421875 18.745485305786132812 18.266496658325195312 15.670886993408203125 17.045576095581054688 21.777292251586914062 27.064510345458984375 31.305608749389648438 33.085056304931640625 30.925664901733398438 25.541608810424804688 19.312566757202148438 24.65478515625 31.26306915283203125 33.010547637939453125 28.942333221435546875 13.27877044677734375 13.312996864318847656 22.707141876220703125 27.977689743041992188 29.710689544677734375 30.783855438232421875 32.160846710205078125 33.59903717041015625 33.80877685546875 31.085184097290039062 26.182741165161132812 11.5467376708984375 18.464540481567382812 34.02166748046875 33.902820587158203125 32.757717132568359375 37.117156982421875 41.71085357666015625 40.051593780517578125 34.381977081298828125 23.452398300170898438 13.165920257568359375 26.316785812377929688 33.13819122314453125 29.83374786376953125 29.28879547119140625 34.053165435791015625 37.682651519775390625 36.954833984375 35.53655242919921875 37.885364532470703125 40.369937896728515625 42.858745574951171875 43.31974029541015625 38.474216461181640625 34.326358795166015625 33.494258880615234375 33.27013397216796875 25.020399093627929688 23.005743026733398438 33.606143951416015625 34.47702789306640625 36.383640289306640625 36.900310516357421875 36.85357666015625 34.88896942138671875 32.773921966552734375 31.011209487915039062 28.523609161376953125 33.55156707763671875 28.475400924682617188 1.7276957035064697266 26.976911544799804688 38.688564300537109375 41.543025970458984375 39.339031219482421875 35.695423126220703125 34.402469635009765625 34.99945068359375 35.545436859130859375 35.44963836669921875 34.6171112060546875 32.592037200927734375 29.865871429443359375 27.570400238037109375 25.886676788330078125 21.571195602416992188 15.612579345703125 14.742806434631347656 21.77268218994140625 19.66751861572265625 4.4784626960754394531 23.878736495971679688 27.690433502197265625 -9999 
-9999 19.307714462280273438 10.346329689025878906 5.0247964859008789062 2.6349170207977294922 2.5745558738708496094 4.1758718490600585938 6.2969989776611328125 6.7749352455139160156 3.3444809913635253906 5.9407734870910644531 6.8582177162170410156 8.7063856124877929688 7.32675933837890625 6.9055242538452148438 23.299739837646484375 21.539165496826171875 12.500754356384277344 10.704810142517089844 10.346567153930664062 10.847913742065429688 11.01624298095703125 10.239612579345703125 10.318983078002929688 10.368170738220214844 10.013476371765136719 10.379662513732910156 11.098499298095703125 11.415998458862304688 11.202347755432128906 10.331040382385253906 9.4494037628173828125 9.0759906768798828125 9.0490856170654296875 9.3249387741088867188 10.983370780944824219 12.08448028564453125 12.828318595886230469 13.602839469909667969 13.748389244079589844 13.500308990478515625 13.522237777709960938 16.922391891479492188 21.697635650634765625 26.191518783569335938 31.15334320068359375 33.4308319091796875 32.586368560791015625 30.905496597290039062 20.28505706787109375 8.2006349563598632812 20.793262481689453125 24.586488723754882812 21.4202423095703125 16.158746719360351562 13.431859016418457031 12.629593849182128906 10.731052398681640625 6.281833648681640625 2.4854607582092285156 1.0168725252151489258 1.4846074581146240234 3.4405496120452880859 7.3710699081420898438 8.4963750839233398438 2.73467254638671875 11.384354591369628906 11.434973716735839844 8.3913507461547851562 9.774555206298828125 16.222398757934570312 21.744256973266601562 23.12616729736328125 23.09937286376953125 24.931814193725585938 28.211154937744140625 31.247865676879882812 32.891387939453125 33.575958251953125 33.090152740478515625 30.019084930419921875 25.912702560424804688 22.794134140014648438 19.091228485107421875 15.472296714782714844 21.409107208251953125 26.250436782836914062 22.477901458740234375 15.759745597839355469 18.126085281372070312 22.071325302124023438 26.1621551513671875 29.903543472290039062 31.802717208862304688 32.20072174072265625 28.47371673583984375 24.168275833129882812 28.02435302734375 29.600694656372070312 23.044206619262695312 10.12499237060546875 20.919010162353515625 28.9609375 30.984180450439453125 31.528989791870117188 31.638090133666992188 30.250453948974609375 27.730459213256835938 26.730335235595703125 27.098064422607421875 27.173305511474609375 21.745899200439453125 16.374202728271484375 27.77767181396484375 29.094022750854492188 31.817892074584960938 38.355556488037109375 40.877719879150390625 39.6254119873046875 36.925273895263671875 29.479093551635742188 16.554107666015625 18.48609161376953125 30.717266082763671875 28.974489212036132812 27.99373626708984375 33.27931976318359375 36.182285308837890625 35.189056396484375 34.72112274169921875 34.96164703369140625 39.1225738525390625 42.927806854248046875 42.16445159912109375 41.292877197265625 39.699214935302734375 31.6415863037109375 27.697460174560546875 27.809398651123046875 18.375631332397460938 29.698511123657226562 34.629840850830078125 36.0980072021484375 35.8104095458984375 35.25211334228515625 34.383464813232421875 33.347110748291015625 29.285396575927734375 25.646350860595703125 33.724643707275390625 33.352909088134765625 15.510066986083984375 15.414027214050292969 32.786960601806640625 38.91756439208984375 39.07935333251953125 36.806392669677734375 35.52974700927734375 35.160099029541015625 34.0173187255859375 32.730121612548828125 32.14113616943359375 31.20253753662109375 30.465101242065429688 30.123401641845703125 29.639955520629882812 25.2444000244140625 17.615818023681640625 17.813291549682617188 22.574083328247070312 13.850316047668457031 10.743657112121582031 25.372434616088867188 28.143102645874023438 -9999 
-9999 22.732776641845703125 14.648662567138671875 7.1503758430480957031 3.588764190673828125 3.5629794597625732422 4.9948453903198242188 6.2029166221618652344 2.9208848476409912109 8.222515106201171875 12.657915115356445312 12.319433212280273438 13.391641616821289062 12.716257095336914062 1.3919930458068847656 18.037080764770507812 20.70912933349609375 13.379359245300292969 9.8266763687133789062 8.9700002670288085938 9.07883453369140625 9.3464708328247070312 9.3749713897705078125 9.7616214752197265625 9.813159942626953125 9.325664520263671875 9.595119476318359375 10.204233169555664062 10.297252655029296875 10.344041824340820312 10.175991058349609375 9.5952291488647460938 9.0275087356567382812 8.6728954315185546875 8.739162445068359375 9.9251451492309570312 10.706830978393554688 11.21878814697265625 11.6377716064453125 11.614304542541503906 10.933709144592285156 10.130926132202148438 12.252058982849121094 15.84914398193359375 21.238811492919921875 28.10430908203125 32.444187164306640625 33.398284912109375 33.154216766357421875 26.290679931640625 5.9865202903747558594 17.337076187133789062 24.412891387939453125 22.827907562255859375 18.579145431518554688 15.705748558044433594 13.596652030944824219 10.443819999694824219 6.0322051048278808594 2.5767922401428222656 1.4587403535842895508 1.8284343481063842773 5.0909824371337890625 9.06591796875 6.643695831298828125 6.5753240585327148438 12.601299285888671875 10.735890388488769531 7.8233065605163574219 8.8873004913330078125 14.6879425048828125 19.780763626098632812 22.155460357666015625 23.134256362915039062 25.708187103271484375 30.394853591918945312 33.741107940673828125 34.823337554931640625 34.336521148681640625 32.720066070556640625 29.6047515869140625 25.153581619262695312 21.152980804443359375 14.632232666015625 9.6221866607666015625 20.560779571533203125 26.747911453247070312 28.220630645751953125 21.450239181518554688 18.086362838745117188 21.265897750854492188 25.363458633422851562 28.990215301513671875 31.29653167724609375 33.650165557861328125 33.232303619384765625 29.444032669067382812 25.861143112182617188 22.459058761596679688 14.954607009887695312 12.5423736572265625 24.292612075805664062 31.226566314697265625 31.389434814453125 29.828695297241210938 27.978792190551757812 24.051891326904296875 20.563232421875 23.095945358276367188 28.408397674560546875 30.916402816772460938 27.262432098388671875 18.268894195556640625 29.154024124145507812 32.08072662353515625 33.2718048095703125 37.957275390625 38.13116455078125 35.9673309326171875 35.84926605224609375 33.0135498046875 25.720119476318359375 12.220937728881835938 24.870822906494140625 27.242006301879882812 26.947122573852539062 32.374668121337890625 33.62020111083984375 32.81389617919921875 32.822437286376953125 30.622936248779296875 35.883487701416015625 40.004436492919921875 39.733760833740234375 39.543994903564453125 38.384613037109375 29.627538681030273438 13.999436378479003906 24.998208999633789062 19.081890106201171875 19.740825653076171875 29.528463363647460938 32.95822906494140625 33.86029815673828125 34.325275421142578125 34.0571136474609375 32.51180267333984375 26.910230636596679688 27.381158828735351562 35.547313690185546875 35.2319183349609375 23.076494216918945312 17.817987442016601562 26.464193344116210938 27.42047882080078125 31.594852447509765625 36.0487823486328125 36.939678192138671875 35.939388275146484375 33.6414947509765625 32.216861724853515625 32.1965179443359375 31.952289581298828125 32.226287841796875 31.179229736328125 29.655073165893554688 26.87065887451171875 22.0413360595703125 22.07220458984375 19.207971572875976562 1.8980624675750732422 17.525682449340820312 24.428318023681640625 24.848405838012695312 -9999 
-9999 22.878553390502929688 18.447774887084960938 10.781559944152832031 4.8038797378540039062 4.2148718833923339844 5.3620538711547851562 5.2665996551513671875 3.5549077987670898438 11.240358352661132812 10.852135658264160156 10.207049369812011719 14.224858283996582031 17.646392822265625 8.57889556884765625 10.615102767944335938 20.5352020263671875 18.060882568359375 12.626382827758789062 9.6981019973754882812 9.3277349472045898438 9.5567789077758789062 9.5394906997680664062 9.745365142822265625 9.6960687637329101562 9.0789289474487304688 9.0742130279541015625 9.33513641357421875 8.7393894195556640625 8.2287225723266601562 8.3636922836303710938 8.7964792251586914062 8.5825023651123046875 8.13873291015625 8.2240056991577148438 9.179718017578125 9.6510143280029296875 9.7275495529174804688 9.5842428207397460938 9.3482847213745117188 8.9484071731567382812 9.0968999862670898438 11.287739753723144531 13.784116744995117188 18.171598434448242188 24.57689666748046875 29.76522064208984375 33.166683197021484375 35.274089813232421875 32.628551483154296875 19.064756393432617188 8.3993768692016601562 20.790807723999023438 24.576921463012695312 22.352869033813476562 20.071990966796875 16.008075714111328125 10.260954856872558594 5.5736184120178222656 2.7794516086578369141 2.1969876289367675781 3.4972476959228515625 7.8485951423645019531 9.6601104736328125 3.3930149078369140625 8.9333600997924804688 12.20832061767578125 9.9947671890258789062 8.0969705581665039062 9.4560651779174804688 14.036356925964355469 18.851680755615234375 22.866886138916015625 25.616048812866210938 28.103397369384765625 31.844081878662109375 34.146175384521484375 34.09095001220703125 32.9396820068359375 31.484981536865234375 28.524518966674804688 23.330884933471679688 18.454675674438476562 11.181283950805664062 9.8579797744750976562 21.425542831420898438 23.340404510498046875 29.271890640258789062 27.957586288452148438 22.405591964721679688 25.152292251586914062 30.514551162719726562 33.52234649658203125 34.038333892822265625 34.324054718017578125 33.88082122802734375 31.74114227294921875 26.676483154296875 15.859720230102539062 10.497252464294433594 15.837177276611328125 24.212007522583007812 30.85567474365234375 31.35405731201171875 31.841234207153320312 33.592479705810546875 33.36470794677734375 32.070491790771484375 31.665731430053710938 31.531070709228515625 31.145172119140625 26.782629013061523438 7.8094120025634765625 28.762132644653320312 33.976116180419921875 34.391277313232421875 36.9124908447265625 35.748912811279296875 32.76880645751953125 32.088428497314453125 31.9302825927734375 30.470968246459960938 18.36591339111328125 16.464738845825195312 24.777261734008789062 26.685476303100585938 31.75644683837890625 32.00774383544921875 32.075794219970703125 31.256320953369140625 30.02239227294921875 33.21797943115234375 35.813873291015625 36.281291961669921875 36.170330047607421875 33.810070037841796875 31.241773605346679688 11.525008201599121094 20.417306900024414062 28.634836196899414062 21.44553375244140625 18.803375244140625 24.263856887817382812 29.2567596435546875 32.17455291748046875 32.526763916015625 30.157480239868164062 24.96509552001953125 30.213474273681640625 36.660282135009765625 36.0107421875 29.872915267944335938 27.6261138916015625 29.037137985229492188 20.109094619750976562 11.231843948364257812 26.001913070678710938 35.7656707763671875 38.217350006103515625 37.019054412841796875 35.119525909423828125 34.2857666015625 33.611789703369140625 32.522235870361328125 30.472131729125976562 29.645473480224609375 29.21973419189453125 27.386007308959960938 24.247589111328125 10.906658172607421875 11.433507919311523438 23.971620559692382812 25.368886947631835938 21.901485443115234375 -9999 
-9999 23.27971649169921875 21.157445907592773438 15.340910911560058594 7.2432665824890136719 5.1016469001770019531 6.0326695442199707031 4.0958628654479980469 5.3237519264221191406 10.978809356689453125 6.6795792579650878906 3.2123568058013916016 8.6124973297119140625 17.179571151733398438 16.64154052734375 2.3007361888885498047 14.238985061645507812 20.305791854858398438 16.337383270263671875 10.883089065551757812 9.4688386917114257812 9.6490383148193359375 9.6385374069213867188 9.6240482330322265625 9.6954402923583984375 9.4353151321411132812 8.9821262359619140625 8.5962924957275390625 8.1851911544799804688 7.3820314407348632812 6.9504761695861816406 7.1620121002197265625 7.2178902626037597656 7.0826702117919921875 7.5299696922302246094 8.692821502685546875 9.2697124481201171875 9.0530328750610351562 8.37273406982421875 7.6340575218200683594 7.1480212211608886719 7.736270904541015625 10.151424407958984375 12.836865425109863281 16.284177780151367188 21.225561141967773438 26.030794143676757812 31.085519790649414062 35.427642822265625 35.31946563720703125 28.007221221923828125 13.306534767150878906 12.507554054260253906 22.888692855834960938 23.93288421630859375 22.997081756591796875 18.69122314453125 10.765935897827148438 4.4813241958618164062 1.8455344438552856445 1.6482065916061401367 4.3662858009338378906 9.7568368911743164062 7.6914238929748535156 3.9223604202270507812 9.4854021072387695312 9.2398633956909179688 8.5971364974975585938 8.6805734634399414062 10.16278076171875 13.394849777221679688 17.85678863525390625 23.189088821411132812 27.732820510864257812 29.995477676391601562 32.067035675048828125 34.155673980712890625 34.139255523681640625 32.959217071533203125 32.263408660888671875 29.423114776611328125 23.03044891357421875 16.821554183959960938 10.612305641174316406 12.271387100219726562 23.87816619873046875 22.458282470703125 25.108060836791992188 29.764879226684570312 24.648136138916015625 25.24576568603515625 31.848520278930664062 34.270816802978515625 34.29496002197265625 34.471981048583984375 33.74448394775390625 31.193189620971679688 25.50261688232421875 13.015024185180664062 10.255537033081054688 17.097370147705078125 23.88018035888671875 29.582828521728515625 30.2289886474609375 31.689893722534179688 33.88903045654296875 34.0367279052734375 32.026584625244140625 28.916919708251953125 28.179323196411132812 31.329095840454101562 28.875486373901367188 2.0857903957366943359 30.345691680908203125 36.692211151123046875 34.993427276611328125 36.041797637939453125 35.68447113037109375 33.590137481689453125 30.26526641845703125 28.595842361450195312 29.889646530151367188 24.804670333862304688 13.129866600036621094 20.762971878051757812 26.67803955078125 31.183261871337890625 30.96490478515625 31.618072509765625 32.3670806884765625 34.17253875732421875 34.117717742919921875 34.08864593505859375 33.664241790771484375 32.433994293212890625 32.474613189697265625 36.148067474365234375 24.983585357666015625 7.7727370262145996094 29.43793487548828125 31.4850921630859375 26.141605377197265625 20.87162017822265625 21.321756362915039062 24.968744277954101562 27.185943603515625 25.009618759155273438 21.994104385375976562 30.161458969116210938 35.348667144775390625 35.798732757568359375 34.470973968505859375 33.7987518310546875 33.39347076416015625 27.229061126708984375 18.845264434814453125 8.8588552474975585938 29.084003448486328125 38.115459442138671875 38.92530059814453125 37.606739044189453125 36.428955078125 35.324554443359375 33.71692657470703125 32.05582427978515625 31.925676345825195312 31.910573959350585938 30.230724334716796875 22.800539016723632812 3.0572803020477294922 19.123941421508789062 27.567750930786132812 25.90203857421875 20.86682891845703125 -9999 
-9999 25.759862899780273438 22.053533554077148438 18.096242904663085938 10.628391265869140625 7.1437087059020996094 7.1632905006408691406 1.9220073223114013672 7.4270882606506347656 10.287011146545410156 6.4653387069702148438 3.2388644218444824219 5.3985586166381835938 13.238314628601074219 18.781522750854492188 13.426499366760253906 2.0067296028137207031 16.902177810668945312 19.349864959716796875 13.043839454650878906 9.2326202392578125 8.7043285369873046875 8.6293468475341796875 8.7802705764770507812 9.3154144287109375 9.2034902572631835938 8.4706277847290039062 8.3298692703247070312 8.3692083358764648438 7.72893524169921875 7.0601382255554199219 6.514720916748046875 6.2047505378723144531 5.8599863052368164062 5.7783756256103515625 6.4879560470581054688 7.3209714889526367188 7.500568389892578125 7.1062831878662109375 6.5087184906005859375 5.9549002647399902344 6.15421295166015625 8.1600313186645507812 11.379073143005371094 14.42530059814453125 17.145038604736328125 20.586330413818359375 26.485933303833007812 32.96123504638671875 35.0559844970703125 31.22101593017578125 20.925718307495117188 8.8872127532958984375 20.016481399536132812 22.220823287963867188 22.284366607666015625 21.129467010498046875 14.275651931762695312 5.6524844169616699219 1.1880892515182495117 1.2677358388900756836 5.8004412651062011719 10.899950981140136719 3.5988290309906005859 9.287860870361328125 9.3836164474487304688 5.5562067031860351562 5.7883753776550292969 8.0243215560913085938 10.254877090454101562 12.095861434936523438 16.027011871337890625 22.143846511840820312 28.169736862182617188 30.78626251220703125 31.370616912841796875 33.261554718017578125 34.266998291015625 33.460727691650390625 32.42107391357421875 29.737607955932617188 23.148618698120117188 16.015411376953125 11.055668830871582031 13.376370429992675781 24.039064407348632812 25.044836044311523438 19.747858047485351562 27.0761871337890625 25.043407440185546875 20.853479385375976562 29.590694427490234375 33.46155548095703125 33.597126007080078125 33.733936309814453125 32.46529388427734375 29.003393173217773438 22.299268722534179688 11.118197441101074219 8.5473356246948242188 14.930997848510742188 21.432674407958984375 25.595121383666992188 26.473903656005859375 27.932668685913085938 28.962522506713867188 28.06679534912109375 26.322549819946289062 27.06817626953125 30.900287628173828125 33.81158447265625 29.368719100952148438 2.3716514110565185547 31.078493118286132812 39.19742584228515625 38.643218994140625 38.2416229248046875 35.722934722900390625 32.85103607177734375 29.101346969604492188 26.56513214111328125 26.097721099853515625 24.449605941772460938 16.697917938232421875 13.781641960144042969 23.365468978881835938 29.832296371459960938 29.561601638793945312 29.452112197875976562 31.347148895263671875 35.051067352294921875 34.39415740966796875 32.466114044189453125 30.783491134643554688 29.348409652709960938 34.22809600830078125 37.83419036865234375 32.342380523681640625 9.0407886505126953125 20.817806243896484375 32.139743804931640625 32.753692626953125 30.487026214599609375 27.356676101684570312 24.133571624755859375 21.421085357666015625 18.291440963745117188 20.6942596435546875 29.31380462646484375 33.5428619384765625 35.290103912353515625 35.411144256591796875 35.2991485595703125 34.108844757080078125 28.71886444091796875 27.276763916015625 18.913005828857421875 25.767637252807617188 32.5676727294921875 35.3827972412109375 37.00901031494140625 36.903026580810546875 36.0808868408203125 35.885677337646484375 35.4818115234375 34.345203399658203125 32.635692596435546875 30.344133377075195312 20.857854843139648438 1.860157012939453125 21.482252120971679688 29.837697982788085938 24.241342544555664062 13.652749061584472656 -9999 
-9999 29.017765045166015625 23.072332382202148438 19.491611480712890625 14.091477394104003906 10.066527366638183594 6.2179293632507324219 4.1991248130798339844 9.5532016754150390625 8.9136676788330078125 5.6505680084228515625 3.0280632972717285156 3.1925227642059326172 8.4383106231689453125 15.777407646179199219 17.95900726318359375 10.154291152954101562 7.4300732612609863281 18.927570343017578125 15.708333015441894531 9.7310466766357421875 8.4504184722900390625 8.3608865737915039062 8.6927385330200195312 9.1574726104736328125 8.9387607574462890625 8.1164226531982421875 8.2395839691162109375 8.3680982589721679688 7.9221777915954589844 7.6102542877197265625 6.9649410247802734375 5.9827203750610351562 4.9715032577514648438 4.2359175682067871094 3.7330937385559082031 3.9771411418914794922 4.8450856208801269531 5.2791457176208496094 4.8779697418212890625 4.1763672828674316406 4.3479461669921875 6.1092534065246582031 9.5092678070068359375 12.631663322448730469 13.521818161010742188 14.6855316162109375 19.979587554931640625 27.858219146728515625 32.568119049072265625 31.691614151000976562 23.986995697021484375 10.110999107360839844 16.899866104125976562 18.389141082763671875 18.419549942016601562 20.995441436767578125 17.55780792236328125 8.4809818267822265625 2.2109625339508056641 1.8648128509521484375 8.2772073745727539062 10.939798355102539062 2.0820980072021484375 12.300074577331542969 7.4586014747619628906 2.5135445594787597656 4.1122565269470214844 7.8074846267700195312 10.970574378967285156 11.743249893188476562 14.678366661071777344 20.845396041870117188 27.7514190673828125 30.920392990112304688 30.61871337890625 31.982110977172851562 33.911449432373046875 34.048030853271484375 32.492107391357421875 29.215534210205078125 22.082487106323242188 14.122095108032226562 10.514508247375488281 13.692904472351074219 22.53499603271484375 26.90142822265625 19.876539230346679688 21.677547454833984375 25.481985092163085938 18.85230255126953125 26.264530181884765625 33.696990966796875 33.900936126708984375 32.938594818115234375 30.533502578735351562 25.78372955322265625 18.090890884399414062 9.1120433807373046875 7.7832689285278320312 12.777446746826171875 18.206491470336914062 20.551052093505859375 20.26110076904296875 21.313808441162109375 21.96692657470703125 22.372213363647460938 25.835254669189453125 30.237474441528320312 32.817905426025390625 33.27664947509765625 27.477390289306640625 3.1527254581451416016 31.524724960327148438 40.43262481689453125 39.642486572265625 36.77394866943359375 32.90897369384765625 31.969964981079101562 27.407346725463867188 22.636381149291992188 22.582180023193359375 24.523599624633789062 23.685901641845703125 15.365772247314453125 13.920307159423828125 25.61847686767578125 27.663038253784179688 26.239063262939453125 27.260496139526367188 31.30892181396484375 31.497333526611328125 29.456089019775390625 27.316745758056640625 28.947071075439453125 34.572940826416015625 36.72681427001953125 34.343097686767578125 21.3350067138671875 7.6598076820373535156 26.920391082763671875 31.171636581420898438 31.193067550659179688 31.128252029418945312 29.962324142456054688 24.45729827880859375 15.346509933471679688 19.126111984252929688 28.567478179931640625 32.331935882568359375 33.747989654541015625 33.802158355712890625 34.043796539306640625 33.096096038818359375 29.8333740234375 29.981786727905273438 22.914937973022460938 28.808752059936523438 30.837245941162109375 30.299274444580078125 32.3696746826171875 35.01909637451171875 36.306629180908203125 37.559551239013671875 37.2469329833984375 35.39687347412109375 33.080547332763671875 30.151973724365234375 21.397062301635742188 2.5374655723571777344 19.683725357055664062 31.517755508422851562 27.54788970947265625 15.522962570190429688 -9999 
-9999 31.406536102294921875 25.369045257568359375 22.093130111694335938 19.559095382690429688 11.895775794982910156 3.6097869873046875 9.2481937408447265625 8.5713024139404296875 5.8214216232299804688 4.1450734138488769531 2.6243546009063720703 0.97190636396408081055 3.8465471267700195312 10.385613441467285156 17.613153457641601562 18.418298721313476562 5.6142086982727050781 13.572070121765136719 17.504955291748046875 11.454345703125 8.9420843124389648438 8.5934057235717773438 8.197147369384765625 8.5924816131591796875 8.3494710922241210938 7.63162994384765625 8.01184844970703125 8.0917100906372070312 7.7779517173767089844 7.9929676055908203125 7.6979537010192871094 6.6526460647583007812 6.9763574600219726562 5.9285206794738769531 3.5445759296417236328 2.3131287097930908203 2.9356720447540283203 4.9689354896545410156 5.4929261207580566406 3.7230174541473388672 2.8062157630920410156 4.7876224517822265625 8.4458770751953125 11.128834724426269531 11.559347152709960938 11.701220512390136719 15.20160675048828125 23.117425918579101562 29.8739166259765625 31.06934356689453125 24.421472549438476562 9.1938333511352539062 12.642473220825195312 15.441508293151855469 15.902087211608886719 19.204759597778320312 17.616085052490234375 9.8026828765869140625 3.4050242900848388672 3.9349591732025146484 10.967238426208496094 8.1550540924072265625 7.665668487548828125 12.024857521057128906 4.4499454498291015625 1.4448031187057495117 3.4755547046661376953 8.0333499908447265625 11.792426109313964844 11.660550117492675781 13.835257530212402344 20.48738861083984375 27.675823211669921875 30.4554595947265625 29.7438507080078125 30.865144729614257812 33.275760650634765625 34.602085113525390625 33.584300994873046875 29.915065765380859375 21.521333694458007812 11.749117851257324219 8.4224758148193359375 12.115221023559570312 20.023731231689453125 26.202518463134765625 22.667507171630859375 15.98226165771484375 24.313280105590820312 22.404941558837890625 23.071668624877929688 32.5371856689453125 34.79638671875 33.11008453369140625 28.87958526611328125 22.25678253173828125 14.208805084228515625 8.5394029617309570312 9.5698909759521484375 13.378904342651367188 17.635313034057617188 20.168497085571289062 21.478326797485351562 23.35436248779296875 23.646953582763671875 23.826238632202148438 26.22077178955078125 29.620944976806640625 31.825426101684570312 31.8439178466796875 26.302591323852539062 4.3112235069274902344 29.951471328735351562 38.69200897216796875 37.346649169921875 35.841827392578125 38.494693756103515625 42.704090118408203125 42.264057159423828125 39.377399444580078125 37.117237091064453125 35.402088165283203125 33.838287353515625 28.419292449951171875 13.808927536010742188 16.117298126220703125 23.18436431884765625 22.981813430786132812 25.041955947875976562 27.997926712036132812 26.633365631103515625 24.77555084228515625 25.875049591064453125 30.822603225708007812 34.550045013427734375 35.5470733642578125 33.5752716064453125 27.441289901733398438 12.235476493835449219 23.245172500610351562 31.085050582885742188 30.968847274780273438 31.208576202392578125 31.71410369873046875 28.332956314086914062 18.607818603515625 15.041950225830078125 24.649045944213867188 30.169765472412109375 31.96524810791015625 31.708202362060546875 31.755914688110351562 30.574171066284179688 30.94720458984375 31.87366485595703125 24.139617919921875 29.0108642578125 31.217252731323242188 29.593807220458984375 27.354749679565429688 30.178079605102539062 35.244258880615234375 37.856670379638671875 37.2801513671875 35.815670013427734375 33.43943023681640625 29.4489898681640625 23.068645477294921875 8.4596872329711914062 13.509306907653808594 28.949527740478515625 29.41144561767578125 20.81085968017578125 -9999 
-9999 33.175716400146484375 27.337587356567382812 24.660951614379882812 24.900875091552734375 11.538636207580566406 6.6582264900207519531 7.5448756217956542969 4.0132341384887695312 2.9447464942932128906 3.4736969470977783203 2.53275299072265625 0.44049528241157531738 1.0627224445343017578 4.5697755813598632812 12.358525276184082031 20.027088165283203125 16.689968109130859375 2.47772979736328125 15.900588035583496094 14.29010009765625 9.9281530380249023438 7.7831950187683105469 7.3184728622436523438 8.2185468673706054688 7.932483673095703125 7.5546956062316894531 7.7980432510375976562 7.5830626487731933594 6.9283514022827148438 7.1302270889282226562 7.5232720375061035156 8.422039031982421875 9.4223108291625976562 7.3426432609558105469 4.9837903976440429688 3.0246877670288085938 2.6373093128204345703 5.5175447463989257812 7.4089994430541992188 4.4656195640563964844 2.0657060146331787109 4.1321949958801269531 8.0081624984741210938 9.9681406021118164062 10.734882354736328125 11.272973060607910156 13.559906959533691406 20.58625030517578125 28.276676177978515625 30.8200531005859375 25.764039993286132812 9.7239742279052734375 8.869258880615234375 15.35849761962890625 16.56905364990234375 18.534711837768554688 16.371877670288085938 10.141641616821289062 4.9176640510559082031 6.8693685531616210938 12.558110237121582031 2.9249298572540283203 11.8173828125 8.7784490585327148438 1.9056274890899658203 1.6433235406875610352 3.2662920951843261719 8.2597494125366210938 11.807073593139648438 11.083416938781738281 13.386090278625488281 20.671678543090820312 27.431467056274414062 29.43724822998046875 28.8172607421875 30.486499786376953125 33.362274169921875 35.16254425048828125 34.734577178955078125 31.2423553466796875 22.277696609497070312 11.579517364501953125 7.6466426849365234375 10.215569496154785156 17.3418426513671875 24.095394134521484375 25.30069732666015625 17.247724533081054688 21.478368759155273438 25.120656967163085938 20.577915191650390625 28.933530807495117188 34.781158447265625 33.486602783203125 27.840778350830078125 20.408479690551757812 12.675284385681152344 8.3261919021606445312 10.837793350219726562 14.714041709899902344 18.424768447875976562 21.630510330200195312 25.420885086059570312 27.733003616333007812 27.69120025634765625 27.628429412841796875 28.51673126220703125 29.529697418212890625 30.38993072509765625 31.694261550903320312 29.65236663818359375 13.066493988037109375 23.135345458984375 33.150234222412109375 34.135662078857421875 35.414539337158203125 36.6695098876953125 39.55344390869140625 40.420200347900390625 38.742557525634765625 37.34136199951171875 37.4373321533203125 37.52037811279296875 35.5260772705078125 27.220661163330078125 12.261727333068847656 16.189533233642578125 21.029470443725585938 25.054998397827148438 26.654499053955078125 23.138521194458007812 22.463735580444335938 27.18758392333984375 32.023311614990234375 34.747577667236328125 34.48992919921875 31.984710693359375 30.035425186157226562 20.426946640014648438 15.076722145080566406 28.850160598754882812 31.613756179809570312 31.704921722412109375 32.284038543701171875 30.275499343872070312 22.954998016357421875 13.832694053649902344 18.558820724487304688 26.3267669677734375 29.87679290771484375 30.278051376342773438 29.718198776245117188 27.589132308959960938 30.771453857421875 31.977682113647460938 25.245027542114257812 27.476331710815429688 30.235395431518554688 29.520650863647460938 27.2226409912109375 25.659856796264648438 30.799510955810546875 35.89102935791015625 36.694385528564453125 35.89643096923828125 33.141674041748046875 28.639581680297851562 25.038789749145507812 16.889230728149414062 4.1066336631774902344 22.97725677490234375 28.048257827758789062 23.861785888671875 -9999 
-9999 34.6881103515625 29.647874832153320312 27.68456268310546875 28.220554351806640625 10.0131988525390625 8.154880523681640625 4.1118283271789550781 1.4666202068328857422 1.8437830209732055664 3.1953608989715576172 2.4552965164184570312 0.51806122064590454102 0.14950171113014221191 0.57394230365753173828 4.9857883453369140625 14.387891769409179688 20.168985366821289062 11.367767333984375 7.4559340476989746094 14.934488296508789062 11.850354194641113281 8.5061779022216796875 7.3943080902099609375 7.8542537689208984375 7.8867611885070800781 7.17769622802734375 7.1011118888854980469 7.1761932373046875 6.4148712158203125 5.8523669242858886719 6.2491331100463867188 8.948974609375 11.341945648193359375 9.0720148086547851562 6.3626065254211425781 4.3341126441955566406 2.8499326705932617188 5.32222747802734375 8.1731586456298828125 4.8458933830261230469 2.2569565773010253906 4.2392277717590332031 7.9307475090026855469 9.412014007568359375 10.662501335144042969 11.786860466003417969 13.298021316528320312 18.93056488037109375 26.420557022094726562 31.040979385375976562 29.34674835205078125 15.7885284423828125 8.1128559112548828125 17.851287841796875 18.883419036865234375 18.3901824951171875 15.369470596313476562 10.943581581115722656 7.432003021240234375 10.542507171630859375 12.541804313659667969 3.4936816692352294922 13.161366462707519531 5.4244637489318847656 0.98843526840209960938 1.5087362527847290039 3.467845916748046875 8.0249490737915039062 10.722803115844726562 10.567897796630859375 13.073838233947753906 19.827398300170898438 26.20410919189453125 28.571109771728515625 29.280139923095703125 31.400739669799804688 33.89110565185546875 35.447849273681640625 34.84716033935546875 30.98094940185546875 22.914880752563476562 15.684299468994140625 13.277575492858886719 12.982300758361816406 16.52339935302734375 21.711343765258789062 26.055223464965820312 23.855649948120117188 18.788639068603515625 24.602945327758789062 19.949392318725585938 23.141063690185546875 33.3983917236328125 33.246936798095703125 26.90105438232421875 19.978475570678710938 14.0153656005859375 9.2994241714477539062 11.302026748657226562 15.504697799682617188 18.5458221435546875 22.608060836791992188 27.857660293579101562 30.155393600463867188 29.567941665649414062 29.464384078979492188 29.971460342407226562 28.452707290649414062 30.123781204223632812 35.0087127685546875 36.26152801513671875 26.225360870361328125 21.6231231689453125 25.918031692504882812 18.812213897705078125 17.704629898071289062 21.904691696166992188 27.696660995483398438 31.360626220703125 31.743968963623046875 32.354175567626953125 34.96075439453125 36.850921630859375 36.870792388916015625 33.7987213134765625 21.924213409423828125 10.753893852233886719 19.410036087036132812 26.036268234252929688 26.6956024169921875 22.781772613525390625 23.455247879028320312 28.468210220336914062 31.987352371215820312 33.630306243896484375 32.020252227783203125 30.678174972534179688 31.551294326782226562 28.084280014038085938 13.039385795593261719 20.53060150146484375 31.73685455322265625 33.5074615478515625 33.35189056396484375 31.988285064697265625 27.426164627075195312 18.874866485595703125 13.148566246032714844 19.283151626586914062 25.434558868408203125 28.186807632446289062 27.659044265747070312 25.6223907470703125 30.42406463623046875 31.363161087036132812 25.512439727783203125 24.477712631225585938 28.287794113159179688 28.684131622314453125 26.276126861572265625 23.740266799926757812 25.54827117919921875 32.06194305419921875 34.09366607666015625 33.020263671875 32.119609832763671875 30.138843536376953125 27.829839706420898438 24.904582977294921875 10.623524665832519531 12.879016876220703125 25.075775146484375 25.362188339233398438 -9999 
-9999 35.604705810546875 32.576030731201171875 31.464771270751953125 29.546405792236328125 9.1555852890014648438 7.9908061027526855469 3.0865712165832519531 1.1335442066192626953 1.4332016706466674805 2.9385740756988525391 2.4339723587036132812 0.56109595298767089844 0.34770813584327697754 0.51844203472137451172 1.2857112884521484375 6.9759621620178222656 16.412702560424804688 19.07781982421875 5.7370557785034179688 10.412279129028320312 14.394145965576171875 11.697670936584472656 8.3518304824829101562 7.3033494949340820312 7.19557952880859375 6.4607319831848144531 6.3828749656677246094 7.2508950233459472656 7.0785675048828125 5.9719958305358886719 4.9464039802551269531 7.0243153572082519531 11.42292022705078125 11.05651092529296875 7.4310541152954101562 4.857776641845703125 3.4353234767913818359 5.9730143547058105469 7.9745116233825683594 4.535381317138671875 3.5605194568634033203 4.3191423416137695312 7.2469053268432617188 8.419879913330078125 9.9476079940795898438 11.29547119140625 13.008710861206054688 17.787090301513671875 23.856977462768554688 30.636438369750976562 32.796421051025390625 21.6359405517578125 2.7348432540893554688 18.168445587158203125 20.71588897705078125 18.400430679321289062 14.855226516723632812 11.803250312805175781 10.601740837097167969 14.376905441284179688 11.062303543090820312 7.7789125442504882812 13.369261741638183594 4.0856833457946777344 0.48457315564155578613 0.87435674667358398438 3.4994218349456787109 7.3548169136047363281 9.3099946975708007812 9.9140920639038085938 12.274437904357910156 17.748218536376953125 23.157054901123046875 26.519886016845703125 29.74903106689453125 32.79125213623046875 34.364353179931640625 35.39225006103515625 34.13973236083984375 28.657459259033203125 22.604288101196289062 22.080226898193359375 22.971944808959960938 22.10308074951171875 20.817773818969726562 21.296525955200195312 24.722772598266601562 27.728662490844726562 22.383516311645507812 21.662799835205078125 24.5733489990234375 18.520595550537109375 30.58097076416015625 32.3231964111328125 26.53530120849609375 21.48491668701171875 17.793828964233398438 12.283937454223632812 12.229137420654296875 15.758862495422363281 18.33490753173828125 20.992818832397460938 25.564180374145507812 28.709936141967773438 29.0671234130859375 27.945753097534179688 25.752704620361328125 26.877080917358398438 31.613452911376953125 35.458202362060546875 36.946319580078125 30.51457977294921875 31.20760345458984375 35.5160675048828125 31.885133743286132812 29.22998809814453125 25.300693511962890625 20.436571121215820312 21.124338150024414062 26.7369842529296875 31.407030105590820312 33.990825653076171875 35.781398773193359375 36.863636016845703125 36.738513946533203125 29.638872146606445312 12.999116897583007812 16.291810989379882812 26.6439666748046875 28.139575958251953125 25.255723953247070312 26.19376373291015625 30.15628814697265625 31.649227142333984375 30.728273391723632812 29.588994979858398438 30.77970123291015625 32.510257720947265625 32.17099761962890625 23.630428314208984375 9.8872652053833007812 27.499349594116210938 33.75011444091796875 33.31536865234375 32.333179473876953125 30.429048538208007812 25.412992477416992188 16.457418441772460938 12.145628929138183594 18.517087936401367188 23.96575164794921875 25.11597442626953125 24.743328094482421875 29.80512237548828125 31.263225555419921875 26.459821701049804688 21.804693222045898438 25.709177017211914062 28.0181884765625 25.157745361328125 22.199161529541015625 22.756772994995117188 26.404596328735351562 27.035213470458984375 28.062206268310546875 31.752613067626953125 32.350292205810546875 30.093229293823242188 29.533273696899414062 23.815914154052734375 3.9403684139251708984 17.777982711791992188 24.581127166748046875 -9999 
-9999 34.26863861083984375 34.393772125244140625 33.882801055908203125 29.504938125610351562 11.691476821899414062 5.6396269798278808594 4.5307173728942871094 0.61616736650466918945 1.3600585460662841797 3.3381872177124023438 3.6200697422027587891 2.7710220813751220703 2.5884115695953369141 1.9561419486999511719 1.8250110149383544922 3.6385998725891113281 10.658398628234863281 19.519250869750976562 16.709285736083984375 0.91088646650314331055 12.703182220458984375 15.218152999877929688 11.204276084899902344 7.8234524726867675781 7.15848541259765625 6.8744668960571289062 6.4987378120422363281 6.84226226806640625 7.635894775390625 7.2951688766479492188 4.8618268966674804688 4.6763582229614257812 9.337646484375 11.873476028442382812 8.3770627975463867188 4.83306884765625 4.0870680809020996094 6.2734684944152832031 7.5836114883422851562 6.2979602813720703125 3.7056090831756591797 2.8680408000946044922 5.5615587234497070312 7.1651372909545898438 8.7305154800415039062 9.808948516845703125 12.353967666625976562 17.4354248046875 22.035770416259765625 28.925115585327148438 33.473476409912109375 26.488071441650390625 8.7613611221313476562 15.371644020080566406 20.060808181762695312 17.736639022827148438 14.271046638488769531 12.042993545532226562 13.690573692321777344 18.004764556884765625 8.5648488998413085938 11.686260223388671875 13.316598892211914062 4.0594706535339355469 1.972306370735168457 1.5753469467163085938 3.0684030055999755859 5.7556591033935546875 8.1291418075561523438 9.5426197052001953125 11.803400039672851562 15.782879829406738281 19.491771697998046875 24.662752151489257812 30.55066680908203125 33.641902923583984375 34.44476318359375 34.71472930908203125 32.40607452392578125 26.201578140258789062 23.993373870849609375 26.352155685424804688 28.215686798095703125 27.84961700439453125 25.562578201293945312 23.861543655395507812 25.356174468994140625 29.174604415893554688 29.010187149047851562 22.953454971313476562 28.131071090698242188 21.2737884521484375 26.336744308471679688 30.286466598510742188 27.197298049926757812 26.007444381713867188 23.203321456909179688 14.63790130615234375 13.186081886291503906 15.232496261596679688 17.548473358154296875 22.3265838623046875 27.925619125366210938 29.907941818237304688 28.336605072021484375 25.651309967041015625 27.179914474487304688 31.0301361083984375 32.629329681396484375 34.916309356689453125 35.16188812255859375 28.807727813720703125 33.99884796142578125 38.005741119384765625 37.416149139404296875 38.63759613037109375 37.938205718994140625 34.9384002685546875 28.899860382080078125 23.307329177856445312 26.915559768676757812 32.004192352294921875 34.573375701904296875 36.16556549072265625 37.918460845947265625 34.76576995849609375 21.73879241943359375 11.624579429626464844 25.13857269287109375 29.84677886962890625 29.222112655639648438 30.245792388916015625 32.1653900146484375 30.399457931518554688 29.102350234985351562 31.125232696533203125 32.656368255615234375 33.39044189453125 33.47948455810546875 29.251506805419921875 13.520239830017089844 20.188863754272460938 31.69455718994140625 32.47562408447265625 31.530462265014648438 30.652812957763671875 28.471446990966796875 23.096788406372070312 15.557078361511230469 12.951663970947265625 16.914499282836914062 20.475805282592773438 22.754812240600585938 27.672201156616210938 30.172208786010742188 27.53609466552734375 21.554935455322265625 22.963794708251953125 26.864355087280273438 25.925127029418945312 21.88912200927734375 20.44443511962890625 16.822750091552734375 14.571198463439941406 24.788492202758789062 32.333118438720703125 34.152130126953125 32.651214599609375 31.725038528442382812 31.076227188110351562 21.337583541870117188 2.5918710231781005859 17.921182632446289062 -9999 
-9999 32.134799957275390625 32.821849822998046875 32.61292266845703125 28.229726791381835938 15.226433753967285156 2.6136045455932617188 6.9853730201721191406 1.789048314094543457 2.1853048801422119141 5.1012253761291503906 5.7176036834716796875 4.3391432762145996094 4.2398834228515625 4.3341250419616699219 4.8525905609130859375 5.4060201644897460938 8.2209844589233398438 16.315401077270507812 22.570753097534179688 16.825479507446289062 0.48125150799751281738 13.823278427124023438 15.258031845092773438 10.790036201477050781 7.7803254127502441406 6.6597747802734375 5.6036367416381835938 5.3045353889465332031 7.1140999794006347656 8.5860118865966796875 6.3359856605529785156 4.3752880096435546875 7.649967193603515625 11.915310859680175781 8.896984100341796875 4.667179107666015625 4.2176251411437988281 4.9062013626098632812 6.3263697624206542969 6.0173749923706054688 4.1101408004760742188 3.7929968833923339844 4.3663129806518554688 5.6050739288330078125 7.8352193832397460938 8.9726781845092773438 11.48578643798828125 16.973201751708984375 20.983480453491210938 25.869760513305664062 30.944025039672851562 28.871561050415039062 17.48764801025390625 14.01418304443359375 18.27915191650390625 16.103424072265625 12.528738975524902344 11.475419044494628906 16.79027557373046875 20.99939727783203125 6.4431729316711425781 14.520191192626953125 13.348477363586425781 3.7864279747009277344 2.2074544429779052734 2.2041106224060058594 2.9510054588317871094 3.4260613918304443359 5.8887319564819335938 9.0408153533935546875 12.245904922485351562 14.745634078979492188 17.506044387817382812 24.703744888305664062 31.415241241455078125 33.519664764404296875 33.84589385986328125 33.13703155517578125 29.690595626831054688 26.619213104248046875 28.017032623291015625 28.796115875244140625 28.803182601928710938 28.457324981689453125 27.525453567504882812 26.066663742065429688 26.064178466796875 30.236169815063476562 33.70789337158203125 27.50716400146484375 28.828973770141601562 26.631788253784179688 24.543485641479492188 28.566781997680664062 28.712568283081054688 30.656093597412109375 26.269613265991210938 15.099528312683105469 14.677002906799316406 15.208630561828613281 17.757793426513671875 25.963968276977539062 29.73448944091796875 28.846723556518554688 27.754789352416992188 28.904638290405273438 30.399499893188476562 30.3503265380859375 32.56255340576171875 35.123104095458984375 33.98382568359375 27.323572158813476562 34.33798980712890625 37.0848846435546875 36.17728424072265625 36.760955810546875 37.300838470458984375 37.593410491943359375 36.1817169189453125 30.121553421020507812 21.015010833740234375 25.471929550170898438 32.46620941162109375 34.8921966552734375 37.182964324951171875 36.81543731689453125 30.242753982543945312 14.282056808471679688 17.589633941650390625 27.660127639770507812 30.885959625244140625 32.96173095703125 31.737806320190429688 28.460254669189453125 29.870462417602539062 31.811618804931640625 32.69368743896484375 33.48082733154296875 33.806629180908203125 31.704761505126953125 21.013238906860351562 14.512369155883789062 27.97701263427734375 30.691381454467773438 29.899030685424804688 29.267129898071289062 28.750728607177734375 26.65126800537109375 21.6839141845703125 15.108766555786132812 12.054110527038574219 13.271758079528808594 17.39414215087890625 23.61461639404296875 27.487668991088867188 27.493991851806640625 22.625970840454101562 20.355115890502929688 24.832538604736328125 27.3050537109375 23.378473281860351562 20.391050338745117188 13.861125946044921875 3.3567600250244140625 12.71363067626953125 27.606952667236328125 34.393383026123046875 35.278133392333984375 33.24387359619140625 32.581691741943359375 30.302148818969726562 12.660708427429199219 11.116267204284667969 -9999 
-9999 32.713069915771484375 30.371654510498046875 30.87273406982421875 27.668813705444335938 14.646361351013183594 2.3956351280212402344 7.7045130729675292969 3.4822678565979003906 3.9902708530426025391 6.6073360443115234375 5.1215362548828125 2.6772637367248535156 2.9809257984161376953 3.3987419605255126953 3.8561267852783203125 4.5830760002136230469 6.1185922622680664062 10.314550399780273438 19.02683258056640625 24.856027603149414062 16.350854873657226562 3.265869140625 15.148188591003417969 14.911844253540039062 9.8488569259643554688 6.3946523666381835938 4.895122528076171875 4.1295485496520996094 5.7761888504028320312 8.764495849609375 8.2347412109375 5.5028471946716308594 7.5187225341796875 12.170928001403808594 8.9130468368530273438 4.3170270919799804688 4.2446031570434570312 4.4488239288330078125 6.1553425788879394531 7.9901337623596191406 6.3312687873840332031 4.3543872833251953125 2.8110003471374511719 4.1936445236206054688 7.5231542587280273438 9.0172395706176757812 10.862253189086914062 16.314945220947265625 20.021434783935546875 22.099657058715820312 26.281816482543945312 27.395208358764648438 19.654962539672851562 11.332948684692382812 14.938582420349121094 13.863036155700683594 10.755281448364257812 11.731824874877929688 18.996915817260742188 22.0035400390625 7.2919054031372070312 16.160976409912109375 16.748476028442382812 5.5341677665710449219 1.9287036657333374023 2.4278547763824462891 3.1036024093627929688 2.2387397289276123047 2.1495709419250488281 7.2896046638488769531 12.373401641845703125 14.281546592712402344 17.611635208129882812 25.476770401000976562 31.390211105346679688 32.339275360107421875 31.517608642578125 29.378263473510742188 26.071353912353515625 28.754770278930664062 31.725080490112304688 30.732599258422851562 28.718336105346679688 27.549524307250976562 26.834360122680664062 25.862936019897460938 25.330595016479492188 29.513301849365234375 35.154327392578125 29.50412750244140625 28.428730010986328125 29.834318161010742188 25.966058731079101562 29.20641326904296875 30.627977371215820312 32.03472900390625 26.109813690185546875 15.191971778869628906 16.674243927001953125 16.097631454467773438 19.789983749389648438 26.844440460205078125 28.02747344970703125 25.994922637939453125 27.699934005737304688 29.569347381591796875 28.743621826171875 28.834869384765625 32.531097412109375 34.29290008544921875 31.345371246337890625 21.651395797729492188 32.706005096435546875 35.36124420166015625 34.512119293212890625 34.645511627197265625 35.30950927734375 35.730457305908203125 35.704807281494140625 34.4730072021484375 27.955202102661132812 20.409061431884765625 27.2595672607421875 31.566448211669921875 35.1879119873046875 36.855777740478515625 35.23259735107421875 25.5190277099609375 9.3926687240600585938 23.498983383178710938 31.934530258178710938 33.528827667236328125 30.271184921264648438 28.80127716064453125 29.749372482299804688 29.640600204467773438 30.245950698852539062 32.468441009521484375 33.34857177734375 32.667659759521484375 26.145174026489257812 16.151035308837890625 27.464641571044921875 30.242351531982421875 27.366907119750976562 25.756143569946289062 26.29508209228515625 27.059650421142578125 25.92443084716796875 20.416414260864257812 13.814239501953125 11.793589591979980469 12.934312820434570312 19.08087921142578125 24.241254806518554688 26.773336410522460938 23.609136581420898438 17.994459152221679688 22.401958465576171875 27.991758346557617188 25.880968093872070312 20.268957138061523438 17.830806732177734375 17.9947357177734375 8.8717212677001953125 9.3144865036010742188 26.341806411743164062 34.86749267578125 34.824405670166015625 32.658710479736328125 32.99834442138671875 22.105274200439453125 5.6416296958923339844 -9999 
-9999 29.816667556762695312 25.776735305786132812 28.856069564819335938 25.9952392578125 8.4011249542236328125 6.5544114112854003906 7.562652587890625 4.9551110267639160156 6.2253003120422363281 5.9851942062377929688 3.0072720050811767578 1.8533920049667358398 2.7147338390350341797 2.9507284164428710938 2.6018505096435546875 2.2246010303497314453 2.6080563068389892578 3.4393093585968017578 8.3915090560913085938 19.8790740966796875 23.707406997680664062 12.109503746032714844 5.3880009651184082031 15.311984062194824219 14.647904396057128906 9.3358602523803710938 5.1882381439208984375 3.7079977989196777344 4.4528021812438964844 7.411396026611328125 9.4810581207275390625 7.4623751640319824219 8.6352472305297851562 12.655652999877929688 8.4487476348876953125 3.3375773429870605469 3.8917117118835449219 4.1618986129760742188 5.8905458450317382812 8.192966461181640625 8.1135616302490234375 5.5161952972412109375 2.7779498100280761719 4.0111112594604492188 7.2622590065002441406 8.8193607330322265625 10.461157798767089844 15.809952735900878906 19.206806182861328125 19.001514434814453125 20.927789688110351562 23.72525787353515625 19.469524383544921875 7.9147648811340332031 9.6000852584838867188 11.948917388916015625 10.895453453063964844 12.988026618957519531 19.0868377685546875 21.120395660400390625 11.521260261535644531 13.728460311889648438 23.138057708740234375 13.566008567810058594 2.3476097583770751953 3.1535685062408447266 3.7241990566253662109 3.0331788063049316406 2.1743395328521728516 4.0828008651733398438 12.006669998168945312 15.456434249877929688 20.14162445068359375 27.933855056762695312 31.426433563232421875 29.518548965454101562 27.679065704345703125 25.108888626098632812 24.761899948120117188 30.713956832885742188 33.598720550537109375 32.785335540771484375 29.807338714599609375 27.276134490966796875 25.452947616577148438 24.362913131713867188 24.597822189331054688 27.987562179565429688 34.76560211181640625 30.732242584228515625 25.173109054565429688 29.14720916748046875 24.963077545166015625 29.122829437255859375 30.452703475952148438 29.700101852416992188 25.165636062622070312 16.76895904541015625 16.13269805908203125 15.761979103088378906 21.777698516845703125 24.70196533203125 23.517343521118164062 25.228822708129882812 27.652994155883789062 27.184902191162109375 25.024316787719726562 27.2264556884765625 30.485315322875976562 31.813982009887695312 27.023099899291992188 15.358050346374511719 32.426666259765625 34.27339935302734375 33.7613067626953125 34.242328643798828125 34.28617095947265625 34.778961181640625 34.802371978759765625 34.51381683349609375 32.581478118896484375 26.434396743774414062 25.8188323974609375 26.274595260620117188 30.044710159301757812 34.31238555908203125 36.27385711669921875 32.21977996826171875 14.570148468017578125 20.063386917114257812 32.93190765380859375 33.812286376953125 30.927732467651367188 28.7862396240234375 28.12139129638671875 28.549287796020507812 29.551128387451171875 31.977006912231445312 33.204776763916015625 32.75136566162109375 27.697896957397460938 17.984392166137695312 30.600526809692382812 34.160854339599609375 31.0855865478515625 28.269056320190429688 24.335805892944335938 21.604005813598632812 24.720308303833007812 24.989210128784179688 18.638383865356445312 14.085797309875488281 12.092302322387695312 15.751836776733398438 21.218250274658203125 25.633480072021484375 25.173833847045898438 17.7935791015625 19.836299896240234375 28.064527511596679688 28.54168701171875 21.690357208251953125 20.198673248291015625 24.278499603271484375 21.6976470947265625 12.384344100952148438 8.7883195877075195312 29.427976608276367188 35.722415924072265625 34.12326812744140625 33.96263885498046875 27.306425094604492188 1.5750992298126220703 -9999 
-9999 27.267801284790039062 22.428934097290039062 24.247159957885742188 20.851514816284179688 3.7365610599517822266 8.347209930419921875 7.0074429512023925781 6.34889984130859375 6.968601226806640625 4.3862032890319824219 2.5727708339691162109 2.5736606121063232422 3.2246119976043701172 3.6453022956848144531 3.3946058750152587891 2.6273188591003417969 2.3272771835327148438 1.730276942253112793 2.37584686279296875 10.961941719055175781 20.234228134155273438 19.876983642578125 9.8595447540283203125 6.2868757247924804688 16.081315994262695312 14.926962852478027344 8.0278444290161132812 3.6782944202423095703 3.2188320159912109375 5.1268024444580078125 9.1375284194946289062 9.7239007949829101562 10.744165420532226562 13.194191932678222656 7.5157270431518554688 2.1165258884429931641 2.9311692714691162109 4.1810541152954101562 5.4204149246215820312 6.5635867118835449219 7.6069231033325195312 5.4701676368713378906 3.20641326904296875 3.4732611179351806641 6.5225343704223632812 8.2500123977661132812 10.272873878479003906 15.426431655883789062 18.820590972900390625 18.120630264282226562 17.378961563110351562 20.0715179443359375 19.932222366333007812 9.9418592453002929688 4.1514325141906738281 10.647864341735839844 12.635211944580078125 13.993206977844238281 18.242025375366210938 20.066493988037109375 16.817258834838867188 7.1038417816162109375 23.592229843139648438 22.71319580078125 9.5341634750366210938 3.0762643814086914062 3.1499514579772949219 2.6006007194519042969 4.9754137992858886719 4.2944726943969726562 9.8108873367309570312 17.363269805908203125 22.812475204467773438 29.664346694946289062 30.768972396850585938 27.190603256225585938 27.555921554565429688 28.3079071044921875 29.098585128784179688 32.568756103515625 34.47170257568359375 35.184902191162109375 33.10384368896484375 30.513570785522460938 28.221401214599609375 25.86023712158203125 24.682020187377929688 26.184553146362304688 33.237186431884765625 32.477169036865234375 21.883419036865234375 27.845300674438476562 24.804210662841796875 28.53049468994140625 28.550960540771484375 28.135852813720703125 26.279928207397460938 17.504461288452148438 12.7359771728515625 17.805337905883789062 21.186201095581054688 19.079904556274414062 21.721347808837890625 23.074487686157226562 19.959087371826171875 16.609960556030273438 19.674917221069335938 26.8974761962890625 30.0444488525390625 28.964513778686523438 20.077802658081054688 19.569242477416992188 32.537445068359375 32.181591033935546875 31.002920150756835938 32.092693328857421875 32.271823883056640625 33.521144866943359375 34.393871307373046875 34.143947601318359375 33.8697509765625 31.961824417114257812 32.230930328369140625 30.164007186889648438 27.675189971923828125 29.55218505859375 34.341014862060546875 34.518764495849609375 22.597127914428710938 13.939318656921386719 31.440847396850585938 33.635272979736328125 29.795404434204101562 26.341337203979492188 26.71856689453125 29.252511978149414062 30.398885726928710938 31.61496734619140625 32.649143218994140625 31.950418472290039062 27.2677154541015625 18.955348968505859375 33.735240936279296875 37.56543731689453125 35.03618621826171875 33.626194000244140625 29.966684341430664062 23.054124832153320312 18.1807098388671875 22.911685943603515625 23.756406784057617188 18.367715835571289062 12.018621444702148438 13.664915084838867188 18.233835220336914062 23.260265350341796875 25.959135055541992188 19.396778106689453125 14.081384658813476562 26.480691909790039062 30.282817840576171875 23.783102035522460938 19.79994964599609375 26.197824478149414062 26.079486846923828125 22.794759750366210938 11.453558921813964844 19.109975814819335938 33.18003082275390625 35.140346527099609375 34.823577880859375 29.929439544677734375 5.4479198455810546875 -9999 
-9999 27.1906890869140625 22.62291717529296875 19.6455078125 13.770122528076171875 2.4098761081695556641 8.9310731887817382812 8.9638547897338867188 7.6268720626831054688 5.7238702774047851562 3.2405478954315185547 2.9898834228515625 3.3701686859130859375 3.2214245796203613281 2.6592123508453369141 2.2375030517578125 2.3652470111846923828 2.9985549449920654297 2.5693449974060058594 1.7804632186889648438 5.9374542236328125 12.999880790710449219 16.9172210693359375 16.498203277587890625 7.3546032905578613281 8.1233167648315429688 17.129159927368164062 14.557387351989746094 7.4950132369995117188 3.4585819244384765625 3.4578158855438232422 7.6314740180969238281 11.012194633483886719 12.951233863830566406 13.884052276611328125 7.1197161674499511719 2.1349101066589355469 2.9948356151580810547 5.9032163619995117188 5.0963296890258789062 4.9406485557556152344 6.5020465850830078125 6.100505828857421875 3.8464224338531494141 3.3222141265869140625 5.2484927177429199219 7.2655897140502929688 9.5464916229248046875 14.480357170104980469 18.138975143432617188 18.2455596923828125 16.437839508056640625 18.044803619384765625 20.533130645751953125 13.828044891357421875 1.4690011739730834961 9.3131465911865234375 14.197504043579101562 14.119896888732910156 17.175798416137695312 19.956571578979492188 20.398920059204101562 9.7648172378540039062 17.913381576538085938 26.397581100463867188 18.453357696533203125 7.4835205078125 1.9578442573547363281 0.41403976082801818848 5.6780881881713867188 9.118762969970703125 7.0222883224487304688 18.17841339111328125 23.726648330688476562 28.315662384033203125 30.341533660888671875 31.611619949340820312 34.22802734375 35.678009033203125 33.91304779052734375 33.656040191650390625 34.042530059814453125 35.614276885986328125 35.221950531005859375 33.958461761474609375 32.43096160888671875 29.9516448974609375 26.6721649169921875 25.066919326782226562 31.607038497924804688 34.1829071044921875 22.484239578247070312 27.807109832763671875 27.540044784545898438 30.674139022827148438 30.5707244873046875 31.0106658935546875 27.135593414306640625 14.828068733215332031 15.309234619140625 20.610439300537109375 18.783697128295898438 17.84258270263671875 17.688276290893554688 19.070552825927734375 23.00827789306640625 25.583086013793945312 28.469846725463867188 31.03064727783203125 30.281915664672851562 19.223485946655273438 17.167110443115234375 28.886119842529296875 29.34864044189453125 26.002061843872070312 27.561418533325195312 30.557003021240234375 30.30507659912109375 30.147369384765625 31.799554824829101562 33.350250244140625 33.662670135498046875 33.490810394287109375 34.354793548583984375 32.880596160888671875 28.958616256713867188 24.436288833618164062 27.967443466186523438 33.49448394775390625 29.217126846313476562 10.704559326171875 25.16097259521484375 31.412286758422851562 28.246242523193359375 26.400543212890625 27.757669448852539062 29.775892257690429688 29.99900054931640625 30.593029022216796875 31.31832122802734375 29.843503952026367188 25.551488876342773438 20.4732513427734375 35.611236572265625 38.569889068603515625 34.990322113037109375 32.96596527099609375 30.842329025268554688 28.675664901733398438 22.790113449096679688 16.666851043701171875 22.489397048950195312 22.850172042846679688 15.34363555908203125 12.360417366027832031 15.396912574768066406 19.807611465454101562 25.354951858520507812 23.063831329345703125 8.1828222274780273438 23.159326553344726562 32.6386871337890625 27.674037933349609375 15.607229232788085938 24.068017959594726562 27.364940643310546875 25.528348922729492188 20.288509368896484375 14.686573982238769531 28.205837249755859375 35.008533477783203125 36.103038787841796875 31.031982421875 8.3480882644653320312 -9999 
-9999 25.637659072875976562 18.36710357666015625 10.231334686279296875 3.8819868564605712891 7.909698486328125 12.326220512390136719 11.776873588562011719 8.2406358718872070312 4.8502545356750488281 3.1883342266082763672 2.7828888893127441406 2.5794353485107421875 1.9324936866760253906 1.4342594146728515625 1.6878232955932617188 2.0795419216156005859 3.1698689460754394531 3.5118024349212646484 2.8567075729370117188 4.4465212821960449219 9.0452880859375 12.111502647399902344 13.298166275024414062 12.464667320251464844 4.0198869705200195312 10.037486076354980469 17.453512191772460938 14.013075828552246094 6.1035103797912597656 2.8226633071899414062 5.914546966552734375 10.566397666931152344 13.525142669677734375 14.317973136901855469 9.3518457412719726562 4.1907095909118652344 5.3188347816467285156 6.0085554122924804688 3.2195637226104736328 4.0909152030944824219 5.9842128753662109375 6.8441386222839355469 5.5265440940856933594 3.4247541427612304688 4.3574376106262207031 6.5346813201904296875 8.4582471847534179688 12.537007331848144531 15.953917503356933594 17.234149932861328125 15.74755096435546875 16.496690750122070312 20.068538665771484375 16.31464385986328125 5.8251633644104003906 7.1866216659545898438 14.675757408142089844 14.444771766662597656 16.327154159545898438 19.859979629516601562 22.612560272216796875 15.567124366760253906 12.424884796142578125 25.727670669555664062 25.430200576782226562 18.321439743041992188 9.2661838531494140625 6.7901091575622558594 7.8758087158203125 12.586599349975585938 8.2569293975830078125 18.686922073364257812 23.779390335083007812 25.189985275268554688 29.502023696899414062 34.768123626708984375 37.547725677490234375 38.4862518310546875 36.388702392578125 34.21166229248046875 33.167415618896484375 34.537021636962890625 34.88431549072265625 34.496051788330078125 34.243671417236328125 33.067462921142578125 29.65789031982421875 25.730291366577148438 29.782915115356445312 34.246654510498046875 23.604181289672851562 26.911268234252929688 28.981241226196289062 32.45433807373046875 33.4069366455078125 32.05359649658203125 23.777866363525390625 15.111928939819335938 18.881254196166992188 20.834054946899414062 17.346574783325195312 13.292369842529296875 18.6903076171875 28.66988372802734375 32.13004302978515625 31.299907684326171875 31.360012054443359375 31.165096282958984375 22.47452545166015625 6.7251348495483398438 29.055027008056640625 34.95743560791015625 32.03238677978515625 23.797945022583007812 23.902383804321289062 32.380706787109375 35.457073211669921875 31.057188034057617188 27.65077972412109375 32.201244354248046875 33.327571868896484375 33.22783660888671875 33.66272735595703125 32.456134796142578125 30.248504638671875 25.706655502319335938 21.447454452514648438 28.7134552001953125 32.1351470947265625 18.722446441650390625 17.009126663208007812 28.597185134887695312 27.04720306396484375 25.971185684204101562 26.97824859619140625 28.674112319946289062 28.822742462158203125 29.353719711303710938 28.827770233154296875 27.212490081787109375 25.447504043579101562 21.606477737426757812 33.580776214599609375 36.90207672119140625 33.677944183349609375 31.435638427734375 29.470186233520507812 28.703004837036132812 27.783308029174804688 20.88117218017578125 15.850295066833496094 21.9712982177734375 20.845361709594726562 13.838883399963378906 13.483102798461914062 16.340906143188476562 23.669857025146484375 26.421825408935546875 14.699929237365722656 17.873586654663085938 32.570232391357421875 32.76673126220703125 18.826374053955078125 18.645631790161132812 27.010305404663085938 25.302560806274414062 21.590850830078125 16.0251617431640625 24.480512619018554688 34.711578369140625 37.420166015625 30.309221267700195312 8.1697626113891601562 -9999 
-9999 14.817816734313964844 1.1083185672760009766 9.0000171661376953125 12.269564628601074219 12.680646896362304688 13.035565376281738281 10.781452178955078125 6.3437671661376953125 3.8722276687622070312 2.8951079845428466797 2.0935246944427490234 1.438114166259765625 0.94247031211853027344 1.2696164846420288086 1.7006894350051879883 2.4510786533355712891 3.5841958522796630859 4.0968918800354003906 4.1145067214965820312 4.2936673164367675781 8.0290384292602539062 11.46399688720703125 10.199764251708984375 9.5654659271240234375 9.326114654541015625 2.4972286224365234375 11.186703681945800781 17.517129898071289062 11.131842613220214844 3.9581525325775146484 4.7503061294555664062 8.9142980575561523438 12.172082901000976562 13.169847488403320312 11.017971038818359375 7.9782495498657226562 7.3556952476501464844 4.3477153778076171875 2.2938895225524902344 3.4777607917785644531 7.8140807151794433594 9.3100652694702148438 6.2124142646789550781 3.2827050685882568359 3.6494228839874267578 6.0089502334594726562 8.0553493499755859375 10.891831398010253906 13.709264755249023438 15.874303817749023438 15.296324729919433594 16.125154495239257812 18.754762649536132812 15.917611122131347656 8.8318691253662109375 4.3664641380310058594 12.9443206787109375 15.298395156860351562 17.200983047485351562 20.423608779907226562 23.917316436767578125 19.403150558471679688 10.155476570129394531 22.82152557373046875 27.101110458374023438 22.78050994873046875 15.693441390991210938 14.20850372314453125 10.011514663696289062 14.500345230102539062 10.535678863525390625 18.801595687866210938 23.71169281005859375 26.112316131591796875 30.601367950439453125 33.60684967041015625 35.322345733642578125 36.67650604248046875 36.181735992431640625 34.345081329345703125 32.901386260986328125 33.728923797607421875 34.372158050537109375 34.185161590576171875 34.646541595458984375 34.626026153564453125 32.761203765869140625 28.316844940185546875 26.780767440795898438 31.53537750244140625 25.185655593872070312 23.876996994018554688 27.139129638671875 30.30206298828125 31.504938125610351562 27.222852706909179688 17.579059600830078125 15.62082672119140625 19.961523056030273438 20.362924575805664062 17.848306655883789062 20.431402206420898438 26.58611297607421875 31.63950347900390625 32.842212677001953125 30.353336334228515625 28.549160003662109375 24.472881317138671875 4.0008683204650878906 26.16048431396484375 35.39328765869140625 36.0804443359375 36.3939361572265625 34.253757476806640625 28.6049041748046875 32.305164337158203125 39.08988189697265625 35.919406890869140625 25.093194961547851562 29.52142333984375 32.586181640625 32.75687408447265625 32.78647613525390625 31.369720458984375 30.526884078979492188 28.618780136108398438 22.872287750244140625 23.7713165283203125 31.522045135498046875 24.889987945556640625 12.380900382995605469 25.576562881469726562 25.016702651977539062 24.134990692138671875 27.435483932495117188 29.231784820556640625 27.895021438598632812 26.043840408325195312 25.669595718383789062 27.409664154052734375 28.100400924682617188 23.135957717895507812 28.357440948486328125 34.349895477294921875 33.2168121337890625 30.595220565795898438 26.6112823486328125 23.635179519653320312 25.705699920654296875 25.708940505981445312 18.8948822021484375 16.772329330444335938 22.760549545288085938 19.561372756958007812 15.0525665283203125 14.040949821472167969 21.114942550659179688 26.7648773193359375 20.447427749633789062 20.614225387573242188 30.56634521484375 33.741992950439453125 24.964389801025390625 13.572940826416015625 25.398797988891601562 24.866853713989257812 21.490823745727539062 19.615774154663085938 25.428768157958984375 34.70902252197265625 37.485805511474609375 26.757312774658203125 2.6632685661315917969 -9999 
-9999 10.674345016479492188 20.3170318603515625 20.258090972900390625 14.7507781982421875 9.7078762054443359375 9.4995698928833007812 6.5905480384826660156 3.442378997802734375 2.6732230186462402344 2.1177504062652587891 1.5262540578842163086 0.89761000871658325195 0.48003217577934265137 0.75395643711090087891 0.65491002798080444336 1.4145482778549194336 2.8693518638610839844 4.2992463111877441406 5.2168302536010742188 4.5804715156555175781 7.4288768768310546875 11.888614654541015625 9.9266901016235351562 6.2553668022155761719 7.3624134063720703125 8.6488656997680664062 0.53912758827209472656 14.869990348815917969 15.995923042297363281 7.3465585708618164062 4.1471490859985351562 7.0576238632202148438 10.390901565551757812 11.124047279357910156 11.082945823669433594 11.082250595092773438 8.385768890380859375 3.8606824874877929688 2.6688647270202636719 5.5339055061340332031 9.7318506240844726562 9.1922807693481445312 5.032787322998046875 1.8272832632064819336 2.2478222846984863281 5.4139356613159179688 8.3932924270629882812 10.640660285949707031 14.077764511108398438 16.827806472778320312 15.426513671875 15.092946052551269531 16.414318084716796875 14.041039466857910156 9.6724538803100585938 4.50984954833984375 10.620886802673339844 15.168329238891601562 17.9687042236328125 20.869600296020507812 23.949016571044921875 21.524112701416015625 9.7064685821533203125 15.512616157531738281 25.665842056274414062 20.250898361206054688 16.0431060791015625 17.7822113037109375 14.066860198974609375 17.827159881591796875 16.49925994873046875 21.819204330444335938 27.40175628662109375 30.852994918823242188 32.47148895263671875 32.555004119873046875 32.93863677978515625 34.152988433837890625 34.010517120361328125 32.589038848876953125 31.690341949462890625 32.804233551025390625 34.988788604736328125 36.342258453369140625 36.941585540771484375 36.39408111572265625 34.9952850341796875 32.074127197265625 27.691196441650390625 27.408535003662109375 26.438873291015625 20.11101531982421875 23.524631500244140625 26.626972198486328125 26.539276123046875 17.722900390625 11.974992752075195312 18.730787277221679688 27.15057373046875 30.42855072021484375 30.03012847900390625 30.699197769165039062 30.835178375244140625 31.134260177612304688 31.535554885864257812 30.01868438720703125 27.106990814208984375 14.909092903137207031 16.980234146118164062 35.12725067138671875 35.74999237060546875 35.27584075927734375 34.952510833740234375 36.616397857666015625 34.327716827392578125 31.7623291015625 38.03240966796875 37.106441497802734375 25.652679443359375 25.058324813842773438 30.20204925537109375 31.080562591552734375 30.895961761474609375 29.527223587036132812 29.615945816040039062 28.85272216796875 25.657796859741210938 21.21945953369140625 27.898851394653320312 26.58911895751953125 10.587098121643066406 21.88306427001953125 26.143640518188476562 28.568727493286132812 29.812831878662109375 28.386705398559570312 25.889347076416015625 25.0816650390625 27.954076766967773438 30.17191314697265625 29.953273773193359375 26.632238388061523438 25.442813873291015625 30.810741424560546875 32.86191558837890625 30.426286697387695312 24.761722564697265625 16.640422821044921875 18.653245925903320312 23.899396896362304688 23.94818878173828125 20.52973175048828125 22.55251312255859375 24.381700515747070312 19.909727096557617188 15.975389480590820312 21.577692031860351562 26.569013595581054688 23.41680908203125 26.612771987915039062 30.246671676635742188 31.694021224975585938 27.3113555908203125 13.447313308715820312 23.935457229614257812 25.628025054931640625 23.905088424682617188 25.435834884643554688 29.694318771362304688 34.961151123046875 34.904102325439453125 18.7603302001953125 7.1089949607849121094 -9999 
-9999 28.181058883666992188 25.501146316528320312 17.650060653686523438 13.5715789794921875 6.7306919097900390625 7.433185577392578125 4.7597446441650390625 3.7820062637329101562 3.2233359813690185547 2.4335033893585205078 1.7625546455383300781 1.1961958408355712891 0.94441515207290649414 0.70265340805053710938 0.2718531489372253418 0.40106430649757385254 2.0336084365844726562 4.3324828147888183594 5.6472578048706054688 4.7822828292846679688 6.4505953788757324219 11.832733154296875 11.167403221130371094 5.7857522964477539062 4.3030486106872558594 7.9379820823669433594 6.6598997116088867188 7.4429225921630859375 17.797969818115234375 12.168842315673828125 4.5067701339721679688 5.7456583976745605469 9.4734754562377929688 10.389809608459472656 10.92887115478515625 12.101109504699707031 9.1757879257202148438 5.3986263275146484375 4.6877398490905761719 7.620410919189453125 10.506220817565917969 9.2560968399047851562 4.9367437362670898438 1.6290436983108520508 1.7670761346817016602 5.2531938552856445312 9.478420257568359375 12.111253738403320312 16.305223464965820312 17.692655563354492188 13.364288330078125 12.404303550720214844 14.112032890319824219 12.789464950561523438 9.80808258056640625 4.0068836212158203125 9.2177715301513671875 14.939232826232910156 17.797952651977539062 21.230602264404296875 24.025972366333007812 22.794080734252929688 12.664439201354980469 11.318562507629394531 23.635461807250976562 14.515779495239257812 16.7326812744140625 19.538866043090820312 18.728521347045898438 21.136749267578125 23.79721832275390625 27.965906143188476562 33.5797271728515625 34.995990753173828125 35.445018768310546875 35.92629241943359375 35.498752593994140625 35.39945220947265625 34.792022705078125 32.521999359130859375 31.318880081176757812 32.4300384521484375 35.484897613525390625 38.352680206298828125 39.783946990966796875 39.68881988525390625 37.981170654296875 35.31976318359375 32.1790618896484375 27.179460525512695312 24.44934844970703125 21.063922882080078125 20.071208953857421875 23.662893295288085938 21.432476043701171875 9.8089227676391601562 16.301992416381835938 26.421270370483398438 33.17011260986328125 34.30991363525390625 31.762357711791992188 29.923248291015625 27.9288787841796875 24.556573867797851562 22.976209640502929688 24.834461212158203125 24.4411468505859375 15.685982704162597656 20.947340011596679688 34.915935516357421875 35.302753448486328125 35.814846038818359375 32.7261810302734375 33.427936553955078125 35.4444122314453125 30.613508224487304688 31.723215103149414062 34.72928619384765625 27.961597442626953125 21.099771499633789062 25.870616912841796875 28.038015365600585938 28.380098342895507812 27.921941757202148438 27.925474166870117188 26.79878997802734375 26.729518890380859375 21.792909622192382812 20.811687469482421875 24.700242996215820312 12.78038787841796875 17.7250518798828125 29.306634902954101562 31.936336517333984375 30.775007247924804688 28.80460357666015625 27.225023269653320312 27.497293472290039062 29.490091323852539062 30.805004119873046875 30.320909500122070312 29.815752029418945312 28.142030715942382812 29.212976455688476562 31.066137313842773438 26.588619232177734375 23.947484970092773438 18.314279556274414062 12.1385650634765625 17.889734268188476562 23.9192047119140625 24.659870147705078125 21.747835159301757812 25.363506317138671875 23.131658554077148438 17.212812423706054688 22.721027374267578125 26.82192230224609375 26.125516891479492188 29.628847122192382812 31.087024688720703125 30.778532028198242188 28.181552886962890625 17.582963943481445312 23.4757843017578125 27.503736495971679688 28.859518051147460938 31.592144012451171875 33.77779388427734375 33.8963470458984375 27.479043960571289062 6.2361555099487304688 13.938192367553710938 -9999 
-9999 28.690250396728515625 19.909925460815429688 15.470444679260253906 13.678959846496582031 6.4273786544799804688 7.3987774848937988281 5.2645773887634277344 5.0333485603332519531 4.4455432891845703125 3.5936994552612304688 2.6115012168884277344 1.7855877876281738281 1.5790224075317382812 1.0044624805450439453 0.39409783482551574707 0.46742993593215942383 1.7264504432678222656 4.0662837028503417969 5.7428741455078125 5.043117523193359375 4.8445496559143066406 9.7370748519897460938 12.738621711730957031 8.427478790283203125 3.6642708778381347656 5.5250639915466308594 8.6018695831298828125 0.45381894707679748535 15.125620841979980469 16.340093612670898438 6.8914470672607421875 5.0260481834411621094 9.0974225997924804688 10.31047821044921875 10.283977508544921875 11.780565261840820312 8.9422626495361328125 5.3556351661682128906 5.1286678314208984375 7.6137413978576660156 10.440973281860351562 10.052487373352050781 5.9746189117431640625 1.7478717565536499023 1.1515491008758544922 4.89886474609375 11.051116943359375 14.969914436340332031 18.008657455444335938 16.255685806274414062 9.7984762191772460938 10.019329071044921875 12.880255699157714844 12.671995162963867188 10.885236740112304688 4.9671378135681152344 7.2386255264282226562 15.854908943176269531 19.181829452514648438 22.729661941528320312 25.402631759643554688 24.004663467407226562 10.902886390686035156 14.815983772277832031 19.356641769409179688 8.2066373825073242188 18.513433456420898438 20.482593536376953125 21.86425018310546875 21.046421051025390625 26.542108535766601562 27.795497894287109375 33.62764739990234375 36.122760772705078125 36.886043548583984375 38.134555816650390625 38.323230743408203125 37.937042236328125 37.725830078125 35.108127593994140625 32.0838623046875 32.267642974853515625 35.745769500732421875 38.8317108154296875 40.04724884033203125 40.69017791748046875 39.665485382080078125 36.25327301025390625 33.119281768798828125 28.523431777954101562 21.80852508544921875 21.484262466430664062 19.944272994995117188 20.757368087768554688 16.166151046752929688 10.711236953735351562 23.150753021240234375 31.410717010498046875 34.880695343017578125 33.97174072265625 30.981317520141601562 23.665601730346679688 11.727877616882324219 8.5146474838256835938 19.370365142822265625 28.646259307861328125 32.472705841064453125 29.2057647705078125 18.148561477661132812 28.69567108154296875 37.856014251708984375 39.186191558837890625 33.129695892333984375 26.14910125732421875 32.208858489990234375 32.660678863525390625 27.019273757934570312 30.481266021728515625 30.116634368896484375 21.74481201171875 20.529270172119140625 24.580511093139648438 26.148296356201171875 27.105287551879882812 26.994558334350585938 25.767431259155273438 26.830982208251953125 23.30464935302734375 15.815057754516601562 21.788022994995117188 18.580102920532226562 14.419178962707519531 30.212917327880859375 32.8870086669921875 30.132442474365234375 27.181629180908203125 25.47345733642578125 25.625566482543945312 27.127378463745117188 29.193769454956054688 28.745515823364257812 28.887218475341796875 26.693950653076171875 27.726022720336914062 30.710132598876953125 22.588365554809570312 18.647136688232421875 20.500064849853515625 16.564702987670898438 13.776323318481445312 21.034833908081054688 23.553882598876953125 18.382619857788085938 21.457067489624023438 22.726861953735351562 14.409700393676757812 20.422994613647460938 26.86142730712890625 28.897169113159179688 31.461572647094726562 32.41552734375 31.853700637817382812 28.729248046875 21.172389984130859375 23.563190460205078125 28.90695953369140625 31.5592498779296875 32.352996826171875 31.269075393676757812 26.669317245483398438 14.252661705017089844 6.6301245689392089844 16.509654998779296875 -9999 
-9999 26.403032302856445312 21.702091217041015625 20.005069732666015625 13.457292556762695312 8.3062591552734375 8.0393428802490234375 5.9174618721008300781 5.55718231201171875 5.1825585365295410156 4.9863643646240234375 4.0627045631408691406 2.5308821201324462891 2.0914990901947021484 1.4845104217529296875 0.2019068300724029541 0.47639858722686767578 1.0987144708633422852 3.7893512248992919922 5.9647378921508789062 6.1406149864196777344 4.8159418106079101562 5.6826496124267578125 10.819056510925292969 10.2873687744140625 4.3681812286376953125 4.1097683906555175781 8.1122198104858398438 4.9218297004699707031 9.8096818923950195312 17.406000137329101562 9.7569398880004882812 4.3937945365905761719 8.1607074737548828125 9.9104671478271484375 9.3307666778564453125 10.866124153137207031 9.0916090011596679688 6.1822543144226074219 6.3823428153991699219 6.4192948341369628906 8.9293575286865234375 10.05435943603515625 6.5860314369201660156 1.794160008430480957 1.0333573818206787109 5.0850729942321777344 12.79700469970703125 17.53893280029296875 17.642597198486328125 13.069091796875 7.2231693267822265625 8.1810979843139648438 11.753205299377441406 12.882045745849609375 12.096865653991699219 8.0284938812255859375 3.7171285152435302734 16.680234909057617188 22.101970672607421875 24.1392822265625 25.418140411376953125 23.353809356689453125 4.7105808258056640625 19.413068771362304688 12.309166908264160156 13.197848320007324219 19.116321563720703125 17.828304290771484375 21.730558395385742188 21.583858489990234375 28.412027359008789062 28.273057937622070312 30.423828125 34.70290374755859375 36.57898712158203125 38.0116729736328125 39.58664703369140625 40.10472869873046875 39.937755584716796875 37.6250457763671875 33.476375579833984375 33.114223480224609375 37.3861236572265625 39.471035003662109375 39.227970123291015625 39.179027557373046875 38.85418701171875 35.699432373046875 30.708873748779296875 25.158901214599609375 20.071897506713867188 22.1671600341796875 22.851797103881835938 18.7213592529296875 10.970339775085449219 16.633996963500976562 28.23816680908203125 34.06427764892578125 34.929332733154296875 32.861309051513671875 29.1783599853515625 14.890398025512695312 15.297524452209472656 25.9745025634765625 30.794359207153320312 33.830593109130859375 35.2350616455078125 34.047176361083984375 26.977453231811523438 20.204507827758789062 33.35538482666015625 40.227596282958984375 40.120513916015625 32.127513885498046875 25.467073440551757812 31.943307876586914062 30.327989578247070312 29.104982376098632812 30.804399490356445312 25.459650039672851562 18.341600418090820312 19.52144622802734375 20.7917327880859375 22.056505203247070312 22.845045089721679688 23.19280242919921875 25.001749038696289062 23.942873001098632812 17.9664459228515625 21.665060043334960938 21.811052322387695312 12.961307525634765625 28.917158126831054688 32.6860504150390625 29.503232955932617188 25.998891830444335938 24.117588043212890625 23.733121871948242188 24.842294692993164062 27.20257568359375 26.430444717407226562 25.226190567016601562 22.2674713134765625 23.02548980712890625 28.775983810424804688 22.782087326049804688 18.741701126098632812 17.963573455810546875 19.551855087280273438 18.61301422119140625 18.417469024658203125 19.421583175659179688 19.36496734619140625 18.249307632446289062 21.601627349853515625 14.918912887573242188 16.105436325073242188 24.527050018310546875 29.055917739868164062 31.021062850952148438 31.082244873046875 29.245569229125976562 24.733594894409179688 18.685764312744140625 18.822202682495117188 22.406110763549804688 23.6240997314453125 21.771427154541015625 17.971355438232421875 10.33356475830078125 4.3704361915588378906 15.19610595703125 16.42273712158203125 -9999 
-9999 25.68878173828125 26.311658859252929688 22.746091842651367188 12.693528175354003906 9.55303955078125 7.8933157920837402344 7.0073361396789550781 6.9460577964782714844 7.0894684791564941406 7.5712943077087402344 6.757762908935546875 4.3814535140991210938 3.4787626266479492188 2.9691743850708007812 1.510730743408203125 0.36044001579284667969 0.39624375104904174805 3.2280642986297607422 5.8454737663269042969 7.4596409797668457031 6.9849572181701660156 6.2482314109802246094 9.095539093017578125 9.7198123931884765625 4.4551920890808105469 3.7037448883056640625 8.108928680419921875 6.4230990409851074219 6.9334092140197753906 16.881866455078125 11.143855094909667969 4.1215376853942871094 6.9595046043395996094 9.388149261474609375 8.5053348541259765625 9.3961734771728515625 10.234168052673339844 9.3038387298583984375 7.1499409675598144531 5.7352910041809082031 8.6118612289428710938 9.597469329833984375 5.3928723335266113281 2.788234710693359375 2.3230221271514892578 5.9549965858459472656 13.75858306884765625 18.71100616455078125 16.267368316650390625 10.217541694641113281 6.0853762626647949219 6.3853793144226074219 10.016093254089355469 12.784810066223144531 12.5177154541015625 10.305354118347167969 3.4231593608856201172 15.144965171813964844 24.541772842407226562 25.942861557006835938 24.946836471557617188 22.75926971435546875 1.6140433549880981445 19.50249481201171875 7.3561582565307617188 17.943918228149414062 18.412359237670898438 14.3338623046875 19.50022125244140625 23.220010757446289062 30.770380020141601562 32.169097900390625 30.684360504150390625 30.452791213989257812 32.141666412353515625 33.695377349853515625 35.6796112060546875 37.650238037109375 38.724353790283203125 38.267486572265625 36.233722686767578125 36.528156280517578125 38.834095001220703125 38.062412261962890625 37.4960784912109375 37.761753082275390625 37.652294158935546875 34.66132354736328125 29.293779373168945312 22.537069320678710938 17.9792938232421875 24.389865875244140625 24.309236526489257812 16.2870941162109375 10.747939109802246094 23.031888961791992188 31.383213043212890625 34.54901123046875 33.209949493408203125 30.088773727416992188 24.564741134643554688 17.847759246826171875 29.996295928955078125 32.47895050048828125 32.828411102294921875 34.415348052978515625 35.177898406982421875 34.840213775634765625 32.001041412353515625 26.539026260375976562 26.328409194946289062 32.075702667236328125 41.031063079833984375 41.76342010498046875 28.836359024047851562 22.60094451904296875 29.3849639892578125 31.48258209228515625 33.082592010498046875 28.393428802490234375 20.055109024047851562 16.072383880615234375 15.180148124694824219 14.820478439331054688 15.0593719482421875 16.45855712890625 20.27712249755859375 23.45224761962890625 20.742282867431640625 21.659807205200195312 21.095186233520507812 12.459299087524414062 26.769060134887695312 31.338983535766601562 28.111988067626953125 26.0294647216796875 25.092874526977539062 23.045679092407226562 22.5028839111328125 23.66937255859375 22.728458404541015625 22.100828170776367188 21.070497512817382812 20.303983688354492188 26.037248611450195312 21.183221817016601562 19.141071319580078125 19.356225967407226562 19.826213836669921875 21.505336761474609375 20.070112228393554688 16.19293975830078125 21.450794219970703125 21.967164993286132812 22.177408218383789062 18.455816268920898438 16.22953033447265625 20.302484512329101562 25.024358749389648438 26.935699462890625 25.184352874755859375 19.450860977172851562 10.589443206787109375 2.9998605251312255859 0.24133102595806121826 0.94922453165054321289 1.6596610546112060547 0.58184045553207397461 3.8335828781127929688 10.294234275817871094 17.163768768310546875 18.679777145385742188 14.398577690124511719 -9999 
-9999 24.27657318115234375 28.486133575439453125 21.109365463256835938 9.7161474227905273438 8.1949033737182617188 8.1234874725341796875 9.687702178955078125 11.876786231994628906 13.269623756408691406 13.927285194396972656 13.169992446899414062 9.8328962326049804688 7.5951914787292480469 6.6046309471130371094 4.63885498046875 1.7520608901977539062 0.61272668838500976562 2.5655827522277832031 5.0772037506103515625 7.5884418487548828125 9.3516998291015625 7.6485419273376464844 7.9549784660339355469 7.9515390396118164062 4.0870113372802734375 4.3090233802795410156 8.6927328109741210938 5.758914947509765625 9.0656518936157226562 17.18993377685546875 9.978023529052734375 3.7384903430938720703 6.1968226432800292969 8.7567033767700195312 7.6010885238647460938 7.8001551628112792969 10.118216514587402344 10.768251419067382812 9.167324066162109375 8.1654758453369140625 9.9530611038208007812 7.8481917381286621094 3.8619818687438964844 3.9802739620208740234 4.1248641014099121094 7.1351070404052734375 14.117455482482910156 18.79961395263671875 15.34404754638671875 8.5559854507446289062 5.1678400039672851562 4.9219069480895996094 8.5378408432006835938 12.889834403991699219 12.45146942138671875 11.042136192321777344 8.0660676956176757812 15.954792022705078125 28.013589859008789062 28.573919296264648438 24.993951797485351562 21.6410369873046875 3.3927962779998779297 17.196720123291015625 6.4673304557800292969 18.561578750610351562 16.891307830810546875 12.877870559692382812 16.614286422729492188 22.335062026977539062 31.325235366821289062 33.26500701904296875 27.749528884887695312 20.048791885375976562 16.117282867431640625 14.155858039855957031 15.640415191650390625 20.627132415771484375 26.639581680297851562 31.812879562377929688 33.9754486083984375 34.640380859375 33.3656005859375 29.99680328369140625 31.312366485595703125 34.68648529052734375 36.866024017333984375 35.73155975341796875 33.390117645263671875 27.010509490966796875 17.970821380615234375 23.815860748291015625 20.14275360107421875 9.8315153121948242188 17.11878204345703125 27.792207717895507812 31.426218032836914062 31.646612167358398438 28.75934600830078125 27.580841064453125 27.680187225341796875 30.312602996826171875 34.986560821533203125 32.3249969482421875 31.017911911010742188 33.3179779052734375 35.225688934326171875 35.6851806640625 32.9163360595703125 30.356843948364257812 30.402486801147460938 27.808008193969726562 34.308513641357421875 41.7532196044921875 37.621124267578125 22.651411056518554688 22.8910675048828125 29.983263015747070312 31.928577423095703125 27.035291671752929688 19.320901870727539062 14.890753746032714844 13.051455497741699219 11.671088218688964844 10.557520866394042969 10.320465087890625 13.821677207946777344 19.727556228637695312 20.516798019409179688 20.858493804931640625 19.19823455810546875 12.264113426208496094 24.127832412719726562 28.006189346313476562 24.755056381225585938 23.927398681640625 24.097257614135742188 21.572477340698242188 19.58563232421875 18.975154876708984375 18.26113128662109375 19.120603561401367188 19.493175506591796875 18.61017608642578125 22.830305099487304688 21.4079437255859375 19.481229782104492188 21.486097335815429688 21.095111846923828125 20.65113067626953125 22.354248046875 17.475877761840820312 20.09050750732421875 22.853101730346679688 23.29155731201171875 21.494205474853515625 20.355396270751953125 20.824918746948242188 21.244829177856445312 18.867984771728515625 11.052135467529296875 1.8379015922546386719 13.854213714599609375 20.1895751953125 21.9416046142578125 21.05947113037109375 18.750509262084960938 17.135423660278320312 18.1814422607421875 18.918874740600585938 18.327709197998046875 15.627448081970214844 11.69240570068359375 -9999 
-9999 28.058805465698242188 28.163736343383789062 16.895458221435546875 6.76245880126953125 7.6635422706604003906 10.180750846862792969 14.627427101135253906 19.143980026245117188 21.712858200073242188 22.729122161865234375 22.407306671142578125 18.695455551147460938 14.138116836547851562 11.473367691040039062 8.9303770065307617188 4.8249316215515136719 1.6498552560806274414 1.9497928619384765625 3.7729697227478027344 6.3729944229125976562 10.609180450439453125 10.791029930114746094 8.14701080322265625 6.5864086151123046875 3.7562229633331298828 5.1412982940673828125 9.0579156875610351562 3.9120767116546630859 12.071866989135742188 16.289049148559570312 7.1047978401184082031 3.4891638755798339844 6.2234983444213867188 8.4500722885131835938 6.9059205055236816406 6.5874600410461425781 8.7355222702026367188 10.057074546813964844 9.5230588912963867188 9.89794158935546875 10.112952232360839844 6.3738188743591308594 3.7898058891296386719 3.6711637973785400391 5.0264654159545898438 8.6850233078002929688 14.394902229309082031 17.611009597778320312 14.71117401123046875 7.9446964263916015625 3.7474405765533447266 3.8568201065063476562 7.5107607841491699219 12.830634117126464844 12.539450645446777344 11.584564208984375 11.603629112243652344 19.830724716186523438 31.97721099853515625 30.1874237060546875 24.492481231689453125 19.981050491333007812 9.5869045257568359375 16.231990814208984375 9.3175678253173828125 19.338384628295898438 15.757454872131347656 13.522653579711914062 14.2686004638671875 20.124898910522460938 30.366189956665039062 29.218494415283203125 14.468534469604492188 2.6340117454528808594 11.305233955383300781 14.983965873718261719 14.181376457214355469 8.2266588211059570312 1.7807490825653076172 12.987359046936035156 19.49599456787109375 19.444164276123046875 14.134004592895507812 8.3473615646362304688 12.173320770263671875 22.168853759765625 31.992864608764648438 36.266139984130859375 36.879360198974609375 32.451995849609375 21.450078964233398438 22.948513031005859375 13.394526481628417969 12.2068328857421875 23.192457199096679688 27.913488388061523438 27.853137969970703125 25.556270599365234375 25.867870330810546875 31.644842147827148438 33.284671783447265625 32.681674957275390625 33.34226226806640625 29.854993820190429688 28.367160797119140625 30.751615524291992188 33.451198577880859375 35.5142364501953125 32.778110504150390625 30.868696212768554688 31.095859527587890625 27.99953460693359375 30.618541717529296875 37.743717193603515625 37.3885955810546875 30.511774063110351562 22.799495697021484375 24.3792266845703125 24.7238006591796875 19.10711669921875 14.153425216674804688 13.159729957580566406 12.344835281372070312 10.876682281494140625 9.1963596343994140625 7.8318166732788085938 8.356044769287109375 12.849386215209960938 16.12337493896484375 18.629865646362304688 15.084847450256347656 12.460009574890136719 21.226682662963867188 23.577867507934570312 22.432180404663085938 20.97092437744140625 20.655551910400390625 19.3444366455078125 18.491558074951171875 18.792604446411132812 19.10492706298828125 19.36750030517578125 19.171827316284179688 18.370059967041015625 20.309823989868164062 21.278961181640625 22.64888763427734375 22.775266647338867188 23.006008148193359375 22.729021072387695312 24.853466033935546875 22.420078277587890625 20.83853912353515625 22.408361434936523438 23.177539825439453125 22.668781280517578125 21.287872314453125 17.864999771118164062 11.796777725219726562 2.4470536708831787109 11.844940185546875 23.301034927368164062 27.29756927490234375 26.328857421875 25.19036102294921875 24.357789993286132812 22.500616073608398438 19.266178131103515625 16.803096771240234375 14.218134880065917969 13.402125358581542969 13.148468017578125 11.955430984497070312 -9999 
-9999 29.150156021118164062 25.017930984497070312 12.312292098999023438 7.6612105369567871094 9.7789211273193359375 13.9314422607421875 19.28838348388671875 23.614175796508789062 26.0733642578125 27.077442169189453125 27.067468643188476562 24.313440322875976562 19.223827362060546875 15.794986724853515625 14.1400909423828125 10.175455093383789062 4.295879364013671875 1.9298499822616577148 3.1022515296936035156 5.2903165817260742188 10.55246734619140625 12.756559371948242188 9.20758819580078125 6.0678553581237792969 3.3543629646301269531 5.1735677719116210938 9.335094451904296875 3.6194963455200195312 12.565555572509765625 16.011137008666992188 7.7113323211669921875 4.1479496955871582031 6.0562825202941894531 8.1022319793701171875 7.071140289306640625 6.1137614250183105469 7.422008514404296875 9.8941745758056640625 10.638025283813476562 9.8111257553100585938 8.521228790283203125 7.0659160614013671875 5.4285526275634765625 5.698825836181640625 6.7261419296264648438 10.871375083923339844 14.813596725463867188 15.166470527648925781 13.107924461364746094 8.0457172393798828125 2.9142065048217773438 3.1744990348815917969 5.9838109016418457031 11.353261947631835938 12.024168968200683594 11.483997344970703125 12.915633201599121094 21.307954788208007812 32.42943572998046875 28.782817840576171875 22.054483413696289062 16.404359817504882812 17.18418121337890625 17.52813720703125 15.968726158142089844 21.41480255126953125 15.116085052490234375 14.66628265380859375 15.856749534606933594 19.733488082885742188 28.04685211181640625 20.852605819702148438 4.4263796806335449219 20.246480941772460938 23.931783676147460938 22.575849533081054688 22.40306854248046875 22.194942474365234375 19.283838272094726562 12.710116386413574219 6.5300755500793457031 5.2182636260986328125 8.5728168487548828125 12.670340538024902344 11.869745254516601562 3.9947593212127685547 13.138302803039550781 29.122674942016601562 36.122341156005859375 34.300357818603515625 24.12451934814453125 20.472208023071289062 10.914876937866210938 18.136798858642578125 23.223585128784179688 27.120849609375 28.761838912963867188 26.5026702880859375 30.385189056396484375 35.599681854248046875 35.020503997802734375 31.337907791137695312 30.776849746704101562 27.020353317260742188 25.427350997924804688 27.637426376342773438 30.498563766479492188 34.00075531005859375 32.127635955810546875 30.870130538940429688 30.27689361572265625 27.272386550903320312 30.05120086669921875 37.01280975341796875 35.87529754638671875 32.1314849853515625 28.103151321411132812 22.7753143310546875 17.993597030639648438 13.564426422119140625 11.391752243041992188 12.071056365966796875 11.994581222534179688 10.937076568603515625 9.4767751693725585938 8.3668527603149414062 7.885379791259765625 9.498455047607421875 12.395421028137207031 15.592922210693359375 11.993352890014648438 15.428447723388671875 20.02545166015625 23.305667877197265625 24.938524246215820312 24.257425308227539062 23.276613235473632812 20.809289932250976562 20.5537261962890625 23.411607742309570312 25.357151031494140625 24.96491241455078125 23.267091751098632812 21.262159347534179688 20.846782684326171875 21.970911026000976562 24.525888442993164062 23.57596588134765625 23.740720748901367188 26.80686187744140625 28.444530487060546875 26.897989273071289062 23.5365447998046875 23.094379425048828125 21.380769729614257812 16.714670181274414062 9.5821180343627929688 1.2344783544540405273 10.095129966735839844 19.603998184204101562 27.870733261108398438 29.670444488525390625 24.154123306274414062 18.562686920166015625 16.713682174682617188 16.958843231201171875 17.273603439331054688 15.346177101135253906 14.87960052490234375 16.27678680419921875 18.727235794067382812 19.036533355712890625 17.171482086181640625 -9999 
-9999 27.624568939208984375 21.259954452514648438 9.6892070770263671875 9.9010705947875976562 13.162412643432617188 17.8686981201171875 21.264278411865234375 22.816576004028320312 22.7976531982421875 24.244930267333984375 26.373653411865234375 26.264698028564453125 22.713167190551757812 18.962362289428710938 18.030401229858398438 16.445888519287109375 10.579695701599121094 4.8166780471801757812 4.7116322517395019531 7.8133807182312011719 11.907576560974121094 12.850121498107910156 9.192363739013671875 5.7765817642211914062 3.022502899169921875 4.0813207626342773438 9.2956647872924804688 5.2868514060974121094 9.5564069747924804688 16.748342514038085938 12.443402290344238281 6.6563291549682617188 5.8023676872253417969 7.0380840301513671875 7.5423994064331054688 6.756450653076171875 6.2555575370788574219 8.8958339691162109375 11.021596908569335938 9.36304473876953125 7.3690710067749023438 8.1123867034912109375 9.2500009536743164062 7.41175079345703125 8.4420948028564453125 13.216098785400390625 14.999062538146972656 11.822943687438964844 9.7766971588134765625 8.0636472702026367188 3.0352866649627685547 2.8753483295440673828 4.5031228065490722656 9.110687255859375 10.686122894287109375 10.342397689819335938 12.246736526489257812 20.98188018798828125 32.001644134521484375 29.211355209350585938 22.818881988525390625 12.666299819946289062 24.57790374755859375 17.146350860595703125 21.14157867431640625 24.331079483032226562 16.383760452270507812 15.771929740905761719 16.6859130859375 19.098791122436523438 23.995977401733398438 10.72693634033203125 16.205194473266601562 24.546113967895507812 18.559234619140625 12.713097572326660156 13.026629447937011719 17.155206680297851562 21.429170608520507812 22.40355682373046875 21.164491653442382812 19.288274765014648438 17.33254241943359375 15.587645530700683594 15.28865814208984375 16.768800735473632812 10.19647216796875 11.149801254272460938 29.778507232666015625 33.632476806640625 24.3169708251953125 16.609615325927734375 13.670943260192871094 19.73151397705078125 24.846593856811523438 32.102207183837890625 35.79547882080078125 33.51030731201171875 33.340312957763671875 34.671234130859375 34.59246826171875 30.536285400390625 29.072111129760742188 24.673788070678710938 22.534044265747070312 24.024644851684570312 27.379058837890625 31.812976837158203125 31.939905166625976562 30.436130523681640625 27.850297927856445312 25.036197662353515625 28.091974258422851562 35.902286529541015625 35.5086212158203125 33.283416748046875 30.12082672119140625 23.40496826171875 16.5641326904296875 13.514767646789550781 12.595605850219726562 12.929602622985839844 13.929883003234863281 14.892346382141113281 15.465501785278320312 15.561591148376464844 15.338294029235839844 15.84127044677734375 16.650903701782226562 15.913928031921386719 13.373554229736328125 18.115659713745117188 23.528226852416992188 27.648122787475585938 29.696804046630859375 30.548069000244140625 30.393291473388671875 27.056612014770507812 23.701541900634765625 26.183744430541992188 30.029951095581054688 31.258348464965820312 28.45793914794921875 24.450326919555664062 23.13407135009765625 24.1439361572265625 25.455755233764648438 26.199522018432617188 26.654949188232421875 27.855638504028320312 28.302652359008789062 24.885082244873046875 17.897125244140625 12.53809356689453125 5.34619903564453125 5.2191109657287597656 14.748499870300292969 22.235181808471679688 27.577180862426757812 30.481243133544921875 30.106317520141601562 24.152454376220703125 15.740508079528808594 12.690791130065917969 12.263883590698242188 12.661523818969726562 14.029719352722167969 15.661795616149902344 21.695318222045898438 27.195148468017578125 29.550075531005859375 27.907037734985351562 23.66956329345703125 -9999 
-9999 25.351766586303710938 17.452917098999023438 7.9335846900939941406 12.933114051818847656 16.951253890991210938 19.92491912841796875 21.161174774169921875 20.746942520141601562 18.683645248413085938 20.775339126586914062 25.01552581787109375 27.304637908935546875 26.010568618774414062 22.11844635009765625 19.734249114990234375 19.931673049926757812 17.372632980346679688 10.604955673217773438 7.5775299072265625 10.342716217041015625 12.159017562866210938 10.204930305480957031 7.73574066162109375 5.5632243156433105469 2.2308466434478759766 2.4595761299133300781 8.2753438949584960938 7.4463963508605957031 3.3853352069854736328 14.017401695251464844 16.35231781005859375 10.799382209777832031 6.500461578369140625 6.1554265022277832031 7.618648529052734375 7.4358057975769042969 5.4518480300903320312 7.7309250831604003906 10.307643890380859375 8.4069690704345703125 6.5477800369262695312 8.9892110824584960938 11.11861419677734375 9.1094045639038085938 10.879480361938476562 15.008823394775390625 13.828938484191894531 8.2605648040771484375 5.7477459907531738281 7.2538866996765136719 3.4548053741455078125 3.1822388172149658203 3.7752764225006103516 7.0026774406433105469 8.73471832275390625 8.9300031661987304688 11.075674057006835938 21.1618804931640625 32.176105499267578125 30.604877471923828125 24.218767166137695312 13.232394218444824219 30.347604751586914062 14.747303962707519531 25.282022476196289062 26.436626434326171875 18.480600357055664062 15.171703338623046875 14.703192710876464844 17.928131103515625 19.887943267822265625 2.2153983116149902344 22.162702560424804688 23.78987884521484375 11.464471817016601562 7.1967034339904785156 6.6970386505126953125 7.9136867523193359375 11.939205169677734375 15.107027053833007812 16.455774307250976562 15.992372512817382812 13.344975471496582031 10.186321258544921875 8.7273197174072265625 12.243009567260742188 16.971614837646484375 9.3514804840087890625 13.035524368286132812 28.44087982177734375 25.334026336669921875 17.018754959106445312 16.659534454345703125 20.565296173095703125 26.928384780883789062 34.2373504638671875 38.96472930908203125 37.99147796630859375 34.969715118408203125 33.9191131591796875 34.65229034423828125 31.30406951904296875 27.555009841918945312 21.527307510375976562 18.975872039794921875 20.692180633544921875 24.614000320434570312 28.302320480346679688 29.215450286865234375 26.617891311645507812 22.139509201049804688 19.35092926025390625 25.088802337646484375 34.630420684814453125 35.28221893310546875 32.685211181640625 28.225355148315429688 21.352727890014648438 16.016994476318359375 14.522838592529296875 14.564685821533203125 15.107267379760742188 16.1743011474609375 16.431367874145507812 15.54254913330078125 13.947953224182128906 13.036925315856933594 13.152787208557128906 11.048551559448242188 6.28556060791015625 4.511627197265625 9.071147918701171875 15.4092864990234375 21.48545074462890625 27.043478012084960938 30.8387908935546875 32.744449615478515625 31.57903289794921875 27.317720413208007812 26.8404083251953125 29.284822463989257812 32.85230255126953125 31.921461105346679688 27.792970657348632812 26.723972320556640625 28.88842010498046875 30.408639907836914062 31.285549163818359375 29.599412918090820312 24.62349700927734375 18.23199462890625 8.84809112548828125 3.4264645576477050781 13.893837928771972656 21.836893081665039062 27.394548416137695312 29.86450958251953125 30.086971282958984375 29.985504150390625 29.511548995971679688 26.23455810546875 19.64288330078125 14.465793609619140625 12.999461174011230469 13.032073974609375 13.746679306030273438 13.827653884887695312 14.641439437866210938 24.253587722778320312 30.787115097045898438 32.528057098388671875 30.41486358642578125 26.711637496948242188 -9999 
-9999 23.042804718017578125 13.371930122375488281 11.913240432739257812 17.663455963134765625 18.253454208374023438 18.692686080932617188 20.352655410766601562 21.074625015258789062 19.850444793701171875 20.98635101318359375 24.193490982055664062 26.718450546264648438 27.419254302978515625 24.803173065185546875 20.818159103393554688 20.797647476196289062 21.94072723388671875 17.290128707885742188 12.073603630065917969 13.41584014892578125 12.656988143920898438 8.1803522109985351562 6.5203695297241210938 5.4250774383544921875 2.647186279296875 2.3571372032165527344 6.9928436279296875 8.29068756103515625 2.1992366313934326172 8.71793365478515625 17.157466888427734375 15.136435508728027344 8.54618072509765625 5.7459020614624023438 6.7159175872802734375 7.5834946632385253906 6.2101850509643554688 7.896427154541015625 10.127968788146972656 8.5510091781616210938 7.7314662933349609375 10.279229164123535156 12.219286918640136719 10.780598640441894531 12.97025299072265625 15.386058807373046875 11.787571907043457031 5.8876028060913085938 2.4431984424591064453 5.2089047431945800781 4.3681044578552246094 3.9864144325256347656 3.6353485584259033203 5.3484163284301757812 6.4956455230712890625 7.6324782371520996094 11.4146270751953125 22.913982391357421875 31.570302963256835938 29.590154647827148438 22.265918731689453125 12.528870582580566406 31.063341140747070312 16.780956268310546875 28.393383026123046875 26.041599273681640625 17.179174423217773438 12.183929443359375 12.858029365539550781 17.764776229858398438 15.610967636108398438 5.5755295753479003906 24.9723968505859375 23.272985458374023438 11.6138763427734375 9.4067745208740234375 9.015750885009765625 6.2931375503540039062 6.1510820388793945312 7.5266566276550292969 9.0351152420043945312 9.77918243408203125 9.0307102203369140625 7.8821315765380859375 6.9254832267761230469 7.8026103973388671875 12.663411140441894531 16.126560211181640625 6.1269350051879882812 15.980526924133300781 25.202554702758789062 21.5573272705078125 20.021860122680664062 23.081157684326171875 27.779331207275390625 32.51201629638671875 37.277759552001953125 37.573154449462890625 34.432369232177734375 32.758670806884765625 33.323001861572265625 30.715074539184570312 24.696832656860351562 18.181280136108398438 15.706548690795898438 18.1204833984375 21.751073837280273438 23.738283157348632812 23.354265213012695312 19.922349929809570312 16.315565109252929688 13.546853065490722656 22.887884140014648438 33.43885040283203125 34.54274749755859375 30.78406524658203125 24.525815963745117188 17.934251785278320312 14.911512374877929688 14.823652267456054688 13.893317222595214844 11.068378448486328125 6.4745006561279296875 1.2762840986251831055 6.026470184326171875 9.8130016326904296875 11.899819374084472656 13.602335929870605469 17.7955322265625 22.064846038818359375 23.430698394775390625 20.687255859375 14.465575218200683594 4.9050908088684082031 8.2526454925537109375 20.323026657104492188 28.221700668334960938 31.7979736328125 30.678243637084960938 27.822210311889648438 26.345403671264648438 29.18700408935546875 32.101593017578125 31.52237701416015625 32.286407470703125 34.083194732666015625 33.679256439208984375 30.9053802490234375 24.054319381713867188 11.795360565185546875 3.4215159416198730469 17.18173980712890625 27.049707412719726562 32.569820404052734375 34.96700286865234375 35.371822357177734375 34.05464935302734375 31.850093841552734375 29.981492996215820312 28.6615753173828125 26.1762237548828125 23.328222274780273438 21.079090118408203125 18.844635009765625 17.304449081420898438 16.6963348388671875 14.883313179016113281 10.541924476623535156 23.171108245849609375 27.06682586669921875 26.035463333129882812 26.856054306030273438 27.605144500732421875 -9999 
-9999 17.651723861694335938 11.03591156005859375 18.02011871337890625 18.864198684692382812 16.706182479858398438 17.445293426513671875 21.411670684814453125 23.163761138916015625 20.899188995361328125 19.8911590576171875 22.230825424194335938 24.4956512451171875 26.184450149536132812 24.623975753784179688 20.204875946044921875 19.461856842041015625 22.253866195678710938 21.150934219360351562 16.839628219604492188 16.357732772827148438 15.07464599609375 9.9566812515258789062 6.4406638145446777344 5.0689668655395507812 3.1951520442962646484 2.7183446884155273438 5.787448883056640625 7.2889699935913085938 4.8284258842468261719 3.1829836368560791016 14.725127220153808594 18.329721450805664062 11.584262847900390625 5.6214241981506347656 5.3019018173217773438 6.4908494949340820312 6.7623333930969238281 8.2402544021606445312 10.222944259643554688 9.3077983856201171875 8.4125738143920898438 11.5217742919921875 13.923892974853515625 11.918172836303710938 13.278765678405761719 14.379445075988769531 9.7716760635375976562 4.0239744186401367188 0.37151452898979187012 2.5608782768249511719 4.6672663688659667969 5.7219409942626953125 5.2325201034545898438 5.9865956306457519531 7.4772062301635742188 9.9153585433959960938 14.307687759399414062 23.919847488403320312 29.095165252685546875 27.212175369262695312 20.953130722045898438 11.551076889038085938 25.875329971313476562 18.054567337036132812 26.689111709594726562 20.962057113647460938 12.392772674560546875 9.8682718276977539062 14.431208610534667969 18.311208724975585938 8.6006717681884765625 13.69615936279296875 25.4169769287109375 22.560405731201171875 14.416596412658691406 11.093823432922363281 13.255479812622070312 11.943757057189941406 10.395261764526367188 9.3251628875732421875 8.865451812744140625 9.2215671539306640625 9.4116792678833007812 9.1029386520385742188 8.3864345550537109375 8.0065460205078125 8.8089666366577148438 13.736943244934082031 14.913462638854980469 3.3719899654388427734 15.912665367126464844 22.05867767333984375 21.555511474609375 22.615865707397460938 23.93869781494140625 25.296724319458007812 29.772535324096679688 31.834564208984375 29.9864501953125 27.9256134033203125 26.162298202514648438 22.4244537353515625 18.74102783203125 14.882725715637207031 15.060679435729980469 16.93773651123046875 18.72658538818359375 18.447332382202148438 17.096590042114257812 15.293225288391113281 13.653614997863769531 10.055482864379882812 20.929414749145507812 32.139801025390625 32.759979248046875 27.816812515258789062 21.496021270751953125 15.519824028015136719 13.115671157836914062 11.939988136291503906 5.3619127273559570312 5.8635993003845214844 15.527856826782226562 22.854871749877929688 26.476949691772460938 28.399822235107421875 31.543071746826171875 35.03155517578125 36.1822052001953125 36.44850921630859375 37.65628814697265625 37.91498565673828125 34.30374908447265625 27.24860382080078125 16.934118270874023438 2.8526432514190673828 12.079332351684570312 22.7045440673828125 27.077789306640625 26.545660018920898438 24.259248733520507812 24.816209793090820312 29.007686614990234375 31.575855255126953125 32.50103759765625 31.000692367553710938 25.995075225830078125 17.664907455444335938 5.0441913604736328125 11.458107948303222656 25.541162490844726562 33.22566986083984375 36.53337860107421875 37.361278533935546875 37.2243804931640625 36.520977020263671875 35.35088348388671875 34.690067291259765625 33.94671630859375 31.974523544311523438 29.246967315673828125 27.9226226806640625 27.033176422119140625 23.758327484130859375 18.394906997680664062 15.585283279418945312 14.558951377868652344 7.381008148193359375 23.10681915283203125 27.95606231689453125 22.794963836669921875 21.660131454467773438 26.44333648681640625 -9999 
-9999 9.8242053985595703125 15.812478065490722656 17.853845596313476562 15.197403907775878906 14.821475982666015625 18.223957061767578125 23.555877685546875 24.013513565063476562 18.729736328125 16.9542236328125 20.554286956787109375 23.711397171020507812 26.326375961303710938 25.215118408203125 21.424495697021484375 20.041210174560546875 20.87856292724609375 21.560482025146484375 19.682178497314453125 17.99163055419921875 17.678188323974609375 13.947574615478515625 7.9985437393188476562 5.2157359123229980469 3.7950298786163330078 3.4905042648315429688 5.083209991455078125 5.4661774635314941406 5.1339330673217773438 0.96772253513336181641 10.718057632446289062 19.699951171875 14.591933250427246094 5.6162939071655273438 4.4688777923583984375 5.2479419708251953125 6.3634576797485351562 7.9108600616455078125 10.055601119995117188 10.231707572937011719 8.4522085189819335938 11.327284812927246094 15.623118400573730469 14.571437835693359375 13.978010177612304688 13.723771095275878906 8.9312925338745117188 3.4351007938385009766 1.3330997228622436523 2.4580321311950683594 5.0430178642272949219 7.1705064773559570312 7.7123098373413085938 9.8695020675659179688 13.607761383056640625 16.765798568725585938 18.715381622314453125 22.280426025390625 25.163562774658203125 25.411380767822265625 21.235523223876953125 11.686463356018066406 21.581956863403320312 18.603939056396484375 19.91149139404296875 12.918726921081542969 8.0783205032348632812 11.135016441345214844 18.37187957763671875 15.983850479125976562 2.7155132293701171875 19.378641128540039062 23.142694473266601562 21.617353439331054688 16.252290725708007812 10.813197135925292969 14.8685455322265625 18.0618743896484375 17.775547027587890625 14.624144554138183594 11.930338859558105469 11.547649383544921875 11.276105880737304688 10.173238754272460938 9.4188375473022460938 9.227809906005859375 8.9721012115478515625 11.545523643493652344 15.065022468566894531 13.239382743835449219 2.6462540626525878906 10.830512046813964844 14.812108039855957031 13.397784233093261719 8.6676502227783203125 5.5419559478759765625 10.246100425720214844 18.992916107177734375 24.954191207885742188 25.590518951416015625 22.378963470458984375 19.515295028686523438 17.075458526611328125 14.003428459167480469 16.020236968994140625 14.293105125427246094 15.2926177978515625 14.927255630493164062 13.009360313415527344 12.426114082336425781 13.311774253845214844 11.584285736083984375 20.0825958251953125 31.124094009399414062 30.86873626708984375 25.581510543823242188 21.133050918579101562 14.521734237670898438 9.8651170730590820312 5.5234117507934570312 8.0440301895141601562 20.772962570190429688 27.331735610961914062 30.047235488891601562 30.026155471801757812 30.712581634521484375 33.558559417724609375 36.297344207763671875 37.130779266357421875 37.09070587158203125 37.44635009765625 39.093780517578125 39.426532745361328125 35.675384521484375 30.082912445068359375 23.366697311401367188 13.679750442504882812 1.7056608200073242188 8.537578582763671875 13.273911476135253906 14.031983375549316406 15.510936737060546875 19.186483383178710938 21.250860214233398438 19.334196090698242188 13.488615036010742188 4.4740457534790039062 6.8681063652038574219 19.481443405151367188 30.81034088134765625 36.987945556640625 37.478305816650390625 36.3224639892578125 35.8838653564453125 35.911773681640625 35.4221649169921875 34.64174652099609375 34.4519195556640625 34.309726715087890625 32.76486968994140625 30.475225448608398438 28.694913864135742188 26.90731048583984375 22.809795379638671875 15.858214378356933594 14.061993598937988281 14.085025787353515625 9.8063974380493164062 21.434871673583984375 29.668367385864257812 26.9930419921875 19.670953750610351562 21.937677383422851562 -9999 
-9999 14.582860946655273438 15.81186676025390625 13.3011016845703125 13.075201988220214844 15.438128471374511719 18.609588623046875 22.36376190185546875 21.10544586181640625 14.146704673767089844 13.958870887756347656 18.879749298095703125 23.270189285278320312 26.806690216064453125 27.102888107299804688 25.282985687255859375 24.034061431884765625 22.23969268798828125 21.836309432983398438 21.068376541137695312 17.994831085205078125 17.743776321411132812 16.848913192749023438 10.9977264404296875 6.5676503181457519531 4.8525686264038085938 4.3333420753479003906 4.6072282791137695312 3.65787506103515625 4.4975056648254394531 3.0720767974853515625 6.9811415672302246094 19.6459503173828125 17.923494338989257812 6.8856048583984375 4.1459150314331054688 4.5270395278930664062 5.3635535240173339844 6.6777238845825195312 9.3636932373046875 11.163266181945800781 8.6695299148559570312 10.097591400146484375 15.825219154357910156 17.304559707641601562 15.7493743896484375 13.86408233642578125 8.7907438278198242188 3.046077728271484375 2.1770031452178955078 4.3183741569519042969 6.1883821487426757812 8.2417917251586914062 11.090184211730957031 14.77040863037109375 18.089464187622070312 20.535037994384765625 21.431865692138671875 20.870233535766601562 21.080121994018554688 23.076755523681640625 22.147642135620117188 9.3214740753173828125 19.770723342895507812 15.010630607604980469 11.522939682006835938 6.9256334304809570312 8.0879535675048828125 16.109384536743164062 20.093263626098632812 7.1994633674621582031 14.318118095397949219 21.10455322265625 19.60894775390625 21.65798187255859375 18.418653488159179688 11.236016273498535156 11.595937728881835938 13.549410820007324219 14.888451576232910156 14.653759002685546875 16.051919937133789062 18.06716156005859375 16.718042373657226562 13.359225273132324219 12.0757598876953125 12.359602928161621094 12.278220176696777344 12.415402412414550781 13.504277229309082031 15.776479721069335938 14.976119041442871094 9.15345001220703125 5.5224618911743164062 7.5020680427551269531 13.851180076599121094 17.11000823974609375 14.169040679931640625 3.4649827480316162109 13.756938934326171875 24.3587646484375 25.96091461181640625 24.446516036987304688 20.156414031982421875 17.23232269287109375 12.765133857727050781 10.633810997009277344 15.059878349304199219 13.699013710021972656 9.9660549163818359375 11.518706321716308594 13.927287101745605469 15.627596855163574219 20.636114120483398438 29.004579544067382812 28.036579132080078125 22.630527496337890625 21.216098785400390625 16.015035629272460938 8.8391008377075195312 1.8008198738098144531 17.626415252685546875 27.515920639038085938 29.42549896240234375 27.644868850708007812 24.779134750366210938 24.226289749145507812 26.181896209716796875 27.568319320678710938 29.560558319091796875 31.5806427001953125 32.246959686279296875 35.02667999267578125 39.683460235595703125 39.1681365966796875 35.56029510498046875 32.4730072021484375 29.190629959106445312 24.967603683471679688 19.548437118530273438 14.185795783996582031 9.6402568817138671875 5.5659289360046386719 3.4768643379211425781 4.3403844833374023438 8.3713655471801757812 15.360486984252929688 22.942869186401367188 29.608631134033203125 34.53045654296875 37.63330841064453125 38.7131195068359375 36.81313323974609375 35.384288787841796875 35.5947418212890625 36.29640960693359375 36.455486297607421875 35.803455352783203125 34.75479888916015625 33.644603729248046875 32.20339202880859375 29.646898269653320312 25.390594482421875 23.563585281372070312 22.82457733154296875 16.601375579833984375 12.246171951293945312 16.932706832885742188 15.488692283630371094 16.633634567260742188 29.085191726684570312 29.73244476318359375 21.136478424072265625 16.121953964233398438 -9999 
-9999 15.324357986450195312 13.34633636474609375 13.450644493103027344 16.4962921142578125 18.822620391845703125 18.160875320434570312 18.534481048583984375 18.0519866943359375 11.296408653259277344 11.526755332946777344 16.4523162841796875 20.972761154174804688 24.395750045776367188 25.69762420654296875 25.921384811401367188 26.113046646118164062 24.334733963012695312 23.01043701171875 22.808599472045898438 19.857852935791015625 17.396299362182617188 17.215839385986328125 14.230788230895996094 9.5261669158935546875 6.6414017677307128906 5.2738471031188964844 3.9842464923858642578 2.3492007255554199219 3.6686704158782958984 4.6481575965881347656 3.2786297798156738281 17.3817901611328125 21.594236373901367188 11.953608512878417969 4.7747364044189453125 3.8372933864593505859 4.7000584602355957031 5.5545086860656738281 8.3494863510131835938 11.567912101745605469 9.685390472412109375 9.8290357589721679688 15.3041839599609375 18.415788650512695312 17.265222549438476562 14.880220413208007812 9.7603759765625 2.6990575790405273438 2.7062611579895019531 6.0774970054626464844 8.6771039962768554688 12.233568191528320312 15.879795074462890625 17.35153961181640625 17.893724441528320312 19.472126007080078125 20.636943817138671875 20.603414535522460938 19.205356597900390625 18.821626663208007812 21.51413726806640625 10.293413162231445312 14.434751510620117188 10.503897666931152344 5.8204102516174316406 5.968410491943359375 12.945112228393554688 20.881227493286132812 15.280670166015625 6.4329252243041992188 21.44530487060546875 19.745195388793945312 16.740114212036132812 21.891704559326171875 19.823831558227539062 10.380633354187011719 6.7526159286499023438 6.5141286849975585938 9.2593698501586914062 11.72673797607421875 15.688040733337402344 16.779972076416015625 16.924299240112304688 15.322511672973632812 16.236021041870117188 17.566934585571289062 17.307682037353515625 15.946765899658203125 15.138986587524414062 16.554121017456054688 18.681324005126953125 19.939191818237304688 21.007005691528320312 23.72899627685546875 26.048412322998046875 24.773792266845703125 23.593997955322265625 20.777662277221679688 6.5746889114379882812 13.987780570983886719 25.964742660522460938 28.7662200927734375 24.749011993408203125 17.511577606201171875 12.598336219787597656 15.216081619262695312 14.407634735107421875 9.332614898681640625 9.5928640365600585938 13.740876197814941406 15.656128883361816406 17.824979782104492188 20.716320037841796875 25.481243133544921875 23.54703521728515625 17.844425201416015625 19.616273880004882812 18.805704116821289062 10.774873733520507812 6.2568788528442382812 22.660900115966796875 29.803434371948242188 28.034881591796875 19.25177764892578125 13.878939628601074219 15.970293998718261719 20.469097137451171875 22.69951629638671875 24.4455108642578125 26.587724685668945312 27.75605010986328125 30.273189544677734375 37.318660736083984375 40.21402740478515625 39.776180267333984375 40.5092010498046875 42.3120880126953125 42.853912353515625 40.53401947021484375 36.0638580322265625 29.81946563720703125 24.497571945190429688 25.0159149169921875 26.122014999389648438 28.34741973876953125 32.279506683349609375 35.61470794677734375 37.2911376953125 36.81862640380859375 35.879673004150390625 36.25066375732421875 35.581844329833984375 35.499210357666015625 36.43164825439453125 37.6427001953125 38.791896820068359375 39.4043121337890625 38.7816925048828125 36.58721160888671875 33.6379241943359375 29.032022476196289062 24.400848388671875 26.342138290405273438 24.542482376098632812 14.56427764892578125 17.1256256103515625 21.147775650024414062 20.001874923706054688 10.677241325378417969 25.8016510009765625 30.844934463500976562 25.248689651489257812 14.42230987548828125 -9999 
-9999 14.454323768615722656 15.115915298461914062 17.786821365356445312 21.10843658447265625 23.049825668334960938 20.673061370849609375 17.04091644287109375 16.590595245361328125 12.102880477905273438 10.902379035949707031 15.992929458618164062 20.101549148559570312 22.91278839111328125 24.917379379272460938 26.262166976928710938 26.973628997802734375 25.834676742553710938 23.9572296142578125 23.840566635131835938 22.9097900390625 19.059446334838867188 16.913850784301757812 16.413349151611328125 14.094815254211425781 11.632077217102050781 8.40328216552734375 4.3032670021057128906 2.0819451808929443359 2.8396337032318115234 5.4913053512573242188 1.9803538322448730469 11.106286048889160156 21.78115081787109375 18.951702117919921875 8.0587186813354492188 3.0057756900787353516 3.8451414108276367188 4.9666013717651367188 7.3220572471618652344 11.253038406372070312 11.475065231323242188 10.964974403381347656 14.859274864196777344 18.479703903198242188 18.14580535888671875 16.271066665649414062 11.963288307189941406 4.0558838844299316406 5.1531286239624023438 9.1161136627197265625 12.457558631896972656 16.856653213500976562 19.455780029296875 18.9687347412109375 18.37398529052734375 18.839756011962890625 18.460086822509765625 18.20256805419921875 17.602497100830078125 16.093416213989257812 18.764772415161132812 14.86834716796875 9.6784048080444335938 11.704157829284667969 4.4084239006042480469 9.9925165176391601562 19.323635101318359375 19.9492340087890625 2.5922791957855224609 18.00728607177734375 22.372920989990234375 16.384614944458007812 15.130511283874511719 21.222063064575195312 19.773004531860351562 9.713405609130859375 5.5978302955627441406 6.3246083259582519531 7.3743948936462402344 9.4983968734741210938 10.192983627319335938 9.8336133956909179688 12.290530204772949219 12.950418472290039062 16.013673782348632812 18.050508499145507812 17.763275146484375 15.629279136657714844 17.688760757446289062 19.526296615600585938 18.789720535278320312 19.838411331176757812 22.919347763061523438 25.144327163696289062 23.682321548461914062 19.495260238647460938 20.65427398681640625 24.385345458984375 21.54969024658203125 8.3391027450561523438 11.418975830078125 24.59163665771484375 26.497760772705078125 23.101076126098632812 21.442852020263671875 19.853525161743164062 16.407552719116210938 12.847467422485351562 14.488152503967285156 16.20580291748046875 16.212308883666992188 16.482288360595703125 18.206329345703125 20.089145660400390625 17.2886810302734375 13.118045806884765625 16.631444931030273438 20.418222427368164062 13.324568748474121094 7.6080331802368164062 24.131502151489257812 28.984161376953125 24.56044769287109375 13.016794204711914062 8.7991781234741210938 15.726011276245117188 21.640039443969726562 25.3310699462890625 27.377689361572265625 29.058828353881835938 30.00086212158203125 30.577268600463867188 36.204608917236328125 40.564319610595703125 42.621845245361328125 45.210948944091796875 47.123199462890625 46.662792205810546875 43.13581085205078125 37.407062530517578125 31.413625717163085938 26.683135986328125 30.04077911376953125 31.539546966552734375 33.3962860107421875 35.224460601806640625 35.88524627685546875 35.605503082275390625 34.540142059326171875 33.967372894287109375 35.2523040771484375 35.966426849365234375 36.38037872314453125 37.757831573486328125 38.02890777587890625 37.866943359375 37.9099884033203125 38.457973480224609375 37.164432525634765625 33.244533538818359375 28.712568283081054688 29.290803909301757812 30.764978408813476562 22.386274337768554688 16.72927093505859375 22.612150192260742188 21.359531402587890625 21.791242599487304688 10.573355674743652344 20.165140151977539062 29.18743133544921875 27.817770004272460938 20.227540969848632812 -9999 
-9999 16.15753173828125 18.150648117065429688 21.882879257202148438 23.816740036010742188 25.33050537109375 24.951547622680664062 23.304033279418945312 18.167911529541015625 13.922361373901367188 12.012194633483886719 16.651441574096679688 20.634145736694335938 21.91778564453125 24.2463226318359375 27.246694564819335938 28.464527130126953125 27.445100784301757812 25.094964981079101562 24.196811676025390625 24.590379714965820312 21.132785797119140625 16.622650146484375 15.655417442321777344 16.018308639526367188 16.95705413818359375 14.281009674072265625 7.3135895729064941406 3.2783911228179931641 2.4431841373443603516 4.9084191322326660156 4.7879419326782226562 3.5063059329986572266 16.786266326904296875 23.070514678955078125 15.127313613891601562 5.2517590522766113281 3.2765014171600341797 3.7995603084564208984 5.2598805427551269531 9.0716238021850585938 12.110146522521972656 12.219117164611816406 14.149827003479003906 17.9538116455078125 18.802272796630859375 17.356191635131835938 14.079030990600585938 6.1722002029418945312 5.3514533042907714844 13.49460601806640625 17.94420623779296875 20.223741531372070312 20.820201873779296875 20.250396728515625 20.627307891845703125 20.313608169555664062 19.120574951171875 18.89595794677734375 19.500642776489257812 19.503322601318359375 19.084682464599609375 16.760400772094726562 9.9941616058349609375 14.999106407165527344 10.478953361511230469 17.61704254150390625 21.401941299438476562 10.107103347778320312 12.006550788879394531 22.242235183715820312 19.476512908935546875 14.839923858642578125 15.365404129028320312 20.258144378662109375 19.395318984985351562 10.703253746032714844 6.3304958343505859375 7.229724884033203125 6.6676054000854492188 7.0823345184326171875 6.6114377975463867188 8.3911886215209960938 9.6271877288818359375 9.9338388442993164062 10.583191871643066406 15.233667373657226562 15.446674346923828125 10.919327735900878906 16.598491668701171875 21.066305160522460938 21.436315536499023438 22.427961349487304688 23.763706207275390625 22.172008514404296875 16.53742218017578125 12.031949043273925781 14.833292007446289062 20.409648895263671875 23.843515396118164062 22.733280181884765625 12.6555633544921875 5.6207728385925292969 20.158323287963867188 27.149349212646484375 30.1103973388671875 30.006618499755859375 26.857812881469726562 22.118083953857421875 18.723447799682617188 16.86159515380859375 15.797104835510253906 14.25011444091796875 14.652418136596679688 14.22209930419921875 11.893812179565429688 10.565735816955566406 14.783305168151855469 20.7100982666015625 15.090998649597167969 7.8671154975891113281 24.274877548217773438 27.177219390869140625 23.428005218505859375 17.6943206787109375 16.113590240478515625 21.022817611694335938 24.665531158447265625 27.38585662841796875 27.10936737060546875 25.5162506103515625 23.483045578002929688 22.41028594970703125 28.804279327392578125 35.300991058349609375 38.61435699462890625 39.29076385498046875 36.9034271240234375 34.995716094970703125 32.793529510498046875 29.322544097900390625 21.484525680541992188 21.13358306884765625 26.600494384765625 27.652574539184570312 31.936737060546875 34.8106689453125 35.862354278564453125 36.451053619384765625 36.934589385986328125 37.023090362548828125 36.98850250244140625 37.156047821044921875 37.718013763427734375 38.59075927734375 37.376102447509765625 34.493473052978515625 30.958721160888671875 29.457929611206054688 28.973667144775390625 27.366197586059570312 29.447320938110351562 32.79412078857421875 29.689113616943359375 19.1938629150390625 22.272665023803710938 21.188085556030273438 19.676570892333984375 22.785778045654296875 13.422702789306640625 13.262187004089355469 24.70333099365234375 26.9335174560546875 26.217388153076171875 -9999 
-9999 21.500017166137695312 21.258653640747070312 25.461181640625 26.512479782104492188 27.20513153076171875 28.116209030151367188 29.797307968139648438 26.473682403564453125 17.759366989135742188 13.241293907165527344 14.560626983642578125 19.84023284912109375 20.405775070190429688 21.299154281616210938 25.209445953369140625 28.5643463134765625 28.87353515625 26.767726898193359375 24.790174484252929688 24.928373336791992188 22.336574554443359375 16.228076934814453125 11.831146240234375 12.080965995788574219 16.860624313354492188 18.185281753540039062 11.678018569946289062 5.5855255126953125 2.7986364364624023438 3.7002131938934326172 5.3167848587036132812 1.4007433652877807617 9.0884723663330078125 20.816770553588867188 21.774265289306640625 14.129708290100097656 8.1245794296264648438 4.5509257316589355469 4.1347708702087402344 8.4622659683227539062 12.149038314819335938 12.269933700561523438 13.40306854248046875 16.808900833129882812 18.590946197509765625 17.646026611328125 15.602026939392089844 11.756837844848632812 13.040174484252929688 20.360033035278320312 22.678503036499023438 22.46309661865234375 22.027658462524414062 20.452726364135742188 20.963653564453125 22.617052078247070312 24.406904220581054688 25.8517608642578125 26.4983673095703125 26.123460769653320312 23.973209381103515625 19.4003448486328125 14.619213104248046875 18.39553070068359375 18.562757492065429688 20.811937332153320312 14.004947662353515625 5.616161346435546875 20.060054779052734375 21.584230422973632812 20.083629608154296875 19.415952682495117188 18.947835922241210938 20.089117050170898438 19.028839111328125 11.825928688049316406 8.1795396804809570312 10.329051017761230469 11.419285774230957031 9.776554107666015625 6.8461084365844726562 7.8376278877258300781 8.4061250686645507812 8.820156097412109375 9.3838109970092773438 15.544213294982910156 14.1057281494140625 10.890844345092773438 14.969495773315429688 18.659013748168945312 21.635019302368164062 22.737424850463867188 20.503984451293945312 15.555731773376464844 10.966326713562011719 9.8391122817993164062 11.189139366149902344 14.529986381530761719 18.458797454833984375 22.072906494140625 22.25365447998046875 15.380307197570800781 0.79997843503952026367 16.296510696411132812 27.28122711181640625 31.607677459716796875 31.157392501831054688 27.567892074584960938 21.977674484252929688 18.748228073120117188 18.041234970092773438 16.339704513549804688 15.672230720520019531 13.812890052795410156 11.788160324096679688 12.449324607849121094 17.492834091186523438 21.466381072998046875 13.529376983642578125 9.0504512786865234375 23.44524383544921875 23.918584823608398438 19.545568466186523438 19.03438568115234375 23.600053787231445312 25.47736358642578125 24.376691818237304688 23.834804534912109375 19.622844696044921875 13.769305229187011719 9.1982517242431640625 2.6633412837982177734 6.8722896575927734375 15.136944770812988281 19.133127212524414062 19.621545791625976562 23.505147933959960938 29.869455337524414062 31.67798614501953125 26.32239532470703125 13.276426315307617188 28.121494293212890625 28.481037139892578125 25.093114852905273438 29.465440750122070312 35.11722564697265625 38.847713470458984375 40.716754913330078125 40.475475311279296875 39.658893585205078125 39.733264923095703125 39.56253814697265625 37.859020233154296875 34.184436798095703125 29.717836380004882812 26.517515182495117188 23.190004348754882812 19.884119033813476562 19.904085159301757812 27.559772491455078125 34.4243316650390625 32.075244903564453125 21.798067092895507812 21.4577178955078125 24.664869308471679688 19.793888092041015625 20.767728805541992188 24.71907806396484375 20.147846221923828125 8.4604539871215820312 17.493490219116210938 22.303928375244140625 25.506805419921875 -9999 
-9999 27.056921005249023438 23.461183547973632812 28.567461013793945312 29.976749420166015625 31.083646774291992188 31.524576187133789062 30.602931976318359375 30.323436737060546875 23.636774063110351562 14.938271522521972656 12.63170623779296875 18.353374481201171875 20.724987030029296875 20.675872802734375 22.60448455810546875 26.272329330444335938 28.603151321411132812 28.119245529174804688 25.724092483520507812 25.14920806884765625 24.092533111572265625 18.12994384765625 10.128017425537109375 7.4684190750122070312 12.892299652099609375 17.85468292236328125 14.786782264709472656 8.2293462753295898438 3.8237855434417724609 3.2968516349792480469 5.2148599624633789062 3.7766821384429931641 2.4285655021667480469 12.845739364624023438 21.151258468627929688 21.579311370849609375 16.677701950073242188 8.103755950927734375 4.8037648200988769531 9.94710540771484375 12.257831573486328125 11.572146415710449219 12.907675743103027344 15.371595382690429688 16.404613494873046875 15.584044456481933594 15.051552772521972656 15.305588722229003906 19.007730484008789062 23.310815811157226562 22.586940765380859375 22.949144363403320312 23.452856063842773438 21.23729705810546875 21.725505828857421875 25.3071441650390625 27.699954986572265625 26.7464752197265625 23.356472015380859375 18.976396560668945312 15.318713188171386719 12.453850746154785156 11.6378631591796875 15.286252975463867188 15.930649757385253906 11.3302001953125 2.5371594429016113281 17.358488082885742188 21.465795516967773438 21.68703460693359375 24.298776626586914062 24.13994598388671875 23.315114974975585938 23.658605575561523438 20.889959335327148438 14.078888893127441406 11.252614974975585938 13.796614646911621094 16.67139434814453125 15.863202095031738281 11.081464767456054688 8.1546659469604492188 9.0384807586669921875 11.490100860595703125 13.876905441284179688 18.031742095947265625 15.465427398681640625 14.592858314514160156 14.974028587341308594 14.7095489501953125 15.943042755126953125 14.691275596618652344 11.252282142639160156 8.2676248550415039062 7.8663544654846191406 8.533550262451171875 9.334583282470703125 10.937321662902832031 13.46616363525390625 16.9538116455078125 19.041769027709960938 20.139005661010742188 18.058010101318359375 8.0115909576416015625 9.3514766693115234375 22.7583160400390625 28.533796310424804688 29.577791213989257812 26.956853866577148438 23.799673080444335938 22.840167999267578125 22.883993148803710938 23.033740997314453125 21.814075469970703125 20.596063613891601562 21.642244338989257812 23.613018035888671875 20.12723541259765625 5.9949693679809570312 13.731725692749023438 24.455417633056640625 25.361696243286132812 23.624288558959960938 25.658540725708007812 27.03167724609375 22.735565185546875 19.30364227294921875 20.152927398681640625 20.602682113647460938 21.396108627319335938 21.434185028076171875 19.773519515991210938 16.982492446899414062 14.834589958190917969 15.454791069030761719 20.522813796997070312 29.448656082153320312 34.621273040771484375 29.342466354370117188 14.485857009887695312 26.800683975219726562 35.96819305419921875 30.48500823974609375 25.482740402221679688 28.447093963623046875 36.318695068359375 38.81992340087890625 40.577228546142578125 40.81865692138671875 40.652805328369140625 41.72801971435546875 40.773357391357421875 34.983188629150390625 26.916454315185546875 20.881071090698242188 18.929782867431640625 18.14837646484375 15.562346458435058594 20.324953079223632812 33.825321197509765625 37.23714447021484375 25.6565399169921875 20.481288909912109375 26.983190536499023438 25.032835006713867188 22.030315399169921875 22.809356689453125 25.852769851684570312 26.291891098022460938 16.404108047485351562 13.403932571411132812 17.957479476928710938 19.69605255126953125 -9999 
-9999 27.196386337280273438 25.105655670166015625 30.144254684448242188 31.005216598510742188 32.7102813720703125 32.670825958251953125 28.399328231811523438 29.076290130615234375 27.776927947998046875 20.3787689208984375 15.401299476623535156 17.602453231811523438 20.561025619506835938 21.388853073120117188 21.860548019409179688 23.942468643188476562 26.550817489624023438 28.089071273803710938 26.757394790649414062 25.240304946899414062 25.767887115478515625 21.602182388305664062 12.079489707946777344 6.9085383415222167969 9.7722873687744140625 16.109640121459960938 17.682865142822265625 11.929868698120117188 5.8269195556640625 4.3275012969970703125 5.6176862716674804688 5.2898988723754882812 2.1440050601959228516 3.7675802707672119141 11.894755363464355469 19.2035369873046875 22.010507583618164062 13.792849540710449219 6.8997502326965332031 11.144670486450195312 12.252840042114257812 11.747307777404785156 13.206065177917480469 14.634392738342285156 13.842073440551757812 11.469307899475097656 11.628319740295410156 13.932286262512207031 17.245004653930664062 19.158023834228515625 20.355224609375 24.21831512451171875 24.741765975952148438 23.191160202026367188 24.369831085205078125 24.645847320556640625 18.952388763427734375 8.257579803466796875 2.2191319465637207031 9.2399892807006835938 12.253961563110351562 12.322965621948242188 9.4532728195190429688 5.309459686279296875 4.1211905479431152344 9.5466556549072265625 17.840702056884765625 22.436618804931640625 23.325237274169921875 25.257520675659179688 27.817317962646484375 26.580877304077148438 25.350801467895507812 26.4421234130859375 23.912199020385742188 18.01839447021484375 14.458619117736816406 15.638182640075683594 17.115764617919921875 17.757009506225585938 16.482107162475585938 11.285115242004394531 12.267354965209960938 14.329433441162109375 17.206949234008789062 20.464719772338867188 16.56383514404296875 17.0890960693359375 16.165576934814453125 13.507234573364257812 11.058706283569335938 9.0250787734985351562 8.19741058349609375 7.9146051406860351562 8.2215890884399414062 8.712646484375 9.2772970199584960938 10.332165718078613281 12.010348320007324219 14.275866508483886719 15.289084434509277344 16.654500961303710938 19.637271881103515625 19.946325302124023438 13.223652839660644531 0.24012640118598937988 12.895007133483886719 21.111585617065429688 25.12442779541015625 26.020328521728515625 26.466920852661132812 27.913463592529296875 28.346164703369140625 27.068134307861328125 25.284149169921875 22.907323837280273438 17.256984710693359375 5.7870159149169921875 7.909374237060546875 18.305633544921875 25.470136642456054688 28.4159698486328125 28.84398651123046875 28.960277557373046875 24.695163726806640625 15.245439529418945312 11.294446945190429688 15.56647491455078125 18.458301544189453125 20.587970733642578125 22.319499969482421875 23.086069107055664062 23.60772705078125 25.150686264038085938 27.577423095703125 29.460796356201171875 31.0932769775390625 27.56246185302734375 14.645906448364257812 27.341218948364257812 36.907596588134765625 35.35376739501953125 28.308671951293945312 25.7481842041015625 26.197483062744140625 36.773357391357421875 36.379154205322265625 35.38535308837890625 35.307796478271484375 37.340373992919921875 38.06253814697265625 34.07041168212890625 27.2079925537109375 21.726537704467773438 19.093748092651367188 17.6426849365234375 16.379283905029296875 13.637080192565917969 23.3028717041015625 37.8082122802734375 37.05332183837890625 25.116619110107421875 29.760251998901367188 30.027463912963867188 26.493839263916015625 25.197965621948242188 24.061298370361328125 23.456766128540039062 25.121953964233398438 19.080892562866210938 15.615591049194335938 22.454298019409179688 22.630605697631835938 -9999 
-9999 25.225505828857421875 27.915493011474609375 29.435602188110351562 30.711526870727539062 31.516153335571289062 30.813100814819335938 25.847118377685546875 26.228635787963867188 27.532896041870117188 24.1982879638671875 19.372507095336914062 18.563959121704101562 20.011661529541015625 21.024440765380859375 21.234117507934570312 22.559347152709960938 23.9429931640625 25.7088775634765625 26.24383544921875 24.457170486450195312 25.34775543212890625 23.391790390014648438 14.7378082275390625 8.1530885696411132812 7.3973546028137207031 12.192471504211425781 17.255018234252929688 14.684121131896972656 8.440288543701171875 5.6525101661682128906 6.1440181732177734375 6.0946116447448730469 4.5167894363403320312 2.6053888797760009766 1.4454995393753051758 10.634305953979492188 20.510271072387695312 18.405996322631835938 11.646348953247070312 11.6142578125 11.438727378845214844 12.840516090393066406 14.08000946044921875 14.463559150695800781 12.229282379150390625 7.6408228874206542969 7.4745759963989257812 10.637792587280273438 13.907542228698730469 17.452817916870117188 23.311727523803710938 27.074640274047851562 25.876852035522460938 24.7344512939453125 21.765933990478515625 10.884209632873535156 6.185821533203125 17.776813507080078125 21.345590591430664062 21.145666122436523438 20.289865493774414062 20.12604522705078125 19.57028961181640625 18.77921295166015625 20.067235946655273438 24.00493621826171875 26.30896759033203125 26.597482681274414062 28.855230331420898438 30.682386398315429688 30.054979324340820312 28.156652450561523438 26.074819564819335938 25.621656417846679688 22.241603851318359375 19.127422332763671875 16.177648544311523438 17.961273193359375 17.9245758056640625 18.664119720458984375 19.624280929565429688 14.453996658325195312 14.79209136962890625 13.916185379028320312 15.607959747314453125 19.522848129272460938 17.085247039794921875 19.640346527099609375 17.712421417236328125 15.400224685668945312 12.288161277770996094 10.268293380737304688 9.8772325515747070312 9.8178091049194335938 9.9587583541870117188 10.6563873291015625 11.222907066345214844 11.625684738159179688 12.533864974975585938 13.943876266479492188 15.004870414733886719 15.214652061462402344 15.831070899963378906 17.029821395874023438 18.66390228271484375 17.072490692138671875 11.032627105712890625 2.8862020969390869141 6.6963090896606445312 14.2683868408203125 17.93724822998046875 18.210124969482421875 15.510355949401855469 11.801540374755859375 7.2955012321472167969 1.0735769271850585938 8.1664180755615234375 14.658768653869628906 16.5923614501953125 19.5408477783203125 27.115596771240234375 31.955850601196289062 32.2994842529296875 29.122545242309570312 23.703424453735351562 18.74094390869140625 13.493693351745605469 6.7272214889526367188 5.5965065956115722656 8.0593414306640625 10.41339111328125 11.6404266357421875 13.026696205139160156 15.976430892944335938 17.619398117065429688 18.550420761108398438 17.376184463500976562 10.974437713623046875 25.7394256591796875 35.988555908203125 35.996944427490234375 31.466955184936523438 27.553804397583007812 28.652608871459960938 24.60009765625 35.75554656982421875 37.57062530517578125 35.864532470703125 32.27276611328125 31.18482208251953125 29.776765823364257812 24.012628555297851562 19.351179122924804688 17.930095672607421875 18.307229995727539062 17.077322006225585938 14.940142631530761719 11.855725288391113281 22.989637374877929688 37.930477142333984375 36.07225799560546875 29.911542892456054688 32.622089385986328125 30.150236129760742188 27.830501556396484375 27.339855194091796875 25.69599151611328125 22.336252212524414062 22.427249908447265625 16.899377822875976562 16.484218597412109375 24.181039810180664062 22.1936798095703125 -9999 
-9999 23.808603286743164062 29.967763900756835938 30.354524612426757812 30.911823272705078125 30.835296630859375 25.263736724853515625 22.290454864501953125 22.25661468505859375 22.52020263671875 22.5593719482421875 21.401483535766601562 21.689300537109375 22.556262969970703125 22.499032974243164062 21.352323532104492188 21.571081161499023438 22.288652420043945312 23.647624969482421875 25.069972991943359375 23.50241851806640625 23.430154800415039062 22.309141159057617188 15.7843780517578125 9.5184259414672851562 6.9287257194519042969 8.911426544189453125 13.832672119140625 14.998976707458496094 10.549526214599609375 7.1243290901184082031 7.5818867683410644531 7.7477874755859375 6.3352389335632324219 5.5074219703674316406 4.0412273406982421875 2.6022031307220458984 14.221893310546875 19.808383941650390625 17.302516937255859375 12.879009246826171875 11.764169692993164062 13.969271659851074219 15.161187171936035156 15.285693168640136719 11.371837615966796875 5.1427187919616699219 5.66037750244140625 10.193646430969238281 14.501413345336914062 20.83184814453125 27.357988357543945312 27.887599945068359375 25.055883407592773438 20.241147994995117188 6.6588177680969238281 12.502724647521972656 23.297990798950195312 22.870691299438476562 17.914598464965820312 14.553333282470703125 13.365408897399902344 13.570755958557128906 15.051421165466308594 20.074827194213867188 27.466358184814453125 33.139678955078125 35.018398284912109375 33.0371551513671875 31.117023468017578125 31.588800430297851562 30.465902328491210938 29.0157623291015625 27.240636825561523438 25.389896392822265625 20.99854278564453125 19.588651657104492188 17.477893829345703125 19.800994873046875 17.964977264404296875 19.293743133544921875 19.337572097778320312 14.470279693603515625 16.623142242431640625 14.471053123474121094 15.75284576416015625 18.487613677978515625 19.771511077880859375 20.251415252685546875 15.9588775634765625 14.682859420776367188 13.414898872375488281 13.350525856018066406 14.414017677307128906 15.446360588073730469 15.590926170349121094 14.808462142944335938 13.533519744873046875 13.118512153625488281 14.146188735961914062 17.635362625122070312 20.55492401123046875 20.06378173828125 17.146982192993164062 14.283764839172363281 13.564008712768554688 15.339268684387207031 17.046277999877929688 16.83506011962890625 13.965123176574707031 8.7578859329223632812 5.0101017951965332031 5.9817938804626464844 9.58774566650390625 12.867315292358398438 15.580183982849121094 16.87514495849609375 17.841394424438476562 17.734296798706054688 15.947729110717773438 20.109762191772460938 30.326501846313476562 34.953273773193359375 33.4352874755859375 29.026380538940429688 26.548494338989257812 26.60889434814453125 27.181369781494140625 23.424413681030273438 16.05271148681640625 8.9076013565063476562 4.8030877113342285156 3.3619546890258789062 1.8893784284591674805 4.9593625068664550781 6.3811082839965820312 12.321808815002441406 16.05507659912109375 23.471876144409179688 31.875545501708984375 33.34450531005859375 31.553277969360351562 30.246059417724609375 31.433534622192382812 35.939208984375 31.705068588256835938 33.37233734130859375 40.567474365234375 38.207492828369140625 31.475488662719726562 28.022390365600585938 25.4852447509765625 20.600198745727539062 17.259090423583984375 15.536772727966308594 15.668365478515625 14.487137794494628906 12.637912750244140625 9.7120609283447265625 19.472230911254882812 33.548885345458984375 30.042131423950195312 25.598562240600585938 27.652124404907226562 26.355760574340820312 26.340467453002929688 27.122465133666992188 27.404115676879882812 25.168704986572265625 24.005750656127929688 18.537830352783203125 16.871770858764648438 24.477382659912109375 22.670978546142578125 -9999 
-9999 27.062007904052734375 30.604167938232421875 33.06500244140625 31.072210311889648438 29.134489059448242188 19.019231796264648438 19.638463973999023438 21.177364349365234375 19.499485015869140625 20.128574371337890625 22.957103729248046875 26.218832015991210938 26.864292144775390625 24.222978591918945312 20.522500991821289062 19.602800369262695312 21.063236236572265625 23.279600143432617188 24.705469131469726562 23.32354736328125 22.326557159423828125 20.762907028198242188 15.889995574951171875 10.832669258117675781 8.1614398956298828125 8.1216039657592773438 11.084692001342773438 13.879730224609375 10.64886474609375 7.2020959854125976562 8.3565006256103515625 9.1379575729370117188 7.3175082206726074219 5.5297083854675292969 5.1653423309326171875 2.5803949832916259766 7.1869091987609863281 17.916170120239257812 20.680776596069335938 17.506135940551757812 15.935716629028320312 15.845884323120117188 15.879978179931640625 16.767393112182617188 11.599787712097167969 4.7025661468505859375 7.5911355018615722656 13.802504539489746094 18.88458251953125 25.063840866088867188 28.817005157470703125 26.615444183349609375 20.3008880615234375 5.991649627685546875 14.137556076049804688 24.452060699462890625 22.385311126708984375 15.445745468139648438 12.53627777099609375 14.330756187438964844 16.477399826049804688 16.72789764404296875 15.576838493347167969 21.360090255737304688 30.167293548583984375 35.79952239990234375 37.346523284912109375 35.110263824462890625 30.125530242919921875 29.473318099975585938 29.746965408325195312 29.645811080932617188 29.004167556762695312 26.411413192749023438 22.982454299926757812 22.93365478515625 20.72216796875 20.118043899536132812 14.598849296569824219 18.850809097290039062 16.25238800048828125 14.147817611694335938 19.516973495483398438 19.700946807861328125 22.129102706909179688 23.265405654907226562 23.216159820556640625 19.676527023315429688 16.146717071533203125 14.571324348449707031 13.674311637878417969 16.025615692138671875 19.744634628295898438 22.700616836547851562 22.8802032470703125 20.0381927490234375 15.743028640747070312 13.370394706726074219 15.483018875122070312 21.27663421630859375 25.710536956787109375 27.146501541137695312 22.35613250732421875 16.71262359619140625 12.955142974853515625 11.134905815124511719 11.52147674560546875 13.831742286682128906 16.002593994140625 16.228851318359375 15.253114700317382812 15.473844528198242188 15.847918510437011719 16.192722320556640625 15.915524482727050781 13.933046340942382812 13.624637603759765625 14.630384445190429688 15.205084800720214844 19.713672637939453125 29.854639053344726562 33.4203643798828125 30.270847320556640625 26.409252166748046875 26.645341873168945312 25.868623733520507812 27.388912200927734375 29.48876953125 26.930253982543945312 22.076190948486328125 15.805928230285644531 9.98831939697265625 7.4318084716796875 8.0981998443603515625 12.374451637268066406 18.658956527709960938 24.3659210205078125 29.112209320068359375 30.99367523193359375 30.517744064331054688 30.53000640869140625 31.885395050048828125 34.1375885009765625 37.65948486328125 36.908138275146484375 30.608762741088867188 40.83722686767578125 37.526729583740234375 28.068338394165039062 25.411436080932617188 22.821512222290039062 20.331716537475585938 18.806079864501953125 15.812315940856933594 13.334771156311035156 11.92073822021484375 10.829160690307617188 9.0616407394409179688 17.610445022583007812 28.478466033935546875 20.70621490478515625 16.393306732177734375 19.105289459228515625 20.108339309692382812 24.35504150390625 27.555126190185546875 27.929607391357421875 26.311651229858398438 26.421873092651367188 22.152849197387695312 15.66455841064453125 26.036149978637695312 26.7349090576171875 -9999 
-9999 33.9322662353515625 33.56330108642578125 33.901859283447265625 31.233568191528320312 26.803668975830078125 17.389934539794921875 19.900831222534179688 22.048017501831054688 20.106595993041992188 20.25923919677734375 24.554994583129882812 29.86661529541015625 30.377023696899414062 25.272073745727539062 20.051225662231445312 18.566816329956054688 19.856502532958984375 22.615451812744140625 24.321775436401367188 23.934160232543945312 22.99609375 20.538251876831054688 16.156099319458007812 11.808408737182617188 8.67229461669921875 7.4454398155212402344 9.4389820098876953125 12.860713005065917969 9.7838878631591796875 5.3951230049133300781 6.0837559700012207031 8.04131317138671875 7.8784451484680175781 6.18627166748046875 5.4819455146789550781 4.9556450843811035156 0.93661534786224365234 11.686724662780761719 19.220659255981445312 21.11667633056640625 21.9753875732421875 20.450229644775390625 17.63668060302734375 18.035432815551757812 13.318390846252441406 5.7458329200744628906 11.151383399963378906 19.274868011474609375 24.13651275634765625 27.985870361328125 28.094064712524414062 21.079763412475585938 5.9474120140075683594 14.502877235412597656 25.215978622436523438 23.3195343017578125 15.636082649230957031 11.397775650024414062 11.904656410217285156 14.004073143005371094 16.714086532592773438 19.519451141357421875 18.569021224975585938 18.393369674682617188 23.704935073852539062 26.541711807250976562 26.139966964721679688 25.762495040893554688 27.690126419067382812 29.314189910888671875 31.622528076171875 31.298694610595703125 30.837329864501953125 28.664346694946289062 26.725765228271484375 27.84214019775390625 26.248933792114257812 21.666797637939453125 16.071117401123046875 20.52744293212890625 13.87975311279296875 18.025995254516601562 23.02841949462890625 24.99285125732421875 29.579082489013671875 31.380029678344726562 29.06533050537109375 24.6060028076171875 21.569427490234375 18.144237518310546875 15.829890251159667969 17.953729629516601562 21.404066085815429688 23.188032150268554688 23.00347900390625 21.818761825561523438 17.108776092529296875 13.171083450317382812 17.190904617309570312 21.09737396240234375 24.227647781372070312 29.763950347900390625 26.133350372314453125 18.971620559692382812 15.00830078125 13.327203750610351562 11.718906402587890625 11.018870353698730469 11.735083580017089844 12.55872344970703125 12.8202362060546875 12.868137359619140625 11.942954063415527344 11.194111824035644531 11.437974929809570312 13.166308403015136719 16.661266326904296875 18.901189804077148438 19.838836669921875 19.085418701171875 24.394954681396484375 30.76345062255859375 28.957675933837890625 25.697568893432617188 27.000131607055664062 25.37375640869140625 22.42823028564453125 28.450836181640625 30.980434417724609375 29.994012832641601562 25.562381744384765625 18.026254653930664062 11.757747650146484375 11.560598373413085938 17.869935989379882812 22.7147369384765625 27.322893142700195312 30.904079437255859375 32.45322418212890625 32.800930023193359375 33.08887481689453125 33.129268646240234375 33.027523040771484375 32.691471099853515625 34.287563323974609375 27.153554916381835938 38.060672760009765625 36.245769500732421875 27.882854461669921875 24.663848876953125 19.649658203125 18.719587326049804688 19.473049163818359375 17.674455642700195312 14.216471672058105469 11.680800437927246094 9.07254791259765625 9.2741718292236328125 19.0598297119140625 25.504575729370117188 14.844487190246582031 13.585590362548828125 14.896719932556152344 15.223895072937011719 23.169435501098632812 29.064716339111328125 29.599397659301757812 26.417072296142578125 25.038389205932617188 21.681333541870117188 13.418040275573730469 27.662553787231445312 30.112701416015625 -9999 
-9999 37.98212432861328125 36.174503326416015625 31.7109832763671875 29.69951629638671875 25.413328170776367188 19.044054031372070312 22.085660934448242188 23.59358978271484375 21.481830596923828125 20.635162353515625 24.68624114990234375 31.34405517578125 33.606784820556640625 29.762033462524414062 25.157382965087890625 22.42794036865234375 21.494293212890625 23.166046142578125 25.324804306030273438 26.222204208374023438 25.669996261596679688 22.151256561279296875 17.202816009521484375 13.105086326599121094 9.464443206787109375 7.2142152786254882812 8.45691680908203125 11.574779510498046875 9.0758609771728515625 5.5105147361755371094 5.745220184326171875 8.4988050460815429688 10.752713203430175781 9.4219655990600585938 7.5004177093505859375 6.6516127586364746094 3.745021820068359375 3.3937063217163085938 11.513634681701660156 17.962221145629882812 23.660430908203125 25.287591934204101562 22.443254470825195312 20.749582290649414062 16.271905899047851562 7.2934179306030273438 15.310667991638183594 23.749416351318359375 26.406270980834960938 27.455991744995117188 22.189477920532226562 5.7816944122314453125 14.003206253051757812 24.443145751953125 22.900503158569335938 15.2111663818359375 10.046696662902832031 9.8042573928833007812 10.470803260803222656 10.441478729248046875 11.545580863952636719 15.348797798156738281 19.80449676513671875 16.699003219604492188 16.298841476440429688 22.500873565673828125 23.146005630493164062 15.470702171325683594 16.58887481689453125 25.84566497802734375 31.835851669311523438 32.10036468505859375 30.982990264892578125 30.293581008911132812 29.966402053833007812 31.3526763916015625 30.28043365478515625 24.938182830810546875 22.644830703735351562 22.237041473388671875 14.042737960815429688 22.06986236572265625 26.6864166259765625 29.4515533447265625 33.697170257568359375 36.201778411865234375 34.191440582275390625 30.917438507080078125 28.038923263549804688 23.591169357299804688 19.54465484619140625 19.654714584350585938 19.661853790283203125 18.367719650268554688 20.228179931640625 22.359073638916015625 17.766229629516601562 13.546131134033203125 17.702829360961914062 18.035337448120117188 19.720918655395507812 29.139347076416015625 28.1920166015625 21.740238189697265625 18.0288543701171875 16.696516036987304688 14.937399864196777344 13.43062591552734375 12.745570182800292969 11.945055961608886719 12.337076187133789062 12.742511749267578125 12.227766990661621094 12.061120033264160156 13.602515220642089844 17.030126571655273438 20.111120223999023438 20.914768218994140625 22.454982757568359375 21.84021759033203125 17.68112945556640625 27.082950592041015625 30.483880996704101562 28.630859375 30.974073410034179688 31.257581710815429688 25.061128616333007812 26.909902572631835938 30.723470687866210938 30.667652130126953125 27.56317138671875 21.720729827880859375 12.715228080749511719 15.346707344055175781 23.260168075561523438 26.406118392944335938 29.971435546875 33.70371246337890625 35.704372406005859375 35.310352325439453125 34.102787017822265625 33.14507293701171875 31.511960983276367188 29.4192657470703125 32.2316131591796875 23.077733993530273438 32.996051788330078125 34.417980194091796875 27.816446304321289062 23.311374664306640625 15.991842269897460938 14.671376228332519531 16.588565826416015625 17.338954925537109375 16.384891510009765625 13.203714370727539062 8.1380949020385742188 11.183088302612304688 20.448940277099609375 20.949550628662109375 13.193434715270996094 16.169620513916015625 14.841091156005859375 12.730264663696289062 20.549367904663085938 28.297893524169921875 31.024204254150390625 28.122211456298828125 25.09051513671875 20.037868499755859375 15.016138076782226562 28.972009658813476562 32.475681304931640625 -9999 
-9999 40.215946197509765625 37.094181060791015625 29.083950042724609375 27.1656494140625 24.063388824462890625 20.474435806274414062 23.248155593872070312 24.826566696166992188 22.919431686401367188 20.230558395385742188 22.967489242553710938 29.375988006591796875 34.040927886962890625 34.84671783447265625 34.00495147705078125 32.2225189208984375 29.37343597412109375 28.0315093994140625 28.509428024291992188 28.95429229736328125 28.165950775146484375 24.429388046264648438 19.48682403564453125 15.192962646484375 11.176314353942871094 8.3054456710815429688 8.3026638031005859375 9.8212099075317382812 8.1114149093627929688 6.6661672592163085938 8.0365886688232421875 10.681097984313964844 14.315143585205078125 14.750799179077148438 11.952610015869140625 9.439441680908203125 6.2283735275268554688 1.9341698884963989258 3.2218122482299804688 10.688291549682617188 19.51432037353515625 25.26998138427734375 26.306184768676757812 25.090120315551757812 20.278593063354492188 10.225816726684570312 19.593111038208007812 25.718875885009765625 25.566951751708984375 23.437768936157226562 10.078003883361816406 11.243699073791503906 21.384347915649414062 20.606298446655273438 13.551774978637695312 7.4807987213134765625 6.6496767997741699219 8.9485225677490234375 10.767164230346679688 10.917795181274414062 11.241040229797363281 13.171935081481933594 17.152406692504882812 20.444278717041015625 16.955366134643554688 13.267292976379394531 21.009906768798828125 24.203327178955078125 20.924730300903320312 22.504095077514648438 27.987009048461914062 28.545162200927734375 26.935451507568359375 27.56888580322265625 29.449285507202148438 31.847537994384765625 30.923452377319335938 28.137449264526367188 28.244770050048828125 23.328691482543945312 14.509295463562011719 24.548625946044921875 29.642244338989257812 32.45363616943359375 34.25304412841796875 35.82694244384765625 35.69319915771484375 34.10250091552734375 31.4164581298828125 26.704135894775390625 23.203565597534179688 22.365095138549804688 18.4255523681640625 15.131319046020507812 19.183034896850585938 21.913049697875976562 17.023342132568359375 14.664859771728515625 17.896732330322265625 16.9273223876953125 18.896615982055664062 29.139156341552734375 31.050182342529296875 27.118541717529296875 22.926874160766601562 20.277948379516601562 17.7925567626953125 17.111825942993164062 18.176702499389648438 17.891317367553710938 16.764461517333984375 16.213344573974609375 17.486814498901367188 19.649810791015625 19.854230880737304688 17.913509368896484375 16.340372085571289062 17.124261856079101562 21.807010650634765625 22.031816482543945312 18.765905380249023438 23.412349700927734375 32.51076507568359375 33.34731292724609375 35.947601318359375 35.770153045654296875 29.434061050415039062 25.70880126953125 26.81703948974609375 27.135736465454101562 27.29468536376953125 23.16251373291015625 10.845316886901855469 18.773630142211914062 25.214143753051757812 26.3875885009765625 30.470340728759765625 34.6038665771484375 35.40073394775390625 33.3905029296875 31.52854156494140625 30.750377655029296875 27.868719100952148438 25.901845932006835938 31.501638412475585938 21.798009872436523438 26.022661209106445312 32.654850006103515625 27.052455902099609375 21.246990203857421875 14.049414634704589844 12.570346832275390625 15.37722015380859375 16.724010467529296875 16.571926116943359375 14.376059532165527344 11.889734268188476562 15.609692573547363281 19.872488021850585938 14.330725669860839844 16.739126205444335938 19.766847610473632812 17.00122833251953125 14.720990180969238281 18.185461044311523438 24.830633163452148438 29.143993377685546875 28.873231887817382812 25.800655364990234375 18.63173675537109375 21.0124969482421875 30.966583251953125 33.843540191650390625 -9999 
-9999 39.605304718017578125 35.06339263916015625 27.193464279174804688 25.085155487060546875 21.564197540283203125 20.748483657836914062 23.374500274658203125 25.56394195556640625 24.694944381713867188 21.150419235229492188 21.891750335693359375 25.77115631103515625 29.7760467529296875 32.852924346923828125 34.998302459716796875 35.7108917236328125 33.7277679443359375 31.337144851684570312 30.674932479858398438 30.386295318603515625 28.573398590087890625 25.407958984375 21.661285400390625 17.0203704833984375 13.141686439514160156 10.715658187866210938 9.310253143310546875 8.3153467178344726562 7.099315643310546875 7.5214552879333496094 9.3265514373779296875 10.659532546997070312 14.143473625183105469 18.189666748046875 17.629201889038085938 14.069936752319335938 9.1097126007080078125 4.3990306854248046875 1.3778464794158935547 3.7669317722320556641 12.267483711242675781 20.4544525146484375 25.862855911254882812 28.202899932861328125 24.940906524658203125 14.310346603393554688 21.779451370239257812 24.498462677001953125 23.047365188598632812 18.245035171508789062 2.3828237056732177734 19.9141387939453125 20.5928497314453125 14.557644844055175781 7.6683444976806640625 5.0852308273315429688 8.1674737930297851562 14.279315948486328125 17.699853897094726562 17.32064056396484375 15.422829627990722656 14.890786170959472656 16.275026321411132812 21.6900482177734375 25.813486099243164062 22.196062088012695312 12.638342857360839844 17.275178909301757812 25.37264251708984375 28.838144302368164062 30.454870223999023438 28.474187850952148438 24.796354293823242188 22.408548355102539062 19.77126312255859375 24.36714935302734375 28.013538360595703125 29.90427398681640625 31.224626541137695312 23.832963943481445312 15.784849166870117188 27.078578948974609375 31.7764739990234375 33.137928009033203125 32.51702880859375 33.16779327392578125 35.284870147705078125 34.986232757568359375 32.60282135009765625 29.1832122802734375 27.983118057250976562 27.04883575439453125 22.920423507690429688 18.7574310302734375 19.9454345703125 19.7846221923828125 16.511190414428710938 17.876913070678710938 20.600469589233398438 20.266693115234375 21.772916793823242188 30.231678009033203125 34.33780670166015625 33.147190093994140625 29.586145401000976562 26.093929290771484375 20.949102401733398438 21.096330642700195312 26.877166748046875 29.1851348876953125 25.429361343383789062 21.434841156005859375 24.484516143798828125 27.885303497314453125 26.221086502075195312 19.59706878662109375 14.517641067504882812 18.548627853393554688 25.215902328491210938 22.3107757568359375 20.719366073608398438 18.061168670654296875 32.09778594970703125 35.7836151123046875 37.867290496826171875 37.1170654296875 29.64186859130859375 20.0991668701171875 22.350391387939453125 26.917119979858398438 29.268619537353515625 23.044521331787109375 10.383508682250976562 20.591070175170898438 24.189083099365234375 24.98329925537109375 27.315877914428710938 29.192998886108398438 27.82491302490234375 25.431276321411132812 24.950101852416992188 25.159881591796875 21.655536651611328125 20.378021240234375 29.559019088745117188 24.896778106689453125 17.068029403686523438 30.646854400634765625 27.617933273315429688 20.6919097900390625 13.877221107482910156 10.545976638793945312 12.993824005126953125 14.805429458618164062 14.860483169555664062 14.499452590942382812 16.165624618530273438 19.822710037231445312 18.139133453369140625 14.977926254272460938 19.90987396240234375 19.94307708740234375 19.685626983642578125 19.270238876342773438 20.094207763671875 26.01320648193359375 29.269578933715820312 27.88299560546875 24.501466751098632812 18.925937652587890625 24.774816513061523438 31.959093093872070312 34.636974334716796875 -9999 
-9999 33.888370513916015625 28.018453598022460938 22.140359878540039062 22.60829925537109375 20.755594253540039062 21.499074935913085938 23.274023056030273438 25.970834732055664062 27.07862091064453125 24.3725433349609375 22.492498397827148438 23.09554290771484375 24.555677413940429688 26.48621368408203125 29.371082305908203125 32.518463134765625 33.274883270263671875 33.123134613037109375 33.297809600830078125 31.810590744018554688 28.41070556640625 25.837335586547851562 23.273397445678710938 18.9071044921875 15.941147804260253906 13.799590110778808594 10.998584747314453125 7.7865567207336425781 6.3177962303161621094 7.5544772148132324219 7.8165283203125 6.9723992347717285156 7.9021887779235839844 13.661298751831054688 18.776121139526367188 16.79785919189453125 12.313164710998535156 8.0984506607055664062 4.1044054031372070312 0.85255187749862670898 4.7290897369384765625 12.851964950561523438 21.005022048950195312 27.020048141479492188 27.467790603637695312 17.529354095458984375 20.534437179565429688 21.073316574096679688 20.101331710815429688 12.55701446533203125 11.223818778991699219 22.93947601318359375 18.42986297607421875 11.028613090515136719 5.6864185333251953125 6.0779700279235839844 13.133299827575683594 22.325103759765625 23.710094451904296875 21.696035385131835938 21.032949447631835938 19.490797042846679688 19.236898422241210938 22.511472702026367188 25.803915023803710938 28.960062026977539062 26.281635284423828125 17.611959457397460938 16.293487548828125 25.466386795043945312 32.12718963623046875 32.494476318359375 30.495027542114257812 29.239170074462890625 22.2567901611328125 10.145237922668457031 21.757318496704101562 30.663867950439453125 32.264415740966796875 24.894327163696289062 15.65201568603515625 28.274602890014648438 33.582202911376953125 34.17340850830078125 30.849115371704101562 29.217601776123046875 33.291576385498046875 34.34781646728515625 33.599765777587890625 33.457523345947265625 33.154296875 31.341135025024414062 28.86804962158203125 26.094942092895507812 22.49869537353515625 18.148097991943359375 20.763515472412109375 23.445085525512695312 24.584352493286132812 23.490962982177734375 22.99993896484375 28.197919845581054688 32.96087646484375 34.269855499267578125 32.2840423583984375 29.406866073608398438 21.230855941772460938 24.241544723510742188 31.82833099365234375 34.51976776123046875 32.058834075927734375 24.383150100708007812 27.037288665771484375 29.4281158447265625 28.455942153930664062 24.698911666870117188 18.005033493041992188 24.667285919189453125 31.358211517333984375 26.69925689697265625 26.679300308227539062 14.522311210632324219 27.201177597045898438 36.852703094482421875 40.0483245849609375 38.0797576904296875 25.738306045532226562 8.0615873336791992188 19.553447723388671875 28.225175857543945312 30.37579345703125 21.600954055786132812 11.808427810668945312 21.490949630737304688 23.187120437622070312 24.854160308837890625 24.121856689453125 22.05987548828125 19.030361175537109375 16.410892486572265625 17.797088623046875 19.599431991577148438 16.350824356079101562 15.084134101867675781 25.99840545654296875 29.268693923950195312 13.507201194763183594 24.8013916015625 29.194715499877929688 23.383417129516601562 15.433552742004394531 8.8933458328247070312 7.457782745361328125 9.8252916336059570312 12.178294181823730469 14.231203079223632812 18.483316421508789062 20.797880172729492188 17.889493942260742188 21.982837677001953125 23.11301422119140625 20.581235885620117188 19.941486358642578125 19.029779434204101562 22.029748916625976562 29.96857452392578125 30.449506759643554688 26.280118942260742188 23.005064010620117188 18.547639846801757812 24.476995468139648438 30.359111785888671875 34.465755462646484375 -9999 
-9999 27.564016342163085938 21.887331008911132812 14.042576789855957031 17.728734970092773438 20.486621856689453125 21.249536514282226562 21.107618331909179688 23.133226394653320312 26.512468338012695312 27.01457977294921875 24.693155288696289062 22.263277053833007812 21.580478668212890625 22.169549942016601562 24.397699356079101562 28.946779251098632812 32.77774810791015625 34.737743377685546875 35.1945037841796875 33.1775665283203125 29.675006866455078125 27.59745025634765625 25.588678359985351562 22.183778762817382812 20.46672821044921875 18.301647186279296875 14.047358512878417969 9.2364721298217773438 6.2033929824829101562 6.2766208648681640625 4.7312226295471191406 2.4461927413940429688 1.0409690141677856445 6.5349383354187011719 16.485609054565429688 15.782257080078125 11.655825614929199219 11.327322959899902344 7.5740485191345214844 3.2173013687133789062 0.26490485668182373047 6.1827688217163085938 14.473768234252929688 21.803079605102539062 25.602796554565429688 18.525293350219726562 17.023326873779296875 17.702960968017578125 17.248233795166015625 5.6859011650085449219 16.991334915161132812 22.390796661376953125 15.525906562805175781 8.6197338104248046875 6.259960174560546875 9.8149080276489257812 18.06536102294921875 25.419521331787109375 22.474353790283203125 17.882946014404296875 20.670595169067382812 23.560495376586914062 24.438999176025390625 25.846157073974609375 25.816680908203125 28.351850509643554688 31.5850982666015625 29.7992401123046875 23.353857040405273438 15.810802459716796875 23.20024871826171875 30.35553741455078125 31.791271209716796875 32.383403778076171875 30.028573989868164062 16.6662445068359375 15.597115516662597656 30.629055023193359375 32.464488983154296875 27.296419143676757812 15.7285308837890625 26.604198455810546875 33.705905914306640625 33.49344635009765625 26.918783187866210938 22.681486129760742188 31.267957687377929688 34.2597808837890625 36.379413604736328125 36.926082611083984375 34.73555755615234375 30.75494384765625 30.309764862060546875 30.194965362548828125 22.803859710693359375 20.378055572509765625 27.016321182250976562 28.743803024291992188 28.440656661987304688 27.141387939453125 25.945226669311523438 27.682857513427734375 30.0738067626953125 30.371799468994140625 28.362667083740234375 27.092073440551757812 15.155320167541503906 25.845502853393554688 29.626888275146484375 30.309299468994140625 33.207592010498046875 25.267547607421875 27.1755523681640625 27.70975494384765625 26.180294036865234375 25.872097015380859375 17.642303466796875 25.919378280639648438 32.605945587158203125 26.232378005981445312 31.210498809814453125 26.859823226928710938 18.407817840576171875 34.495113372802734375 42.16957855224609375 39.1382904052734375 25.05307769775390625 3.9313611984252929688 16.009166717529296875 26.972320556640625 29.840803146362304688 22.105640411376953125 12.436357498168945312 20.021429061889648438 21.40179443359375 22.975694656372070312 22.503038406372070312 19.25446319580078125 16.639692306518554688 16.59233856201171875 18.86031341552734375 19.851909637451171875 16.914499282836914062 15.447313308715820312 22.601694107055664062 30.578798294067382812 22.635524749755859375 15.970191001892089844 28.677227020263671875 26.8146514892578125 18.899930953979492188 11.738167762756347656 8.7859134674072265625 8.8334169387817382812 10.926969528198242188 14.426381111145019531 19.939586639404296875 18.461069107055664062 20.166210174560546875 25.811002731323242188 24.382154464721679688 21.331531524658203125 19.266012191772460938 16.924261093139648438 22.947412490844726562 31.876031875610351562 30.478298187255859375 26.666393280029296875 24.327234268188476562 19.572240829467773438 24.218540191650390625 28.037263870239257812 32.842029571533203125 -9999 
-9999 20.835710525512695312 16.330186843872070312 5.8432192802429199219 8.694370269775390625 17.478651046752929688 19.877614974975585938 18.876817703247070312 18.235807418823242188 20.926097869873046875 25.432901382446289062 27.121416091918945312 24.389923095703125 21.358425140380859375 20.795673370361328125 21.691976547241210938 25.7595062255859375 31.729877471923828125 35.493701934814453125 36.6021575927734375 35.91503143310546875 34.146694183349609375 31.878002166748046875 28.19268035888671875 23.386732101440429688 22.096956253051757812 21.115070343017578125 16.649431228637695312 11.037531852722167969 7.1960921287536621094 5.4643750190734863281 3.8637588024139404297 2.7156546115875244141 1.5406862497329711914 3.3902850151062011719 13.689349174499511719 15.386513710021972656 9.4783849716186523438 10.744326591491699219 10.821118354797363281 5.8536543846130371094 1.8294076919555664062 2.2687191963195800781 9.2075777053833007812 15.834849357604980469 20.707311630249023438 17.490764617919921875 13.042013168334960938 15.127436637878417969 13.564003944396972656 2.4398777484893798828 19.290802001953125 19.618947982788085938 13.865068435668945312 8.642475128173828125 8.4256420135498046875 12.810778617858886719 19.824033737182617188 24.586559295654296875 20.1461029052734375 13.979600906372070312 15.948610305786132812 21.348112106323242188 26.8195648193359375 30.224397659301757812 30.6797637939453125 30.439762115478515625 33.478771209716796875 34.517208099365234375 32.5200347900390625 25.877191543579101562 16.15555572509765625 22.546092987060546875 30.531728744506835938 33.96266937255859375 33.7615203857421875 24.720012664794921875 13.794373512268066406 29.311450958251953125 31.196668624877929688 28.721029281616210938 21.2414703369140625 22.337144851684570312 33.0556640625 33.74752044677734375 25.7711639404296875 17.871295928955078125 30.062595367431640625 35.89614105224609375 38.689128875732421875 37.88126373291015625 32.509552001953125 28.029317855834960938 31.383808135986328125 30.500965118408203125 21.167400360107421875 25.0560760498046875 29.474264144897460938 30.238460540771484375 30.582166671752929688 30.570848464965820312 29.928955078125 29.7365264892578125 29.123291015625 29.851535797119140625 31.281049728393554688 24.801301956176757812 11.280140876770019531 28.470449447631835938 27.142612457275390625 23.046640396118164062 30.651514053344726562 25.15079498291015625 29.51842498779296875 29.004995346069335938 25.408578872680664062 27.731214523315429688 18.105924606323242188 22.756212234497070312 28.701923370361328125 20.050939559936523438 21.427358627319335938 32.1463775634765625 26.153005599975585938 25.666460037231445312 38.851932525634765625 38.886363983154296875 28.872163772583007812 12.393062591552734375 10.241320610046386719 21.850812911987304688 26.738452911376953125 22.995943069458007812 14.190190315246582031 15.330591201782226562 19.759128570556640625 21.186620712280273438 21.790231704711914062 19.105482101440429688 17.27154541015625 19.200750350952148438 21.291006088256835938 21.554990768432617188 20.59653472900390625 21.160055160522460938 24.274784088134765625 30.88127899169921875 29.486827850341796875 17.127927780151367188 28.896257400512695312 29.984378814697265625 23.106645584106445312 16.564382553100585938 13.943727493286132812 12.695042610168457031 12.367145538330078125 15.571359634399414062 21.023443222045898438 14.803059577941894531 19.680658340454101562 21.811853408813476562 20.3325042724609375 19.5168914794921875 18.028608322143554688 16.4852752685546875 24.24639892578125 32.380405426025390625 30.351018905639648438 29.370487213134765625 28.12429046630859375 23.402313232421875 27.784088134765625 28.787220001220703125 29.870330810546875 -9999 
-9999 8.5298709869384765625 12.727418899536132812 15.019596099853515625 10.690502166748046875 10.967938423156738281 15.769415855407714844 17.531988143920898438 16.5079803466796875 15.365113258361816406 18.393518447875976562 23.995269775390625 25.077747344970703125 21.706914901733398438 19.669147491455078125 19.587306976318359375 21.837194442749023438 26.420545578002929688 30.645053863525390625 33.106487274169921875 34.282917022705078125 34.800380706787109375 34.2379608154296875 30.953533172607421875 24.62897491455078125 21.387178421020507812 20.664995193481445312 16.288869857788085938 10.639678955078125 7.54345703125 5.1014080047607421875 4.7895755767822265625 4.2868833541870117188 2.0201196670532226562 1.3433247804641723633 9.2635946273803710938 15.581973075866699219 11.35317230224609375 9.066699981689453125 11.573122024536132812 8.7992029190063476562 3.9528980255126953125 0.54380464553833007812 5.3957395553588867188 11.421453475952148438 15.44219207763671875 14.199375152587890625 9.492084503173828125 12.468831062316894531 9.0831212997436523438 8.6851320266723632812 19.439701080322265625 17.514862060546875 14.165215492248535156 10.145806312561035156 9.6747589111328125 13.902929306030273438 20.416484832763671875 23.021244049072265625 18.1722412109375 13.31600189208984375 14.823797225952148438 19.015134811401367188 23.655214309692382812 28.473535537719726562 31.9669647216796875 33.10086822509765625 35.6706085205078125 37.207820892333984375 36.16230010986328125 33.515926361083984375 27.273193359375 22.461668014526367188 28.765960693359375 35.13675689697265625 36.149444580078125 28.55164337158203125 12.843663215637207031 27.274679183959960938 28.8712005615234375 28.501024246215820312 26.807689666748046875 21.3324432373046875 30.884691238403320312 34.359893798828125 30.375226974487304688 22.878101348876953125 31.073793411254882812 36.8216705322265625 37.226039886474609375 35.173946380615234375 31.680982589721679688 31.076208114624023438 32.80001068115234375 28.92826080322265625 24.607366561889648438 29.757291793823242188 29.810901641845703125 29.861751556396484375 30.779172897338867188 30.616001129150390625 28.965755462646484375 29.075895309448242188 30.359544754028320312 33.7383575439453125 34.3545684814453125 20.68813323974609375 18.740964889526367188 31.566448211669921875 28.17609405517578125 22.62035369873046875 30.24853515625 25.082469940185546875 30.716268539428710938 29.63507080078125 27.202833175659179688 31.072551727294921875 21.9459228515625 21.859121322631835938 21.869478225708007812 22.3631439208984375 15.999936103820800781 26.783718109130859375 32.61959075927734375 22.947294235229492188 26.691503524780273438 35.167102813720703125 30.730411529541015625 17.289808273315429688 8.1585512161254882812 14.921705245971679688 19.6669158935546875 16.8891754150390625 12.204035758972167969 8.8857183456420898438 17.769317626953125 21.723134994506835938 22.456148147583007812 20.164468765258789062 17.72399139404296875 18.43517303466796875 19.737916946411132812 20.86931610107421875 20.647296905517578125 19.221361160278320312 21.596912384033203125 29.92059326171875 32.97542572021484375 21.370906829833984375 25.143053054809570312 29.05690765380859375 23.507081985473632812 16.552036285400390625 14.412316322326660156 15.10678863525390625 15.432343482971191406 18.547389984130859375 23.10009002685546875 14.101101875305175781 16.37996673583984375 14.167088508605957031 13.240538597106933594 14.161886215209960938 13.096019744873046875 12.879819869995117188 22.248836517333984375 30.929925918579101562 30.400602340698242188 30.75641632080078125 29.572498321533203125 24.706212997436523438 31.158311843872070312 32.0491943359375 29.033525466918945312 -9999 
-9999 10.437277793884277344 20.134899139404296875 25.580352783203125 24.021938323974609375 17.029230117797851562 12.223562240600585938 14.200283050537109375 16.095811843872070312 15.35601043701171875 15.600102424621582031 18.272909164428710938 21.457927703857421875 22.268009185791015625 21.790102005004882812 21.534938812255859375 23.075056076049804688 24.965368270874023438 24.668859481811523438 23.912256240844726562 25.338260650634765625 27.874963760375976562 29.449438095092773438 29.357633590698242188 26.614704132080078125 23.511651992797851562 20.17369842529296875 13.284060478210449219 10.719570159912109375 10.436740875244140625 8.231311798095703125 6.306407928466796875 4.8173985481262207031 2.5308716297149658203 0.89869201183319091797 3.6849024295806884766 12.195081710815429688 15.0576324462890625 11.639840126037597656 11.461184501647949219 9.8324728012084960938 5.4620447158813476562 2.6105329990386962891 2.4879033565521240234 8.5839824676513671875 12.590754508972167969 10.757357597351074219 6.2212853431701660156 9.8458490371704101562 4.7534513473510742188 12.969700813293457031 19.265851974487304688 17.084882736206054688 14.789144515991210938 10.478373527526855469 9.45923614501953125 15.025117874145507812 21.137388229370117188 20.858766555786132812 16.0896453857421875 13.364254951477050781 15.369448661804199219 19.583387374877929688 23.512746810913085938 25.927515029907226562 27.973028182983398438 29.292875289916992188 33.28256988525390625 37.96533966064453125 38.3701324462890625 35.957538604736328125 32.54718017578125 29.9642486572265625 28.917181015014648438 31.888671875 35.531192779541015625 31.082675933837890625 12.480194091796875 24.756978988647460938 27.382150650024414062 27.700834274291992188 28.682901382446289062 24.766946792602539062 29.363307952880859375 34.37615203857421875 34.85767364501953125 31.399242401123046875 32.3377838134765625 35.44445037841796875 34.80319976806640625 34.186908721923828125 34.23040008544921875 34.43389892578125 34.22690582275390625 29.135974884033203125 29.506273269653320312 33.425609588623046875 32.410762786865234375 31.691234588623046875 30.940534591674804688 27.273967742919921875 22.471708297729492188 27.814813613891601562 33.525257110595703125 35.948902130126953125 33.002017974853515625 16.542684555053710938 23.68566131591796875 32.668712615966796875 29.304685592651367188 25.501934051513671875 33.1544189453125 29.268621444702148438 30.70214080810546875 28.728702545166015625 27.9022979736328125 33.2222900390625 24.452745437622070312 24.4789886474609375 20.821008682250976562 25.379184722900390625 27.743274688720703125 24.914302825927734375 28.93079376220703125 26.484363555908203125 16.4727783203125 27.270206451416015625 27.457960128784179688 18.161081314086914062 11.344601631164550781 12.398977279663085938 14.140702247619628906 9.598415374755859375 7.7722930908203125 7.3569846153259277344 12.501971244812011719 20.32117462158203125 23.510150909423828125 22.89234161376953125 19.52391815185546875 17.967380523681640625 19.041189193725585938 21.447772979736328125 22.013172149658203125 16.260652542114257812 10.085564613342285156 21.811628341674804688 31.080778121948242188 27.187379837036132812 17.663110733032226562 25.389799118041992188 25.051622390747070312 17.0689544677734375 12.631287574768066406 14.054630279541015625 16.528560638427734375 21.1342010498046875 25.69342041015625 17.285900115966796875 13.219931602478027344 9.938701629638671875 6.3621621131896972656 6.8048367500305175781 6.5180902481079101562 6.7017397880554199219 15.165327072143554688 24.18502044677734375 27.551717758178710938 30.775918960571289062 30.189020156860351562 25.155317306518554688 31.3581390380859375 30.683408737182617188 27.919294357299804688 -9999 
-9999 18.952884674072265625 23.084812164306640625 27.707798004150390625 30.506650924682617188 27.821086883544921875 20.965139389038085938 16.061418533325195312 18.77515411376953125 21.49217987060546875 23.4927825927734375 22.500249862670898438 19.579423904418945312 22.560544967651367188 26.4696807861328125 27.163593292236328125 29.651248931884765625 31.907297134399414062 30.812952041625976562 29.405529022216796875 29.982418060302734375 30.457241058349609375 28.001226425170898438 24.65338134765625 24.911859512329101562 24.986440658569335938 17.981418609619140625 13.076819419860839844 15.947996139526367188 16.296834945678710938 13.720617294311523438 8.4529409408569335938 5.0748047828674316406 3.0374066829681396484 1.2794234752655029297 0.50087106227874755859 4.8490209579467773438 13.161005973815917969 15.908638954162597656 14.69244384765625 11.742259025573730469 6.8774662017822265625 4.0513892173767089844 0.60981601476669311523 5.6972327232360839844 11.188380241394042969 9.6055202484130859375 4.4382920265197753906 8.2117128372192382812 0.99111533164978027344 16.094087600708007812 18.791063308715820312 16.3202362060546875 14.113634109497070312 10.084387779235839844 9.5358247756958007812 16.275707244873046875 21.047140121459960938 18.204982757568359375 14.520601272583007812 13.980144500732421875 15.830485343933105469 19.843183517456054688 24.350799560546875 26.443174362182617188 26.275775909423828125 25.115535736083984375 23.898000717163085938 27.811191558837890625 34.630771636962890625 35.3966827392578125 33.31214141845703125 34.308238983154296875 33.815441131591796875 30.059848785400390625 31.622781753540039062 32.900363922119140625 17.975431442260742188 22.4699554443359375 27.718181610107421875 27.8981475830078125 30.120361328125 29.879930496215820312 28.69806671142578125 33.669132232666015625 36.6535491943359375 35.3529815673828125 29.784740447998046875 29.573316574096679688 33.948947906494140625 35.38295745849609375 35.286449432373046875 35.06268310546875 34.663021087646484375 28.020341873168945312 28.601642608642578125 33.326251983642578125 34.43738555908203125 34.1538238525390625 30.872348785400390625 23.036191940307617188 21.493366241455078125 29.13460540771484375 34.2734375 35.800502777099609375 30.674806594848632812 14.514035224914550781 24.71654510498046875 32.359760284423828125 29.624452590942382812 25.959100723266601562 34.10050201416015625 34.882595062255859375 31.338436126708984375 28.070278167724609375 26.9091339111328125 32.890148162841796875 21.9799652099609375 23.829298019409179688 23.097093582153320312 29.531267166137695312 33.463104248046875 24.906864166259765625 23.536977767944335938 24.955303192138671875 15.045907020568847656 17.676326751708984375 21.110668182373046875 16.702198028564453125 10.482105255126953125 7.4761519432067871094 7.8855566978454589844 7.6265282630920410156 11.11861419677734375 13.754395484924316406 11.484249114990234375 14.055169105529785156 21.139650344848632812 24.609075546264648438 22.964406967163085938 20.245531082153320312 19.956079483032226562 21.241193771362304688 21.64368438720703125 17.841094970703125 7.5577054023742675781 10.380786895751953125 22.700296401977539062 29.0248260498046875 22.533166885375976562 20.025508880615234375 26.33437347412109375 20.60645294189453125 14.026599884033203125 13.031916618347167969 14.213515281677246094 19.349475860595703125 24.978414535522460938 19.01027679443359375 13.807935714721679688 10.883833885192871094 8.0512104034423828125 8.2340497970581054688 7.9634861946105957031 6.6270818710327148438 9.8919162750244140625 15.159673690795898438 20.689161300659179688 28.07552337646484375 29.9508514404296875 25.9244384765625 28.2303314208984375 25.377973556518554688 23.074693679809570312 -9999 
-9999 22.166681289672851562 24.024097442626953125 23.938177108764648438 29.04923248291015625 30.5426177978515625 26.604322433471679688 19.58819580078125 21.49626922607421875 25.829069137573242188 28.836069107055664062 27.047885894775390625 23.588253021240234375 24.636968612670898438 30.387729644775390625 32.0926666259765625 34.92179107666015625 36.54598236083984375 35.18309783935546875 34.34272003173828125 32.025753021240234375 25.981014251708984375 19.695367813110351562 18.628475189208984375 22.057352066040039062 22.047214508056640625 17.558942794799804688 18.130891799926757812 17.228742599487304688 19.404684066772460938 18.213792800903320312 11.251649856567382812 5.9444103240966796875 3.7748475074768066406 2.2003285884857177734 0.58825385570526123047 0.52380573749542236328 5.9222025871276855469 13.333609580993652344 17.193147659301757812 16.937391281127929688 11.407230377197265625 5.904590606689453125 2.0758297443389892578 3.2649600505828857422 9.2469911575317382812 8.9705657958984375 4.827037811279296875 5.7083611488342285156 7.0591006278991699219 18.347118377685546875 17.151208877563476562 14.529149055480957031 13.379395484924316406 11.228090286254882812 11.780234336853027344 16.48534393310546875 18.625253677368164062 15.961282730102539062 14.054785728454589844 14.698678970336914062 16.284276962280273438 19.863798141479492188 24.278348922729492188 26.26806640625 25.985492706298828125 26.436822891235351562 25.047636032104492188 14.125990867614746094 19.582794189453125 30.525129318237304688 33.371734619140625 35.352397918701171875 35.544734954833984375 33.299900054931640625 29.918134689331054688 31.554994583129882812 24.139881134033203125 20.913862228393554688 28.550907135009765625 30.366559982299804688 33.42902374267578125 33.814601898193359375 28.378658294677734375 32.148983001708984375 36.771221160888671875 36.13889312744140625 27.50336456298828125 21.238695144653320312 32.459598541259765625 35.1123809814453125 34.450595855712890625 34.520687103271484375 34.194156646728515625 27.942602157592773438 27.288257598876953125 32.7161407470703125 34.317554473876953125 33.139873504638671875 27.954328536987304688 24.12430572509765625 27.356670379638671875 29.450042724609375 31.941442489624023438 33.42333221435546875 27.273242950439453125 15.692502021789550781 24.881410598754882812 31.5449066162109375 31.253322601318359375 27.8289642333984375 32.965145111083984375 37.772174835205078125 32.583255767822265625 26.347858428955078125 26.239185333251953125 32.61658477783203125 18.734369277954101562 21.225238800048828125 22.116163253784179688 30.699930191040039062 32.8883514404296875 21.271305084228515625 20.8020782470703125 24.904844284057617188 19.300594329833984375 10.985224723815917969 12.787669181823730469 12.925479888916015625 6.4383454322814941406 3.0067489147186279297 9.1164484024047851562 14.617812156677246094 17.9644012451171875 19.483640670776367188 19.191972732543945312 13.739591598510742188 13.1475830078125 22.647594451904296875 25.899261474609375 23.411493301391601562 20.911281585693359375 20.398977279663085938 20.423971176147460938 18.667957305908203125 12.350707054138183594 8.7808046340942382812 15.336519241333007812 23.659435272216796875 25.859161376953125 21.612659454345703125 25.241735458374023438 22.9773406982421875 16.888200759887695312 14.185168266296386719 11.892583847045898438 16.064161300659179688 21.496889114379882812 17.922487258911132812 18.034921646118164062 16.795461654663085938 16.178514480590820312 17.447063446044921875 18.156072616577148438 16.563901901245117188 14.337204933166503906 12.741689682006835938 13.877110481262207031 20.864671707153320312 24.649621963500976562 22.404815673828125 21.4045257568359375 19.641347885131835938 20.398572921752929688 -9999 
-9999 24.456895828247070312 26.362028121948242188 22.38724517822265625 23.289056777954101562 27.564546585083007812 28.294952392578125 24.217622756958007812 23.7212677001953125 27.812829971313476562 31.193193435668945312 29.574901580810546875 28.248403549194335938 30.238872528076171875 34.3239593505859375 35.974597930908203125 38.124202728271484375 37.02472686767578125 30.751653671264648438 20.763586044311523438 7.1834630966186523438 15.585511207580566406 24.55342864990234375 28.169460296630859375 28.907138824462890625 24.771724700927734375 19.821424484252929688 15.771239280700683594 15.4174957275390625 20.209863662719726562 20.735738754272460938 14.78108978271484375 8.5675897598266601562 5.3029994964599609375 3.3994610309600830078 1.5238540172576904297 1.013123631477355957 3.0915834903717041016 6.4881334304809570312 11.643420219421386719 17.81880950927734375 17.377269744873046875 10.177305221557617188 3.1842904090881347656 1.9982682466506958008 7.4594697952270507812 7.2402067184448242188 4.6705336570739746094 1.5377283096313476562 13.996859550476074219 17.995584487915039062 14.749913215637207031 13.441941261291503906 13.876369476318359375 13.410888671875 14.587503433227539062 15.621918678283691406 14.613042831420898438 13.950613021850585938 13.801378250122070312 14.425980567932128906 16.239114761352539062 20.084375381469726562 24.61193084716796875 26.426679611206054688 26.444324493408203125 27.711248397827148438 28.259469985961914062 23.065814971923828125 9.0632867813110351562 20.947162628173828125 33.20130157470703125 36.665752410888671875 36.547466278076171875 36.18761444091796875 33.66841888427734375 31.10712432861328125 29.542724609375 24.600811004638671875 30.222324371337890625 33.958209991455078125 35.451374053955078125 34.02805328369140625 27.656764984130859375 30.576284408569335938 36.945430755615234375 36.75267791748046875 28.856210708618164062 21.076366424560546875 33.1522979736328125 35.864009857177734375 34.318370819091796875 33.65892791748046875 34.301525115966796875 32.393756866455078125 29.138843536376953125 33.316013336181640625 31.555919647216796875 25.872358322143554688 27.342517852783203125 30.942464828491210938 31.56008148193359375 29.875980377197265625 29.943315505981445312 28.836374282836914062 20.289453506469726562 19.36472320556640625 27.23126983642578125 30.185911178588867188 33.252567291259765625 31.514684677124023438 30.2163848876953125 36.094448089599609375 32.68120574951171875 23.314847946166992188 25.449678421020507812 31.773790359497070312 17.964214324951171875 19.410242080688476562 20.798299789428710938 30.919376373291015625 30.543069839477539062 19.963678359985351562 21.506059646606445312 27.066835403442382812 26.36078643798828125 20.142686843872070312 13.060225486755371094 12.540523529052734375 10.730137825012207031 9.8635339736938476562 12.568333625793457031 15.99092864990234375 18.083890914916992188 18.749673843383789062 20.232645034790039062 20.687395095825195312 15.198499679565429688 15.294087409973144531 25.048089981079101562 25.891439437866210938 22.207635879516601562 20.493856430053710938 20.919467926025390625 20.807016372680664062 17.05694580078125 13.021155357360839844 14.177004814147949219 18.513864517211914062 23.500017166137695312 25.21140289306640625 26.1378631591796875 23.004337310791015625 18.162458419799804688 12.967335700988769531 9.2810544967651367188 15.163079261779785156 18.168497085571289062 17.089214324951171875 19.618642807006835938 19.395824432373046875 20.011465072631835938 22.197605133056640625 23.999620437622070312 23.927194595336914062 21.34344482421875 16.74797821044921875 13.122700691223144531 14.723353385925292969 16.47452545166015625 14.359095573425292969 12.633005142211914062 14.69721221923828125 21.011640548706054688 -9999 
-9999 26.008409500122070312 26.797908782958984375 21.972820281982421875 16.753362655639648438 23.022542953491210938 28.723543167114257812 30.000211715698242188 28.578222274780273438 30.844438552856445312 34.320919036865234375 33.923488616943359375 32.51436614990234375 35.18509674072265625 37.298858642578125 37.412334442138671875 36.33544921875 29.013088226318359375 12.091144561767578125 20.792306900024414062 35.1705322265625 38.845455169677734375 37.871791839599609375 36.96726226806640625 35.9148101806640625 29.079387664794921875 20.755176544189453125 17.396116256713867188 19.87358856201171875 24.808750152587890625 26.295429229736328125 21.553552627563476562 14.604681968688964844 8.9172992706298828125 5.3639464378356933594 3.1144275665283203125 2.0777456760406494141 3.2035465240478515625 3.9801068305969238281 4.9962062835693359375 11.917162895202636719 18.80464935302734375 15.407952308654785156 5.3574733734130859375 1.25240325927734375 5.6789126396179199219 6.1618504524230957031 3.2451117038726806641 9.2538814544677734375 15.996030807495117188 15.567610740661621094 14.039185523986816406 14.207941055297851562 15.625388145446777344 16.602518081665039062 17.299230575561523438 15.897360801696777344 13.471113204956054688 12.613917350769042969 12.468632698059082031 12.601490020751953125 14.247928619384765625 17.833368301391601562 22.299785614013671875 24.001642227172851562 24.992053985595703125 27.454069137573242188 28.569873809814453125 28.19785308837890625 24.569522857666015625 22.557058334350585938 30.20450592041015625 37.08705902099609375 40.50279998779296875 40.769641876220703125 38.55347442626953125 35.787944793701171875 36.17437744140625 33.3665618896484375 33.8692626953125 34.939640045166015625 33.817302703857421875 33.451915740966796875 27.87714385986328125 29.147108078002929688 36.867160797119140625 37.50620269775390625 30.874639511108398438 24.4518890380859375 34.470592498779296875 37.243038177490234375 35.38973236083984375 32.325885772705078125 34.05742645263671875 35.672573089599609375 31.437971115112304688 33.44802093505859375 27.734798431396484375 21.918455123901367188 32.831462860107421875 34.74637603759765625 32.878887176513671875 30.085109710693359375 28.808176040649414062 24.61891937255859375 16.78176116943359375 20.699634552001953125 27.775743484497070312 31.630153656005859375 35.698230743408203125 35.1468353271484375 28.779552459716796875 31.957246780395507812 34.145782470703125 27.111316680908203125 27.202108383178710938 29.14550018310546875 17.310909271240234375 19.52063751220703125 20.967355728149414062 30.349365234375 28.159299850463867188 20.484935760498046875 22.609777450561523438 27.258401870727539062 28.313205718994140625 25.467847824096679688 19.865205764770507812 14.143971443176269531 13.9596710205078125 12.523547172546386719 12.372284889221191406 13.148037910461425781 14.5379486083984375 16.274860382080078125 18.429500579833984375 21.685873031616210938 23.445545196533203125 17.180959701538085938 15.995238304138183594 24.590620040893554688 24.31371307373046875 21.7953338623046875 22.092082977294921875 22.684549331665039062 20.272348403930664062 15.772265434265136719 12.940355300903320312 13.637166023254394531 19.460481643676757812 24.418531417846679688 24.882703781127929688 19.782779693603515625 14.372437477111816406 8.6757488250732421875 6.2579097747802734375 13.940980911254882812 17.619688034057617188 16.902521133422851562 17.972751617431640625 19.427417755126953125 21.588167190551757812 22.503520965576171875 22.570127487182617188 23.300516128540039062 22.545877456665039062 19.7558746337890625 17.11254119873046875 15.417744636535644531 14.301968574523925781 11.240401268005371094 7.8111085891723632812 11.270012855529785156 21.123620986938476562 -9999 
-9999 26.860960006713867188 26.824937820434570312 23.256906509399414062 15.564558029174804688 18.105825424194335938 27.524335861206054688 32.399036407470703125 31.887441635131835938 32.55298614501953125 36.22541046142578125 36.557056427001953125 34.222320556640625 34.659381866455078125 34.40325927734375 30.525289535522460938 22.40474700927734375 13.875437736511230469 24.389245986938476562 37.9849090576171875 40.267566680908203125 37.23028564453125 36.517578125 37.26358795166015625 36.788616180419921875 30.911039352416992188 25.0665740966796875 24.231370925903320312 27.498022079467773438 32.68399810791015625 35.32178497314453125 31.111730575561523438 22.377428054809570312 14.277644157409667969 9.3734998703002929688 6.7652254104614257812 5.0824995040893554688 5.1534519195556640625 4.5749411582946777344 3.0195519924163818359 6.3200855255126953125 16.644107818603515625 18.6234588623046875 7.9765105247497558594 0.41394346952438354492 3.5653245449066162109 4.7945547103881835938 8.279537200927734375 13.590205192565917969 13.901445388793945312 15.377680778503417969 17.079568862915039062 17.559110641479492188 17.810634613037109375 17.553655624389648438 15.9927215576171875 13.1128387451171875 11.642115592956542969 12.011389732360839844 12.418304443359375 12.586459159851074219 14.733972549438476562 18.214508056640625 20.218023300170898438 19.340570449829101562 20.041309356689453125 22.970592498779296875 24.849164962768554688 27.626857757568359375 30.516788482666015625 30.878131866455078125 28.966846466064453125 29.077615737915039062 34.74951934814453125 38.448055267333984375 39.75818634033203125 39.966373443603515625 41.220279693603515625 39.132564544677734375 37.39105987548828125 36.08856964111328125 33.49454498291015625 34.43651580810546875 29.908002853393554688 27.860927581787109375 35.574825286865234375 36.95688629150390625 30.69052886962890625 23.125286102294921875 33.743755340576171875 37.4876861572265625 36.54514312744140625 32.352184295654296875 32.827381134033203125 35.030651092529296875 32.37694549560546875 33.4278717041015625 24.341127395629882812 26.18253326416015625 35.89324188232421875 35.224048614501953125 33.317783355712890625 31.700229644775390625 31.60698699951171875 26.870328903198242188 19.944578170776367188 19.776760101318359375 27.140604019165039062 33.191928863525390625 37.223239898681640625 36.050029754638671875 30.647556304931640625 29.017120361328125 34.7265472412109375 34.111911773681640625 32.24739837646484375 27.854938507080078125 16.870779037475585938 19.638874053955078125 21.975408554077148438 30.8266754150390625 27.7785186767578125 20.338052749633789062 20.504388809204101562 24.236822128295898438 26.794864654541015625 26.53430938720703125 24.32270050048828125 16.784448623657226562 15.178469657897949219 14.398321151733398438 12.828543663024902344 12.925484657287597656 15.154547691345214844 17.381647109985351562 19.227619171142578125 21.812665939331054688 24.929637908935546875 25.123455047607421875 15.800831794738769531 17.281833648681640625 24.57215118408203125 23.8805084228515625 23.846282958984375 23.472387313842773438 21.124420166015625 17.443584442138671875 13.702588081359863281 10.372555732727050781 14.475458145141601562 18.677141189575195312 17.291551589965820312 13.476258277893066406 9.7577810287475585938 7.7313718795776367188 7.5012722015380859375 12.461208343505859375 16.753080368041992188 16.182641983032226562 18.403331756591796875 21.744024276733398438 23.346446990966796875 21.126985549926757812 19.855360031127929688 21.551513671875 21.644060134887695312 19.838237762451171875 19.1562652587890625 18.247922897338867188 17.653463363647460938 15.634275436401367188 9.7816801071166992188 7.0072894096374511719 18.085489273071289062 -9999 
-9999 26.532865524291992188 26.307611465454101562 24.268610000610351562 20.085409164428710938 15.877008438110351562 20.154026031494140625 27.393697738647460938 31.125650405883789062 32.578899383544921875 35.955387115478515625 34.016357421875 24.583074569702148438 16.067903518676757812 12.669241905212402344 11.768458366394042969 20.5577545166015625 29.535772323608398438 33.977451324462890625 36.931121826171875 32.69722747802734375 29.137355804443359375 32.652706146240234375 36.704315185546875 37.28722381591796875 32.421726226806640625 29.741306304931640625 29.585401535034179688 28.228094100952148438 29.094242095947265625 34.25203704833984375 34.62624359130859375 26.80486297607421875 18.060529708862304688 12.459621429443359375 9.0892124176025390625 7.3512110710144042969 6.8930444717407226562 5.6654043197631835938 3.2825763225555419922 4.1322331428527832031 14.351194381713867188 19.66439056396484375 9.9030666351318359375 1.2324758768081665039 2.2336528301239013672 8.6273136138916015625 13.928261756896972656 12.600850105285644531 12.089343070983886719 17.878313064575195312 21.26373291015625 20.427778244018554688 17.678270339965820312 14.681552886962890625 12.244076728820800781 10.435427665710449219 10.851263046264648438 12.224367141723632812 12.722719192504882812 12.492642402648925781 15.930359840393066406 21.782958984375 23.47954559326171875 22.168935775756835938 22.53856658935546875 25.259431838989257812 28.205873489379882812 30.007295608520507812 30.50536346435546875 31.345285415649414062 31.604963302612304688 29.402448654174804688 26.45038604736328125 25.05423736572265625 32.31049346923828125 39.447628021240234375 41.86395263671875 40.321208953857421875 39.633029937744140625 39.29116058349609375 36.33702850341796875 35.532154083251953125 31.4949493408203125 27.96927642822265625 33.12058258056640625 35.643016815185546875 30.738714218139648438 20.710948944091796875 32.382305145263671875 36.9046783447265625 36.590427398681640625 33.509189605712890625 32.136249542236328125 33.268070220947265625 31.432659149169921875 31.836690902709960938 23.557451248168945312 31.562711715698242188 36.56720733642578125 34.87854766845703125 32.403316497802734375 30.128366470336914062 29.888065338134765625 25.552188873291015625 21.176492691040039062 20.434024810791015625 28.212121963500976562 34.1735992431640625 36.354206085205078125 34.939197540283203125 31.085428237915039062 24.712705612182617188 29.35492706298828125 35.758808135986328125 35.148097991943359375 27.606716156005859375 15.291489601135253906 17.794225692749023438 23.120378494262695312 32.32723236083984375 28.359416961669921875 20.973863601684570312 19.153942108154296875 21.686456680297851562 24.665201187133789062 25.418697357177734375 25.621465682983398438 20.0270233154296875 15.702692985534667969 16.319799423217773438 14.970458030700683594 15.416959762573242188 17.357402801513671875 18.814453125 20.0908050537109375 22.344961166381835938 23.876646041870117188 26.066297531127929688 23.1872406005859375 12.381978034973144531 22.701793670654296875 25.351694107055664062 25.3516845703125 24.20833587646484375 21.387302398681640625 18.432176589965820312 16.2543792724609375 13.807030677795410156 13.250507354736328125 12.777124404907226562 9.689945220947265625 8.1285343170166015625 8.61643218994140625 10.252867698669433594 11.507204055786132812 12.713967323303222656 15.748244285583496094 16.481853485107421875 20.219671249389648438 23.093133926391601562 24.192743301391601562 22.536617279052734375 21.7882537841796875 22.915874481201171875 23.366090774536132812 21.789037704467773438 20.68470001220703125 20.848239898681640625 21.653614044189453125 20.656978607177734375 14.928783416748046875 5.625331878662109375 10.927789688110351562 -9999 
-9999 24.548999786376953125 25.048969268798828125 22.889684677124023438 21.588552474975585938 20.2649688720703125 17.991548538208007812 15.978240966796875 22.6546783447265625 28.566675186157226562 28.012460708618164062 17.022058486938476562 12.619441032409667969 24.561746597290039062 31.38666534423828125 35.30585479736328125 37.731731414794921875 39.259853363037109375 37.204807281494140625 34.37305450439453125 28.463260650634765625 25.6392364501953125 31.288110733032226562 35.80606842041015625 36.594432830810546875 33.485858917236328125 32.988506317138671875 32.654453277587890625 28.496522903442382812 24.721096038818359375 29.759016036987304688 32.453765869140625 26.100856781005859375 19.183917999267578125 13.721820831298828125 10.008265495300292969 9.7215757369995117188 10.072942733764648438 8.9999475479125976562 6.7382216453552246094 5.5450377464294433594 13.761541366577148438 19.622621536254882812 10.435759544372558594 1.3574277162551879883 5.0107827186584472656 13.099391937255859375 13.590521812438964844 9.3912563323974609375 12.811862945556640625 20.54900360107421875 22.788095474243164062 18.67119598388671875 12.829759597778320312 10.746959686279296875 10.051198005676269531 9.5718259811401367188 11.045695304870605469 12.76110076904296875 12.560803413391113281 11.215275764465332031 15.770427703857421875 23.5074462890625 24.627141952514648438 22.54534149169921875 24.48114013671875 29.376251220703125 33.772396087646484375 35.193698883056640625 34.211284637451171875 32.8978424072265625 32.11959075927734375 30.907777786254882812 28.915325164794921875 26.924989700317382812 27.97560882568359375 33.247196197509765625 36.417118072509765625 36.923664093017578125 37.078708648681640625 38.12955474853515625 37.84418487548828125 36.743068695068359375 32.869415283203125 29.268960952758789062 30.187713623046875 34.113231658935546875 31.500310897827148438 19.583555221557617188 30.07232666015625 35.423717498779296875 35.974399566650390625 34.36219024658203125 32.536525726318359375 32.6499176025390625 31.163663864135742188 29.517740249633789062 25.386800765991210938 34.57805633544921875 36.388645172119140625 34.743083953857421875 32.075740814208984375 28.486425399780273438 24.913206100463867188 19.320806503295898438 19.519063949584960938 19.947111129760742188 28.302858352661132812 34.611301422119140625 36.717559814453125 34.486957550048828125 27.859529495239257812 17.626506805419921875 24.66732025146484375 34.255405426025390625 35.274753570556640625 28.14791107177734375 16.351703643798828125 18.79349517822265625 23.892032623291015625 32.01781463623046875 27.409677505493164062 20.977426528930664062 19.248653411865234375 20.346494674682617188 22.369266510009765625 23.184688568115234375 24.746173858642578125 21.030416488647460938 15.205915451049804688 17.899854660034179688 16.656673431396484375 16.5795135498046875 17.328908920288085938 19.447856903076171875 20.889341354370117188 22.546003341674804688 22.846139907836914062 24.358186721801757812 25.553684234619140625 12.063190460205078125 18.85977935791015625 25.492481231689453125 25.9253387451171875 24.93799591064453125 22.014204025268554688 19.463741302490234375 18.624120712280273438 16.82176971435546875 13.252268791198730469 9.29483795166015625 5.7232961654663085938 5.2854490280151367188 8.1951961517333984375 10.98406982421875 12.248170852661132812 12.492273330688476562 15.297184944152832031 17.288419723510742188 20.044183731079101562 20.896986007690429688 21.317659378051757812 22.68608856201171875 25.60767364501953125 27.318267822265625 28.254512786865234375 27.128286361694335938 24.043127059936523438 21.106622695922851562 19.868549346923828125 20.187398910522460938 17.410047531127929688 11.488163948059082031 2.0528492927551269531 -9999 
-9999 21.117570877075195312 23.135944366455078125 20.230409622192382812 18.765996932983398438 20.291524887084960938 22.326580047607421875 22.045940399169921875 19.264774322509765625 12.498670578002929688 7.5548491477966308594 25.902172088623046875 36.0836029052734375 38.09534454345703125 38.960514068603515625 38.84030914306640625 37.949676513671875 39.002742767333984375 38.280597686767578125 33.95267486572265625 27.641819000244140625 25.065393447875976562 31.537174224853515625 35.435455322265625 36.463275909423828125 35.169750213623046875 33.707118988037109375 32.534564971923828125 32.6122283935546875 31.526885986328125 31.974771499633789062 29.910213470458984375 23.301357269287109375 19.459613800048828125 15.627269744873046875 11.176282882690429688 10.237771987915039062 11.853412628173828125 13.057521820068359375 12.519990921020507812 11.033353805541992188 16.453929901123046875 19.51004791259765625 9.4273519515991210938 1.0199749469757080078 8.88690948486328125 13.901933670043945312 10.528491020202636719 8.2900056838989257812 14.667375564575195312 21.183500289916992188 20.817346572875976562 15.350160598754882812 10.503167152404785156 9.4574403762817382812 8.5821962356567382812 8.478244781494140625 10.391368865966796875 12.086170196533203125 12.130543708801269531 11.395267486572265625 15.813035964965820312 23.437183380126953125 24.9565887451171875 21.852581024169921875 22.987432479858398438 28.214199066162109375 32.276824951171875 32.831691741943359375 31.44071197509765625 31.5507659912109375 32.819915771484375 33.3160400390625 32.14652252197265625 31.861480712890625 31.697725296020507812 29.543857574462890625 28.957622528076171875 29.268117904663085938 28.563787460327148438 32.5764617919921875 37.908397674560546875 38.469058990478515625 35.56482696533203125 32.394618988037109375 29.821245193481445312 32.2098541259765625 32.089191436767578125 21.794080734252929688 29.404703140258789062 35.220874786376953125 35.452884674072265625 33.9366302490234375 33.160648345947265625 33.283794403076171875 31.7679901123046875 27.243741989135742188 29.005380630493164062 35.988590240478515625 36.488033294677734375 35.335430145263671875 33.156970977783203125 28.768192291259765625 21.222120285034179688 15.683274269104003906 18.029153823852539062 18.103471755981445312 26.488466262817382812 33.423534393310546875 35.900241851806640625 33.473785400390625 22.306650161743164062 11.860393524169921875 23.112558364868164062 31.335168838500976562 34.9279327392578125 30.3142242431640625 19.516389846801757812 22.357942581176757812 23.955694198608398438 31.114408493041992188 28.101930618286132812 20.911836624145507812 20.044338226318359375 20.592947006225585938 21.309795379638671875 22.140569686889648438 24.8353118896484375 21.603559494018554688 14.856266975402832031 19.799922943115234375 18.20550537109375 17.755254745483398438 18.539796829223632812 21.217683792114257812 23.395633697509765625 24.289129257202148438 22.20642852783203125 22.988962173461914062 26.910089492797851562 14.846602439880371094 13.970903396606445312 22.88710784912109375 25.7305145263671875 25.8587493896484375 23.27729034423828125 20.862548828125 20.1148529052734375 17.251974105834960938 9.76935577392578125 5.3086037635803222656 3.7850947380065917969 5.0259385108947753906 8.1338558197021484375 9.6830587387084960938 10.143831253051757812 9.9192171096801757812 11.874538421630859375 16.19637298583984375 19.008543014526367188 17.7623748779296875 15.209267616271972656 14.9390106201171875 21.396806716918945312 26.987173080444335938 29.751306533813476562 29.694652557373046875 25.81429290771484375 19.960163116455078125 17.020725250244140625 17.410047531127929688 16.7969970703125 14.454671859741210938 9.374889373779296875 -9999 
-9999 18.511404037475585938 21.01605224609375 18.604114532470703125 16.150104522705078125 18.516904830932617188 22.272600173950195312 24.35056304931640625 19.629034042358398438 13.484796524047851562 30.558902740478515625 38.684612274169921875 40.367950439453125 39.704074859619140625 39.52642059326171875 38.83214569091796875 36.958683013916015625 36.54889678955078125 36.255161285400390625 35.00127410888671875 30.534856796264648438 28.295202255249023438 31.924482345581054688 33.8759918212890625 34.449520111083984375 33.118663787841796875 29.73070526123046875 28.5204925537109375 34.08310699462890625 37.025115966796875 35.159847259521484375 29.125213623046875 21.38648223876953125 19.211994171142578125 17.933099746704101562 13.768314361572265625 9.7578077316284179688 8.1071910858154296875 9.6437616348266601562 13.105015754699707031 16.239625930786132812 20.90187835693359375 19.242671966552734375 6.761898040771484375 4.9662356376647949219 11.9749908447265625 11.867615699768066406 8.006954193115234375 9.4141454696655273438 16.68207550048828125 21.021471023559570312 18.667921066284179688 13.793259620666503906 10.495850563049316406 9.8055429458618164062 8.7920007705688476562 8.5358133316040039062 10.230451583862304688 11.499969482421875 11.479269981384277344 11.707007408142089844 15.2509765625 20.988269805908203125 23.237781524658203125 23.640018463134765625 27.241413116455078125 31.6275787353515625 33.6072235107421875 32.751766204833984375 30.199573516845703125 29.428003311157226562 31.34499359130859375 32.85366058349609375 32.155727386474609375 31.368158340454101562 30.354444503784179688 27.691675186157226562 25.192140579223632812 24.112506866455078125 22.48003387451171875 26.186206817626953125 36.100803375244140625 39.2371673583984375 38.48674774169921875 37.15888214111328125 33.99417877197265625 31.686906814575195312 31.407321929931640625 23.58032989501953125 26.552928924560546875 33.637027740478515625 34.248931884765625 33.3398895263671875 34.40587615966796875 35.100025177001953125 31.468976974487304688 25.980175018310546875 32.786609649658203125 37.016101837158203125 37.07161712646484375 35.678363800048828125 33.010448455810546875 27.677473068237304688 19.101194381713867188 17.569515228271484375 20.105028152465820312 20.085079193115234375 23.184614181518554688 30.372140884399414062 34.2676544189453125 32.3408203125 18.185791015625 10.554093360900878906 20.637128829956054688 28.395717620849609375 34.6292877197265625 31.703159332275390625 20.214458465576171875 24.184803009033203125 23.2093963623046875 28.438104629516601562 28.490087509155273438 19.358144760131835938 19.393178939819335938 21.83347320556640625 22.63169097900390625 22.776752471923828125 25.946071624755859375 23.095951080322265625 16.631664276123046875 22.16384124755859375 20.2687530517578125 21.248857498168945312 23.079071044921875 24.104722976684570312 25.692296981811523438 24.217952728271484375 16.564128875732421875 21.974485397338867188 25.813434600830078125 15.584096908569335938 15.126153945922851562 15.810667991638183594 22.41698455810546875 25.797681808471679688 24.872949600219726562 24.105974197387695312 23.888965606689453125 21.059207916259765625 10.639492988586425781 2.4388606548309326172 4.133716583251953125 6.1411161422729492188 8.2192535400390625 8.5734720230102539062 8.1169176101684570312 8.7458143234252929688 9.7471323013305664062 13.990640640258789062 16.949365615844726562 14.691061019897460938 10.387770652770996094 7.3399930000305175781 8.92377471923828125 14.811940193176269531 20.589603424072265625 23.695749282836914062 23.558111190795898438 21.716844558715820312 18.745458602905273438 15.944736480712890625 14.228878021240234375 13.478410720825195312 12.1118927001953125 -9999 
-9999 16.664762496948242188 18.964351654052734375 17.49494171142578125 15.594115257263183594 19.75188446044921875 23.756624221801757812 20.909942626953125 11.56974029541015625 24.918758392333984375 36.14044952392578125 36.695690155029296875 36.7340240478515625 39.510845184326171875 42.416667938232421875 42.8828582763671875 40.789520263671875 37.031414031982421875 33.991146087646484375 33.299793243408203125 30.772472381591796875 30.404783248901367188 31.855159759521484375 30.614406585693359375 27.659440994262695312 23.753889083862304688 20.83026885986328125 23.458494186401367188 33.27066802978515625 38.583370208740234375 36.318359375 29.291673660278320312 20.578891754150390625 17.232330322265625 17.403219223022460938 16.199354171752929688 12.402471542358398438 7.0166263580322265625 5.3070960044860839844 11.161928176879882812 18.575408935546875 23.695051193237304688 19.0280609130859375 4.2806544303894042969 8.36132049560546875 12.501787185668945312 8.9083890914916992188 7.1248345375061035156 11.379606246948242188 18.380008697509765625 20.865320205688476562 18.087158203125 14.52004241943359375 11.433892250061035156 9.9619541168212890625 9.1828260421752929688 8.8549652099609375 9.8605642318725585938 10.724793434143066406 11.082396507263183594 12.193758010864257812 14.719679832458496094 18.136905670166015625 20.29254150390625 23.566205978393554688 29.238191604614257812 33.410434722900390625 34.36474609375 33.872982025146484375 32.981578826904296875 31.541749954223632812 31.924352645874023438 31.437311172485351562 28.563142776489257812 26.036050796508789062 24.6910400390625 24.491254806518554688 22.818265914916992188 21.404062271118164062 20.547952651977539062 19.609426498413085938 30.639139175415039062 38.898937225341796875 40.8765869140625 39.9597320556640625 37.616641998291015625 34.84575653076171875 31.6403350830078125 24.995601654052734375 21.606815338134765625 28.852752685546875 31.7079925537109375 33.092559814453125 34.936676025390625 34.684600830078125 29.19427490234375 28.274358749389648438 35.27069091796875 37.773197174072265625 37.001720428466796875 34.610107421875 31.76274871826171875 25.110754013061523438 17.390913009643554688 20.453844070434570312 24.18695831298828125 25.53554534912109375 22.0175018310546875 25.845235824584960938 32.867969512939453125 32.759334564208984375 18.911327362060546875 11.737294197082519531 19.633062362670898438 25.948719024658203125 32.527217864990234375 29.195142745971679688 19.056268692016601562 24.787950515747070312 21.693040847778320312 23.2975006103515625 25.772150039672851562 18.30638885498046875 16.713479995727539062 20.805105209350585938 24.203519821166992188 25.109560012817382812 27.806901931762695312 25.3240509033203125 16.88748931884765625 21.718976974487304688 21.245252609252929688 24.407497406005859375 26.76523590087890625 25.879604339599609375 24.89257049560546875 20.213853836059570312 11.578658103942871094 24.278499603271484375 21.431219100952148438 16.723451614379882812 22.765668869018554688 19.160161972045898438 15.122241973876953125 19.643079757690429688 22.596904754638671875 25.383886337280273438 27.5507354736328125 26.49919891357421875 17.521371841430664062 6.3223419189453125 6.8253855705261230469 8.1037960052490234375 8.6127004623413085938 8.3697185516357421875 8.4440212249755859375 10.002328872680664062 11.268100738525390625 12.856028556823730469 12.358847618103027344 8.2856321334838867188 5.3357524871826171875 2.6208415031433105469 1.5480175018310546875 7.9610652923583984375 13.921105384826660156 17.155084609985351562 18.59234619140625 19.822574615478515625 19.76605224609375 16.688226699829101562 12.619829177856445312 11.806490898132324219 11.877392768859863281 -9999 
-9999 14.144426345825195312 16.20555877685546875 15.385305404663085938 15.96787261962890625 21.180334091186523438 21.046722412109375 11.315496444702148438 18.130933761596679688 27.924890518188476562 32.965206146240234375 32.3709259033203125 34.2036285400390625 37.758697509765625 39.1626129150390625 38.838592529296875 37.42201995849609375 33.652744293212890625 29.959539413452148438 28.176097869873046875 26.31385040283203125 28.381677627563476562 30.089811325073242188 29.664266586303710938 27.339147567749023438 22.392469406127929688 18.398626327514648438 21.25872039794921875 31.347856521606445312 37.727809906005859375 35.98015594482421875 28.860555648803710938 20.480962753295898438 15.719915390014648438 14.7977142333984375 16.609783172607421875 16.140308380126953125 10.768850326538085938 6.7647023200988769531 11.780429840087890625 20.162090301513671875 24.3715667724609375 18.373025894165039062 2.3584079742431640625 10.674951553344726562 11.901525497436523438 6.8945126533508300781 7.8918824195861816406 13.362894058227539062 18.38657379150390625 19.137262344360351562 16.717535018920898438 13.789250373840332031 10.164362907409667969 8.3614482879638671875 8.3372554779052734375 8.3648319244384765625 8.9161062240600585938 9.6710729598999023438 10.689083099365234375 12.485218048095703125 14.706090927124023438 16.8610687255859375 19.176897048950195312 24.69258880615234375 31.282121658325195312 34.178928375244140625 33.410602569580078125 33.281764984130859375 34.275959014892578125 33.356174468994140625 32.156833648681640625 29.384325027465820312 26.025568008422851562 23.573062896728515625 21.651004791259765625 22.79476165771484375 22.975774765014648438 21.086833953857421875 19.575946807861328125 16.686601638793945312 20.370729446411132812 32.301105499267578125 38.745059967041015625 39.58441162109375 38.2008056640625 37.505462646484375 35.04376983642578125 28.616647720336914062 22.71389007568359375 25.316242218017578125 28.311944961547851562 31.43090057373046875 32.53356170654296875 31.417736053466796875 31.01609039306640625 34.2644195556640625 36.80069732666015625 37.692142486572265625 36.016002655029296875 33.478572845458984375 30.460035324096679688 21.361261367797851562 18.045797348022460938 22.472782135009765625 24.790040969848632812 26.128875732421875 24.144134521484375 23.639461517333984375 30.997121810913085938 33.424266815185546875 23.857080459594726562 15.466738700866699219 19.951337814331054688 26.02756500244140625 30.266408920288085938 24.77776336669921875 22.6512908935546875 24.961162567138671875 19.893102645874023438 20.379056930541992188 21.987178802490234375 19.073926925659179688 17.462108612060546875 16.75681304931640625 22.714466094970703125 26.381982803344726562 28.9007110595703125 27.046567916870117188 14.904343605041503906 18.06510162353515625 21.240734100341796875 24.108306884765625 25.78755950927734375 25.01181793212890625 22.708242416381835938 16.395755767822265625 14.763627052307128906 25.61968994140625 16.766008377075195312 20.071115493774414062 25.53871917724609375 26.256656646728515625 22.085119247436523438 15.12523651123046875 13.070380210876464844 18.432098388671875 25.930194854736328125 29.31438446044921875 24.566854476928710938 12.943813323974609375 8.3430509567260742188 9.080043792724609375 9.7460374832153320312 10.6147003173828125 11.768225669860839844 12.603140830993652344 13.154294013977050781 12.967560768127441406 10.328003883361816406 5.9588108062744140625 4.4351000785827636719 3.3687603473663330078 4.9615945816040039062 10.000333786010742188 13.345465660095214844 15.802270889282226562 17.126169204711914062 17.461225509643554688 19.286609649658203125 18.70447540283203125 14.503975868225097656 12.540645599365234375 11.429814338684082031 -9999 
-9999 11.588001251220703125 14.894869804382324219 15.335841178894042969 17.46541595458984375 19.232761383056640625 11.544595718383789062 16.192348480224609375 25.790863037109375 25.772037506103515625 27.240840911865234375 29.820276260375976562 31.957902908325195312 31.163373947143554688 27.04398345947265625 27.212156295776367188 26.502019882202148438 24.446889877319335938 21.5330047607421875 18.33061981201171875 19.172807693481445312 24.073522567749023438 25.9733734130859375 27.445404052734375 28.529508590698242188 27.088174819946289062 22.58815765380859375 21.473184585571289062 28.659698486328125 35.54312896728515625 35.694522857666015625 29.432498931884765625 21.118780136108398438 15.546146392822265625 12.808477401733398438 14.728107452392578125 17.426568984985351562 14.33837890625 9.8335218429565429688 13.588871955871582031 21.4595489501953125 24.2642669677734375 17.4349365234375 1.2201203107833862305 12.16436004638671875 11.462193489074707031 6.2403845787048339844 9.6792850494384765625 14.576959609985351562 16.411046981811523438 15.928445816040039062 15.146373748779296875 14.429296493530273438 12.294569015502929688 10.189897537231445312 9.5660648345947265625 9.3139505386352539062 9.2089748382568359375 9.966094970703125 11.42308807373046875 13.258055686950683594 15.053528785705566406 16.421380996704101562 18.6694183349609375 24.743768692016601562 31.913982391357421875 34.134532928466796875 32.34317779541015625 32.064453125 33.681842803955078125 34.311450958251953125 32.8153228759765625 29.503147125244140625 27.421016693115234375 24.933244705200195312 21.56035614013671875 22.181276321411132812 24.211530685424804688 22.772216796875 18.807233810424804688 16.701221466064453125 15.907494544982910156 18.452199935913085938 26.488622665405273438 33.52254486083984375 36.111072540283203125 36.629627227783203125 34.980670928955078125 30.330944061279296875 26.365625381469726562 25.46295928955078125 25.475217819213867188 26.677343368530273438 27.87595367431640625 31.260498046875 35.117572784423828125 37.04457855224609375 36.937713623046875 36.88230133056640625 35.2691192626953125 32.96734619140625 27.566881179809570312 19.033313751220703125 22.490810394287109375 23.875499725341796875 23.854299545288085938 25.024774551391601562 26.830417633056640625 26.402484893798828125 29.729398727416992188 32.806488037109375 27.568872451782226562 14.822114944458007812 20.748407363891601562 27.720766067504882812 26.196819305419921875 25.08026885986328125 28.079278945922851562 24.439083099365234375 18.393157958984375 19.916500091552734375 21.920133590698242188 18.992258071899414062 20.1484832763671875 15.542448043823242188 18.482599258422851562 24.69985198974609375 27.399644851684570312 26.541591644287109375 16.37657928466796875 13.383429527282714844 22.669696807861328125 23.521711349487304688 22.231679916381835938 22.556646347045898438 22.475862503051757812 17.523773193359375 19.822435379028320312 26.2221832275390625 15.427487373352050781 23.434774398803710938 26.3616943359375 27.257661819458007812 29.05431365966796875 26.77054595947265625 21.229766845703125 13.928386688232421875 18.158426284790039062 28.27880859375 28.960681915283203125 19.338655471801757812 10.134607315063476562 11.048139572143554688 13.42137908935546875 14.674098014831542969 15.254464149475097656 15.102250099182128906 14.620662689208984375 13.623475074768066406 11.485665321350097656 9.826374053955078125 9.5238561630249023438 9.4617166519165039062 10.308786392211914062 11.287080764770507812 12.460148811340332031 16.030979156494140625 18.634801864624023438 18.765766143798828125 19.164154052734375 18.943902969360351562 16.251642227172851562 12.476613044738769531 9.7001504898071289062 -9999 
-9999 14.00560760498046875 15.085656166076660156 14.939629554748535156 14.287322998046875 9.7378892898559570312 14.190341949462890625 26.099340438842773438 29.588415145874023438 28.191938400268554688 25.786821365356445312 28.737339019775390625 32.2140960693359375 28.176898956298828125 15.974903106689453125 18.523794174194335938 20.5561676025390625 19.311855316162109375 15.265625 13.546717643737792969 18.672143936157226562 21.97397613525390625 23.392124176025390625 24.642351150512695312 24.911739349365234375 27.033206939697265625 27.314558029174804688 24.348970413208007812 26.249567031860351562 32.952854156494140625 36.409732818603515625 33.18854522705078125 25.26998138427734375 17.325616836547851562 11.799516677856445312 11.5860137939453125 16.317302703857421875 17.003149032592773438 13.044405937194824219 15.170316696166992188 21.60720062255859375 23.958726882934570312 17.774999618530273438 2.3056805133819580078 12.095526695251464844 12.098849296569824219 7.3183050155639648438 11.626787185668945312 14.580858230590820312 13.652609825134277344 12.9090118408203125 12.953116416931152344 13.53839874267578125 12.426070213317871094 9.9362821578979492188 9.3177776336669921875 10.077416419982910156 10.415369033813476562 11.641855239868164062 13.311122894287109375 14.616761207580566406 15.662244796752929688 16.140604019165039062 17.683389663696289062 23.232234954833984375 30.955080032348632812 33.357662200927734375 31.933576583862304688 32.043224334716796875 33.1950225830078125 33.906993865966796875 32.675567626953125 31.08364105224609375 30.54354095458984375 27.312242507934570312 22.543975830078125 21.801595687866210938 24.234785079956054688 23.604162216186523438 17.932405471801757812 15.375245094299316406 17.225492477416992188 14.910466194152832031 10.897016525268554688 16.64238739013671875 24.352054595947265625 27.10706329345703125 25.875806808471679688 24.518957138061523438 25.015127182006835938 24.367191314697265625 21.022813796997070312 17.770002365112304688 24.467569351196289062 34.372364044189453125 37.954677581787109375 37.949066162109375 36.736293792724609375 35.609100341796875 33.963138580322265625 30.544195175170898438 22.4143829345703125 22.08465576171875 26.287141799926757812 24.755052566528320312 24.65042877197265625 27.4429931640625 30.044826507568359375 30.005146026611328125 29.542707443237304688 30.8306884765625 27.863351821899414062 11.380249977111816406 22.82098388671875 25.884769439697265625 25.919977188110351562 29.708055496215820312 29.127956390380859375 23.498727798461914062 17.545057296752929688 19.98871612548828125 23.624073028564453125 19.957630157470703125 20.74018096923828125 18.708736419677734375 16.384403228759765625 24.136112213134765625 27.283082962036132812 26.874462127685546875 21.38098907470703125 10.904815673828125 21.671400070190429688 25.98647308349609375 23.296243667602539062 20.524610519409179688 20.175746917724609375 18.29192352294921875 22.826028823852539062 25.993669509887695312 14.089948654174804688 22.887979507446289062 24.995357513427734375 23.745225906372070312 27.08008575439453125 28.233989715576171875 27.193248748779296875 23.654340744018554688 16.480144500732421875 22.779039382934570312 29.181612014770507812 24.162052154541015625 15.917509078979492188 15.475777626037597656 17.00620269775390625 16.646129608154296875 15.987776756286621094 14.5856475830078125 12.801161766052246094 11.513240814208984375 9.8690481185913085938 8.8570604324340820312 8.4254655838012695312 10.390877723693847656 13.43202972412109375 13.440579414367675781 12.708466529846191406 16.424402236938476562 21.36672210693359375 22.682332992553710938 20.301422119140625 17.479709625244140625 14.557555198669433594 11.445348739624023438 9.5097169876098632812 -9999 
-9999 20.433908462524414062 20.901668548583984375 17.263673782348632812 9.3001422882080078125 11.663951873779296875 22.60756683349609375 28.992767333984375 30.718050003051757812 30.566806793212890625 30.066198348999023438 29.4536285400390625 31.75995635986328125 28.009202957153320312 14.374799728393554688 12.376267433166503906 16.196149826049804688 17.660655975341796875 18.59709930419921875 20.172954559326171875 21.393957138061523438 20.84651947021484375 21.83480072021484375 23.124616622924804688 21.751451492309570312 22.026838302612304688 26.149265289306640625 26.913484573364257812 25.21277618408203125 29.187076568603515625 35.061466217041015625 35.9312286376953125 31.278598785400390625 22.436283111572265625 13.114441871643066406 9.6274023056030273438 14.1710357666015625 18.358385086059570312 16.644437789916992188 16.452215194702148438 19.92205810546875 23.329153060913085938 19.911233901977539062 5.68837738037109375 10.199290275573730469 13.254729270935058594 10.097560882568359375 13.313084602355957031 13.652249336242675781 11.141533851623535156 11.3365478515625 12.073972702026367188 14.063638687133789062 14.731054306030273438 12.001103401184082031 9.8867444992065429688 9.8722887039184570312 10.932001113891601562 12.884607315063476562 14.765513420104980469 16.076471328735351562 17.473316192626953125 18.929338455200195312 20.954122543334960938 24.767007827758789062 30.392580032348632812 31.680482864379882812 30.5671234130859375 31.905117034912109375 32.9180145263671875 32.03800201416015625 30.507307052612304688 32.122028350830078125 33.848583221435546875 29.433147430419921875 23.017414093017578125 21.45143890380859375 23.23381805419921875 23.430070877075195312 18.49375152587890625 14.512429237365722656 15.279832839965820312 14.468970298767089844 12.364862442016601562 11.132936477661132812 10.327915191650390625 10.577968597412109375 10.344765663146972656 13.364246368408203125 18.08484649658203125 19.70819854736328125 16.056835174560546875 17.099517822265625 28.908071517944335938 37.1547393798828125 39.806976318359375 38.19768524169921875 34.976848602294921875 32.7016754150390625 31.120052337646484375 26.59957122802734375 21.541210174560546875 27.661245346069335938 29.447587966918945312 27.068729400634765625 27.235589981079101562 31.224985122680664062 32.39231109619140625 32.132747650146484375 30.466093063354492188 30.928575515747070312 27.273801803588867188 14.084497451782226562 23.645357131958007812 25.049474716186523438 29.545408248901367188 30.90146636962890625 27.543104171752929688 23.02420806884765625 16.770898818969726562 21.199804306030273438 24.792476654052734375 18.429971694946289062 17.648777008056640625 18.776067733764648438 14.043673515319824219 23.745718002319335938 28.687595367431640625 29.566785812377929688 27.1534881591796875 15.785222053527832031 16.450784683227539062 26.495784759521484375 27.428358078002929688 22.10828399658203125 16.28629302978515625 18.164234161376953125 25.062374114990234375 26.48297882080078125 14.908801078796386719 18.284158706665039062 22.634456634521484375 17.63797760009765625 18.154485702514648438 22.6405181884765625 25.064113616943359375 26.571109771728515625 24.419750213623046875 19.216783523559570312 24.201154708862304688 26.010545730590820312 21.676492691040039062 16.895721435546875 14.029100418090820312 12.749226570129394531 12.080804824829101562 10.563439369201660156 9.3301601409912109375 8.526844024658203125 7.4065442085266113281 5.9644784927368164062 2.9970638751983642578 5.6671805381774902344 11.155181884765625 13.501475334167480469 13.70294952392578125 16.923961639404296875 21.68134307861328125 23.497594833374023438 20.6212158203125 15.92578887939453125 12.618727684020996094 11.4331817626953125 11.269700050354003906 -9999 
-9999 19.881406784057617188 22.421154022216796875 18.489435195922851562 10.386073112487792969 17.617677688598632812 25.3936920166015625 29.8418426513671875 31.18621826171875 29.603717803955078125 28.713443756103515625 27.432008743286132812 26.676919937133789062 22.403326034545898438 11.732189178466796875 6.5701556205749511719 11.611911773681640625 17.720529556274414062 23.245504379272460938 25.403741836547851562 22.79638671875 19.407480239868164062 19.979547500610351562 22.131650924682617188 21.943828582763671875 19.459917068481445312 21.228387832641601562 24.944787979125976562 23.576406478881835938 23.966609954833984375 30.35065460205078125 34.496501922607421875 33.844387054443359375 26.838947296142578125 15.103501319885253906 9.4146823883056640625 12.337460517883300781 17.996877670288085938 19.305164337158203125 17.714374542236328125 18.137380599975585938 22.578380584716796875 22.169584274291992188 9.3826665878295898438 7.1413564682006835938 13.114528656005859375 13.180026054382324219 14.903059005737304688 12.99750518798828125 9.9252023696899414062 10.61768341064453125 12.492938041687011719 15.250462532043457031 16.430566787719726562 13.129544258117675781 9.3108310699462890625 9.2445592880249023438 10.929101943969726562 13.306360244750976562 15.622899055480957031 17.851266860961914062 20.179380416870117188 22.219827651977539062 24.193347930908203125 27.0785675048828125 30.472019195556640625 31.101797103881835938 31.06063079833984375 32.25421142578125 32.0632476806640625 28.783313751220703125 26.408510208129882812 31.216688156127929688 35.90460205078125 31.807199478149414062 24.639801025390625 23.127534866333007812 23.02022552490234375 22.831207275390625 19.800079345703125 14.160974502563476562 12.042461395263671875 12.006938934326171875 13.541125297546386719 15.425784111022949219 11.752206802368164062 5.7298235893249511719 1.9677922725677490234 3.8209097385406494141 10.177989006042480469 15.227678298950195312 19.529687881469726562 27.3322601318359375 33.595767974853515625 37.300479888916015625 37.569370269775390625 33.4390106201171875 30.745336532592773438 32.0311279296875 31.917177200317382812 26.44763946533203125 25.78741455078125 31.548274993896484375 31.240037918090820312 29.505403518676757812 29.097318649291992188 33.5832672119140625 33.674488067626953125 33.93708038330078125 32.10466766357421875 32.77857208251953125 28.041040420532226562 20.85977935791015625 24.793798446655273438 25.317813873291015625 27.16056060791015625 26.685598373413085938 24.949426651000976562 24.5995941162109375 16.806270599365234375 22.411291122436523438 24.570682525634765625 16.273527145385742188 12.910036087036132812 16.51699066162109375 12.196755409240722656 20.672346115112304688 28.111499786376953125 30.633749008178710938 30.531230926513671875 21.970174789428710938 10.275532722473144531 23.515077590942382812 30.180913925170898438 26.420537948608398438 16.583375930786132812 18.178380966186523438 28.317089080810546875 30.767492294311523438 23.554605484008789062 15.606801033020019531 19.797780990600585938 18.806154251098632812 12.896195411682128906 14.200695991516113281 19.051273345947265625 22.815984725952148438 25.31737518310546875 22.0937347412109375 15.768843650817871094 21.87347412109375 26.009063720703125 20.174901962280273438 12.037924766540527344 8.7686624526977539062 8.1460065841674804688 8.04863739013671875 8.0870981216430664062 7.4194622039794921875 6.9939203262329101562 5.1006593704223632812 2.2934529781341552734 7.5797467231750488281 12.187821388244628906 14.78252410888671875 16.8834991455078125 19.0682830810546875 20.28470611572265625 19.9700469970703125 18.610607147216796875 16.651371002197265625 13.828458786010742188 12.911610603332519531 13.532238006591796875 -9999 
-9999 19.37129974365234375 20.778476715087890625 14.148067474365234375 11.351107597351074219 20.052074432373046875 26.948211669921875 30.310033798217773438 30.579677581787109375 27.156909942626953125 22.833446502685546875 17.964262008666992188 13.500744819641113281 14.172686576843261719 11.979266166687011719 4.8042531013488769531 5.46929931640625 15.102835655212402344 24.028367996215820312 28.011310577392578125 25.110147476196289062 21.01480865478515625 20.299955368041992188 21.61673736572265625 22.704586029052734375 20.581218719482421875 19.599029541015625 22.8241729736328125 22.7610321044921875 20.8662567138671875 26.074337005615234375 32.030017852783203125 33.9970550537109375 28.5112457275390625 15.813283920288085938 9.2925319671630859375 11.022995948791503906 16.669437408447265625 20.202314376831054688 18.797130584716796875 17.4788665771484375 21.44258880615234375 23.307918548583984375 12.480997085571289062 4.4371914863586425781 11.525408744812011719 13.579386711120605469 14.86362457275390625 13.327939033508300781 11.035258293151855469 10.498640060424804688 11.990311622619628906 14.562668800354003906 16.764852523803710938 16.717296600341796875 14.164378166198730469 11.5163421630859375 11.591081619262695312 13.77185821533203125 16.027959823608398438 18.50559234619140625 20.945920944213867188 21.825090408325195312 22.347537994384765625 24.05727386474609375 26.052328109741210938 27.404592514038085938 29.133981704711914062 29.503955841064453125 28.166196823120117188 24.650468826293945312 23.824934005737304688 30.203838348388671875 35.667278289794921875 32.802059173583984375 27.467670440673828125 26.380331039428710938 23.567569732666015625 22.427404403686523438 20.84326934814453125 15.10807037353515625 12.934309005737304688 12.937345504760742188 14.633833885192871094 17.242143630981445312 14.572610855102539062 9.589282989501953125 7.6744599342346191406 5.07498931884765625 3.8579907417297363281 11.622550010681152344 23.3412322998046875 33.24330902099609375 35.3498992919921875 33.34796142578125 29.595750808715820312 29.872060775756835938 32.715679168701171875 34.46172332763671875 33.284648895263671875 27.659608840942382812 30.324541091918945312 34.3096771240234375 32.563812255859375 31.433292388916015625 30.246135711669921875 34.70049285888671875 34.0903167724609375 35.167804718017578125 34.44156646728515625 34.021442413330078125 28.677911758422851562 25.631113052368164062 26.330739974975585938 24.892606735229492188 23.894041061401367188 22.947214126586914062 23.7514801025390625 26.113468170166015625 17.906499862670898438 24.452474594116210938 25.547283172607421875 17.893100738525390625 14.747529029846191406 15.7346954345703125 15.768176078796386719 16.520811080932617188 24.778726577758789062 29.015272140502929688 30.926425933837890625 26.496496200561523438 12.200238227844238281 17.651319503784179688 30.125112533569335938 30.251834869384765625 22.13153839111328125 15.903283119201660156 27.555383682250976562 33.48583984375 30.954227447509765625 23.512765884399414062 17.237850189208984375 17.022447586059570312 14.973364830017089844 11.130335807800292969 12.449619293212890625 16.123777389526367188 20.225433349609375 21.734889984130859375 17.488971710205078125 13.158611297607421875 23.691869735717773438 24.337461471557617188 16.060886383056640625 9.4246931076049804688 7.24195098876953125 7.2451715469360351562 6.60176849365234375 5.5674376487731933594 5.756702423095703125 2.7625250816345214844 6.5685567855834960938 11.627185821533203125 13.377115249633789062 15.973845481872558594 20.330890655517578125 21.2994537353515625 18.306278228759765625 15.597059249877929688 15.79705810546875 18.40402984619140625 18.656961441040039062 17.753164291381835938 17.192274093627929688 -9999 
-9999 18.322422027587890625 15.922072410583496094 10.461674690246582031 14.361683845520019531 22.942163467407226562 29.6986236572265625 31.4444580078125 28.859827041625976562 21.6837005615234375 13.456205368041992188 7.1365289688110351562 2.8282167911529541016 12.222809791564941406 15.96352386474609375 11.502942085266113281 4.4675116539001464844 11.275410652160644531 20.812145233154296875 26.167505264282226562 25.623340606689453125 23.70333099365234375 22.018253326416015625 21.513895034790039062 23.189146041870117188 23.793775558471679688 22.517627716064453125 23.198644638061523438 22.678503036499023438 20.38372039794921875 24.272668838500976562 30.407581329345703125 33.52504730224609375 28.98636627197265625 17.102491378784179688 10.179816246032714844 10.018801689147949219 14.953667640686035156 20.062374114990234375 20.147212982177734375 18.267450332641601562 19.706033706665039062 23.22214508056640625 15.326654434204101562 4.3848614692687988281 13.619912147521972656 13.933809280395507812 12.500940322875976562 12.070300102233886719 11.365893363952636719 10.285716056823730469 10.225104331970214844 11.969012260437011719 14.23267364501953125 14.45908355712890625 13.310480117797851562 13.05786895751953125 14.483693122863769531 15.7473297119140625 16.406848907470703125 18.431001663208007812 20.722669601440429688 20.430225372314453125 21.04925537109375 24.5298004150390625 26.461818695068359375 27.647815704345703125 29.386020660400390625 29.491851806640625 29.140209197998046875 27.589426040649414062 26.9646148681640625 31.33335113525390625 34.41606903076171875 31.295864105224609375 28.691610336303710938 28.116628646850585938 23.405038833618164062 23.56320953369140625 24.3021240234375 21.588708877563476562 21.0264434814453125 20.472036361694335938 19.57733154296875 20.0635223388671875 17.525440216064453125 13.604948043823242188 14.00783538818359375 13.945445060729980469 9.7359590530395507812 7.0896062850952148438 20.733852386474609375 34.99558258056640625 37.18536376953125 30.16577911376953125 27.484655380249023438 30.733125686645507812 33.197483062744140625 33.776943206787109375 31.890077590942382812 29.615879058837890625 33.71414947509765625 35.866241455078125 34.38388824462890625 34.539134979248046875 32.245304107666015625 35.278839111328125 35.188884735107421875 36.10985565185546875 37.461139678955078125 35.094547271728515625 29.494371414184570312 28.205137252807617188 27.872865676879882812 25.80583953857421875 24.376436233520507812 23.4036407470703125 25.225330352783203125 26.29970550537109375 17.170072555541992188 25.384077072143554688 26.120031356811523438 18.8381805419921875 17.659992218017578125 15.228271484375 17.7433929443359375 13.757795333862304688 20.5063323974609375 27.082500457763671875 30.336999893188476562 29.079132080078125 19.699007034301757812 12.557698249816894531 26.263294219970703125 31.346109390258789062 28.9056549072265625 18.48165130615234375 21.1212615966796875 30.958955764770507812 31.997266769409179688 28.382276535034179688 22.2640228271484375 16.238803863525390625 13.826550483703613281 13.091831207275390625 14.508086204528808594 14.889095306396484375 16.73780059814453125 19.607791900634765625 20.722185134887695312 17.450908660888671875 17.213941574096679688 23.458278656005859375 19.860979080200195312 11.265291213989257812 6.5577974319458007812 5.2230772972106933594 4.1654453277587890625 3.2109730243682861328 3.1266005039215087891 2.4801335334777832031 9.8340559005737304688 11.3827972412109375 11.836018562316894531 17.533214569091796875 23.606685638427734375 22.944896697998046875 19.024892807006835938 17.273342132568359375 18.52550506591796875 22.870649337768554688 24.142385482788085938 21.41742706298828125 18.396780014038085938 -9999 
-9999 15.099644660949707031 10.061960220336914062 11.459197998046875 18.319093704223632812 25.9256134033203125 30.742380142211914062 29.491456985473632812 22.83860015869140625 11.618914604187011719 5.9285969734191894531 12.069858551025390625 10.229569435119628906 13.296275138854980469 17.56880950927734375 15.018339157104492188 8.5345430374145507812 11.556476593017578125 17.651132583618164062 20.887269973754882812 22.797533035278320312 24.530710220336914062 23.396274566650390625 22.09381103515625 23.444395065307617188 26.21163177490234375 27.007781982421875 25.600833892822265625 22.490186691284179688 19.77135467529296875 23.060205459594726562 28.447866439819335938 31.406650543212890625 28.94942474365234375 21.30942535400390625 14.464267730712890625 11.014759063720703125 13.809920310974121094 19.194719314575195312 20.803499221801757812 19.539926528930664062 18.95526885986328125 23.236202239990234375 18.310136795043945312 3.7497286796569824219 16.8086090087890625 14.222948074340820312 11.008001327514648438 11.387495040893554688 10.5452728271484375 9.3913516998291015625 9.0704355239868164062 11.640124320983886719 16.127225875854492188 17.453586578369140625 15.383246421813964844 11.799041748046875 11.743136405944824219 14.921205520629882812 17.060945510864257812 19.720750808715820312 20.915868759155273438 19.22577667236328125 20.432880401611328125 25.860887527465820312 29.801692962646484375 30.7720794677734375 30.798496246337890625 31.638671875 32.127635955810546875 31.380777359008789062 31.638498306274414062 33.42554473876953125 33.537303924560546875 30.025300979614257812 29.003145217895507812 28.378978729248046875 24.198749542236328125 26.515581130981445312 29.40355682373046875 29.096647262573242188 28.832859039306640625 28.261247634887695312 26.276586532592773438 24.414270401000976562 20.472415924072265625 17.852243423461914062 18.94873809814453125 18.516237258911132812 14.747295379638671875 8.1586885452270507812 13.892109870910644531 30.8289337158203125 36.06502532958984375 30.859310150146484375 27.488134384155273438 28.927761077880859375 31.648859024047851562 31.582286834716796875 30.433713912963867188 31.487758636474609375 35.81075286865234375 36.691120147705078125 35.164066314697265625 35.828960418701171875 32.79872894287109375 34.964633941650390625 36.119884490966796875 35.073802947998046875 37.013408660888671875 34.638408660888671875 29.990102767944335938 28.493711471557617188 27.401813507080078125 25.815036773681640625 24.821346282958984375 24.481817245483398438 27.314878463745117188 25.959676742553710938 15.30564117431640625 25.137041091918945312 25.167387008666992188 17.087312698364257812 17.74739837646484375 15.015271186828613281 19.210275650024414062 16.108165740966796875 19.26702117919921875 26.728452682495117188 30.752147674560546875 30.873241424560546875 25.966060638427734375 15.351725578308105469 18.70842742919921875 29.037384033203125 33.290264129638671875 26.33989715576171875 14.712393760681152344 24.855035781860351562 29.411853790283203125 29.189245223999023438 27.177068710327148438 23.755994796752929688 19.720371246337890625 15.40471649169921875 16.503644943237304688 17.008058547973632812 14.73964691162109375 17.163190841674804688 20.238641738891601562 22.215852737426757812 20.953546524047851562 21.237310409545898438 20.500019073486328125 12.440516471862792969 5.7519884109497070312 3.6223306655883789062 3.747303009033203125 2.8897387981414794922 1.4161163568496704102 4.1976480484008789062 7.9328618049621582031 8.747730255126953125 12.716487884521484375 21.147829055786132812 25.697048187255859375 22.491130828857421875 19.147569656372070312 20.542867660522460938 23.32976531982421875 25.605173110961914062 23.957345962524414062 19.223268508911132812 16.011453628540039062 -9999 
-9999 12.738157272338867188 11.277466773986816406 17.53928375244140625 22.54632568359375 25.79875946044921875 26.754056930541992188 22.6239013671875 13.99961090087890625 3.1572930812835693359 10.61771392822265625 17.86392974853515625 13.366585731506347656 13.04305267333984375 18.131572723388671875 16.091508865356445312 10.710761070251464844 12.372501373291015625 15.260811805725097656 15.877826690673828125 17.71697235107421875 21.366970062255859375 22.083042144775390625 21.174892425537109375 22.260179519653320312 26.420179367065429688 29.870220184326171875 27.74365234375 22.520786285400390625 19.874074935913085938 22.047008514404296875 25.084987640380859375 27.453321456909179688 27.467100143432617188 24.2755279541015625 19.802240371704101562 14.830344200134277344 14.480246543884277344 18.42577362060546875 19.900484085083007812 18.700075149536132812 18.663818359375 23.775388717651367188 20.74352264404296875 0.55498838424682617188 16.889995574951171875 16.584165573120117188 10.662837982177734375 10.203580856323242188 10.055568695068359375 9.054962158203125 9.4272441864013671875 13.854259490966796875 19.537233352661132812 20.0274658203125 15.76642608642578125 11.492704391479492188 10.404598236083984375 11.241833686828613281 13.294014930725097656 17.7695465087890625 20.25545501708984375 20.14649200439453125 21.832265853881835938 26.230442047119140625 31.091785430908203125 32.834659576416015625 31.96559906005859375 32.411773681640625 33.08390045166015625 33.55222320556640625 34.825992584228515625 34.8269500732421875 32.63439178466796875 30.160091400146484375 30.845142364501953125 30.979940414428710938 29.4154205322265625 30.940248489379882812 33.355205535888671875 33.960613250732421875 33.608119964599609375 32.867572784423828125 31.072383880615234375 28.925586700439453125 25.390048980712890625 24.69722747802734375 23.940998077392578125 21.813966751098632812 16.748321533203125 8.42340087890625 5.4243335723876953125 23.049715042114257812 33.062084197998046875 32.60772705078125 29.923206329345703125 30.61243438720703125 30.413152694702148438 29.9638671875 30.327951431274414062 33.168964385986328125 37.68579864501953125 37.650432586669921875 34.838069915771484375 34.489719390869140625 31.575473785400390625 34.29880523681640625 36.37113189697265625 34.066616058349609375 34.359683990478515625 32.451679229736328125 29.0148162841796875 27.368602752685546875 26.157091140747070312 25.120449066162109375 23.884929656982421875 25.609081268310546875 28.99285125732421875 25.382745742797851562 15.149914741516113281 26.144769668579101562 25.125280380249023438 16.985055923461914062 18.625024795532226562 17.556898117065429688 21.984861373901367188 19.110532760620117188 19.13440704345703125 25.910341262817382812 30.833581924438476562 31.727008819580078125 29.343610763549804688 20.896823883056640625 11.965804100036621094 23.998540878295898438 33.897274017333984375 32.4221343994140625 17.516254425048828125 17.74707794189453125 25.969562530517578125 28.397790908813476562 28.508535385131835938 26.7722930908203125 23.836246490478515625 18.532808303833007812 14.546123504638671875 17.099000930786132812 14.634851455688476562 14.50632476806640625 18.859605789184570312 22.224826812744140625 22.577783584594726562 20.969676971435546875 19.724214553833007812 13.165703773498535156 7.1922130584716796875 5.3595414161682128906 5.0215334892272949219 3.3548026084899902344 1.8944258689880371094 3.7132329940795898438 7.1226601600646972656 9.8031492233276367188 15.683754920959472656 24.2611083984375 26.928300857543945312 24.171611785888671875 21.333728790283203125 18.847248077392578125 17.348901748657226562 16.718189239501953125 15.375682830810546875 14.098100662231445312 13.393930435180664062 -9999 
-9999 11.42324066162109375 17.65387725830078125 22.748699188232421875 23.50531005859375 22.007509231567382812 19.285676956176757812 14.98220062255859375 9.67546844482421875 7.1424336433410644531 13.704493522644042969 18.819183349609375 12.960908889770507812 11.151453018188476562 18.72347259521484375 18.182607650756835938 12.844089508056640625 11.526533126831054688 12.7391357421875 12.978779792785644531 14.303864479064941406 18.354413986206054688 20.966001510620117188 21.380899429321289062 22.207330703735351562 25.611734390258789062 29.24561309814453125 27.662456512451171875 24.582317352294921875 23.378164291381835938 22.598049163818359375 22.322519302368164062 24.734052658081054688 24.989780426025390625 22.115438461303710938 20.996364593505859375 19.1218719482421875 17.536304473876953125 19.412004470825195312 19.727214813232421875 16.782903671264648438 17.625768661499023438 23.535028457641601562 21.219903945922851562 6.3090634346008300781 11.961362838745117188 20.219377517700195312 18.415714263916015625 15.716256141662597656 13.833657264709472656 10.5007171630859375 10.658118247985839844 16.731555938720703125 21.921834945678710938 20.2512359619140625 13.72885894775390625 7.4887866973876953125 7.2379326820373535156 9.8959398269653320312 11.499442100524902344 12.527828216552734375 12.93216705322265625 13.063859939575195312 14.815372467041015625 19.793699264526367188 26.387506484985351562 30.454591751098632812 31.761157989501953125 33.71422576904296875 35.2055816650390625 35.47719573974609375 36.4366607666015625 35.232433319091796875 31.867059707641601562 32.65423583984375 35.666778564453125 36.1548919677734375 34.620517730712890625 34.5307159423828125 35.88370513916015625 36.035259246826171875 35.244640350341796875 34.728302001953125 33.599552154541015625 31.573703765869140625 29.693571090698242188 29.371141433715820312 27.49402618408203125 26.934793472290039062 21.392461776733398438 12.77959442138671875 4.6351208686828613281 15.307280540466308594 28.184190750122070312 33.69690704345703125 33.73105621337890625 32.3125762939453125 30.18860626220703125 30.077558517456054688 31.06784820556640625 34.344696044921875 38.07210540771484375 36.663105010986328125 33.366641998291015625 33.6182861328125 31.9755096435546875 34.657184600830078125 36.582515716552734375 33.46343994140625 30.229585647583007812 28.665075302124023438 26.914186477661132812 25.859502792358398438 24.985548019409179688 24.090000152587890625 23.199863433837890625 27.325742721557617188 29.815443038940429688 24.570657730102539062 15.147558212280273438 25.932596206665039062 24.596845626831054688 17.480428695678710938 20.110233306884765625 19.784105300903320312 22.607362747192382812 19.211877822875976562 18.310468673706054688 24.197946548461914062 29.95043182373046875 31.62541961669921875 30.35855865478515625 24.604709625244140625 13.379485130310058594 18.002859115600585938 30.439096450805664062 34.682811737060546875 26.580810546875 14.374159812927246094 21.675106048583984375 25.551031112670898438 25.969804763793945312 24.466953277587890625 21.937305450439453125 18.240966796875 12.11688232421875 14.379837989807128906 16.808383941650390625 14.510197639465332031 16.790571212768554688 18.150455474853515625 17.334173202514648438 15.861108779907226562 15.703394889831542969 12.066922187805175781 9.4409475326538085938 9.9032373428344726562 9.4757204055786132812 7.6133446693420410156 6.7569675445556640625 7.3502445220947265625 8.328887939453125 12.0604248046875 19.595342636108398438 26.3185882568359375 27.831180572509765625 24.56232452392578125 18.942083358764648438 14.683818817138671875 16.681499481201171875 19.171339035034179688 19.82007598876953125 19.432622909545898438 19.30300140380859375 -9999 
-9999 13.681413650512695312 21.285396575927734375 22.906543731689453125 20.896587371826171875 15.829372406005859375 9.19518280029296875 8.0758266448974609375 10.979920387268066406 12.520516395568847656 14.414876937866210938 17.62949371337890625 13.720729827880859375 10.38448333740234375 18.115997314453125 20.154144287109375 15.818607330322265625 11.424557685852050781 10.153319358825683594 9.8306379318237304688 12.579692840576171875 18.268774032592773438 21.060314178466796875 21.319635391235351562 21.633310317993164062 24.29613494873046875 26.0408935546875 23.78258514404296875 24.666851043701171875 26.807826995849609375 24.301910400390625 21.024753570556640625 24.1958465576171875 25.076078414916992188 19.612085342407226562 18.679311752319335938 21.040012359619140625 21.224151611328125 21.623960494995117188 20.247562408447265625 16.452791213989257812 18.390447616577148438 23.24625396728515625 20.262020111083984375 10.403575897216796875 3.5079603195190429688 14.696444511413574219 20.320455551147460938 21.3024444580078125 19.151355743408203125 13.125000953674316406 12.030633926391601562 18.912973403930664062 23.845859527587890625 19.290620803833007812 10.443180084228515625 7.6989006996154785156 9.5053281784057617188 11.698334693908691406 12.782069206237792969 12.798573493957519531 12.285175323486328125 10.892155647277832031 10.235986709594726562 12.726226806640625 16.486909866333007812 19.3913421630859375 24.983272552490234375 32.518665313720703125 35.8892822265625 36.15775299072265625 36.158283233642578125 33.825366973876953125 32.880489349365234375 36.162036895751953125 38.913295745849609375 39.35259246826171875 37.926303863525390625 37.223537445068359375 37.2778778076171875 36.4786376953125 35.600536346435546875 34.99840545654296875 34.267242431640625 32.829803466796875 31.979579925537109375 30.40435028076171875 29.549962997436523438 31.582180023193359375 27.837690353393554688 21.174907684326171875 12.236067771911621094 6.733180999755859375 17.888711929321289062 30.712568283081054688 34.656036376953125 32.877407073974609375 30.6700592041015625 30.514614105224609375 30.371374130249023438 33.758686065673828125 37.464267730712890625 35.3798675537109375 32.6169891357421875 33.743824005126953125 35.419490814208984375 37.7714385986328125 36.95114898681640625 30.165628433227539062 22.9815521240234375 23.582714080810546875 23.836944580078125 24.23067474365234375 24.460033416748046875 24.154222488403320312 24.989748001098632812 29.429164886474609375 29.482809066772460938 23.045301437377929688 16.047060012817382812 23.485956192016601562 24.027217864990234375 17.56145477294921875 20.812774658203125 20.685512542724609375 21.925088882446289062 19.70935821533203125 19.050897598266601562 22.894594192504882812 27.94235992431640625 30.171907424926757812 29.3194427490234375 25.107885360717773438 16.763828277587890625 12.816928863525390625 24.090829849243164062 33.55796051025390625 33.259395599365234375 21.02658843994140625 16.675481796264648438 22.058374404907226562 23.301824569702148438 23.24713134765625 22.992887496948242188 21.35131072998046875 15.4907073974609375 11.958632469177246094 17.694303512573242188 18.052600860595703125 16.196620941162109375 15.400554656982421875 14.315639495849609375 11.083182334899902344 10.18616485595703125 8.8564710617065429688 7.6806879043579101562 9.6066265106201171875 10.746695518493652344 10.269023895263671875 9.2495737075805664062 8.2910375595092773438 8.5433559417724609375 15.4080657958984375 22.181016921997070312 26.082881927490234375 27.318605422973632812 22.330442428588867188 17.114221572875976562 20.950773239135742188 23.897478103637695312 24.207141876220703125 23.628940582275390625 22.81450653076171875 22.169981002807617188 -9999 
-9999 16.1593017578125 20.667787551879882812 19.8343048095703125 16.130483627319335938 9.4016141891479492188 2.2185604572296142578 5.9381389617919921875 11.192791938781738281 13.606946945190429688 14.730837821960449219 16.665994644165039062 14.404254913330078125 10.420942306518554688 15.561793327331542969 20.76428985595703125 19.283855438232421875 15.185283660888671875 11.631227493286132812 7.2819013595581054688 10.26616668701171875 18.804666519165039062 21.993963241577148438 21.976831436157226562 21.664800643920898438 24.131628036499023438 23.583425521850585938 18.840824127197265625 21.372783660888671875 26.268152236938476562 23.945468902587890625 20.354406356811523438 24.649505615234375 26.249750137329101562 18.738718032836914062 16.078769683837890625 20.665008544921875 23.04875946044921875 23.287260055541992188 20.723690032958984375 16.993406295776367188 19.940511703491210938 22.955806732177734375 18.14798736572265625 11.839745521545410156 6.4784665107727050781 2.5397560596466064453 12.688907623291015625 21.851049423217773438 23.416233062744140625 16.245172500610351562 13.153409957885742188 19.82932281494140625 25.0991058349609375 17.600658416748046875 9.165218353271484375 9.67607879638671875 10.973645210266113281 15.102293014526367188 16.504201889038085938 14.198811531066894531 13.343729019165039062 12.687137603759765625 14.230586051940917969 18.498779296875 21.100633621215820312 17.878499984741210938 14.938859939575195312 25.563579559326171875 33.724941253662109375 36.003997802734375 35.638813018798828125 34.006237030029296875 34.68000030517578125 36.453784942626953125 37.928009033203125 38.749233245849609375 38.30081939697265625 37.148860931396484375 35.8403472900390625 35.60498809814453125 36.165264129638671875 35.25975799560546875 34.11469268798828125 33.187007904052734375 32.197498321533203125 30.206796646118164062 31.390232086181640625 34.0971832275390625 32.897373199462890625 29.369279861450195312 21.385953903198242188 10.362158775329589844 7.2126965522766113281 24.135936737060546875 33.74449920654296875 34.72100067138671875 33.575206756591796875 32.79107666015625 30.981927871704101562 33.383758544921875 36.846393585205078125 34.10129547119140625 33.552509307861328125 35.56667327880859375 39.46863555908203125 41.170352935791015625 36.796295166015625 25.218229293823242188 18.41490936279296875 18.88045501708984375 19.711275100708007812 22.687322616577148438 24.416273117065429688 24.0807037353515625 27.149969100952148438 30.639387130737304688 28.409814834594726562 22.950643539428710938 23.335559844970703125 25.251058578491210938 25.946386337280273438 20.5449676513671875 20.741514205932617188 21.8027496337890625 22.74936676025390625 21.419910430908203125 19.783681869506835938 21.056795120239257812 24.9962158203125 28.330448150634765625 27.770595550537109375 25.5991668701171875 21.571277618408203125 14.088099479675292969 17.311000823974609375 29.836788177490234375 35.19808197021484375 29.345857620239257812 15.847954750061035156 17.035623550415039062 21.533926010131835938 22.732820510864257812 23.620975494384765625 24.114175796508789062 20.250551223754882812 13.855914115905761719 17.446125030517578125 20.860013961791992188 18.917755126953125 16.971868515014648438 17.852849960327148438 14.784543991088867188 9.3829298019409179688 7.0877861976623535156 6.2617688179016113281 6.4183831214904785156 5.1395659446716308594 5.8816995620727539062 6.3534231185913085938 6.3439936637878417969 9.3298635482788085938 16.798318862915039062 23.228422164916992188 25.9424285888671875 27.073911666870117188 23.504825592041015625 21.551977157592773438 21.827798843383789062 21.633104324340820312 21.453304290771484375 20.792972564697265625 20.707874298095703125 20.121496200561523438 -9999 
-9999 15.380109786987304688 18.558467864990234375 15.032530784606933594 9.2607698440551757812 7.6890912055969238281 7.1134843826293945312 5.37686920166015625 5.8263006210327148438 8.0345811843872070312 11.235362052917480469 13.451202392578125 11.284937858581542969 8.0125017166137695312 9.1512355804443359375 17.781198501586914062 21.9668731689453125 21.375410079956054688 19.497137069702148438 14.671809196472167969 9.4686679840087890625 17.291812896728515625 22.81925201416015625 23.788007736206054688 23.725255966186523438 26.79869842529296875 24.902370452880859375 19.216199874877929688 19.442363739013671875 22.280696868896484375 20.859203338623046875 20.140071868896484375 25.879764556884765625 26.960613250732421875 17.998748779296875 14.511243820190429688 19.882341384887695312 23.673727035522460938 24.868391036987304688 22.315427780151367188 17.7535400390625 19.969831466674804688 21.997226715087890625 15.731111526489257812 10.909211158752441406 11.581765174865722656 9.0841779708862304688 1.8731518983840942383 17.626903533935546875 25.245225906372070312 20.018825531005859375 14.923456192016601562 19.921941757202148438 24.246908187866210938 16.159307479858398438 10.944266319274902344 11.300576210021972656 18.506399154663085938 25.55396270751953125 24.56502532958984375 18.35748291015625 15.09638214111328125 15.647661209106445312 19.797086715698242188 26.633573532104492188 29.478853225708007812 27.171499252319335938 21.97845458984375 17.462545394897460938 24.58551788330078125 30.889232635498046875 32.738918304443359375 32.484172821044921875 31.620637893676757812 31.0714569091796875 31.309139251708984375 31.489948272705078125 30.128307342529296875 26.745523452758789062 24.769100189208984375 27.92308807373046875 32.63890838623046875 33.330463409423828125 32.33448028564453125 31.35965728759765625 29.309923171997070312 27.901563644409179688 30.601282119750976562 33.51010894775390625 34.483245849609375 33.86733245849609375 28.569540023803710938 18.131025314331054688 6.9647235870361328125 15.17581939697265625 29.440216064453125 35.442401885986328125 36.8571624755859375 36.636142730712890625 33.82900238037109375 32.8279266357421875 34.53558349609375 30.782073974609375 32.898311614990234375 37.476200103759765625 41.3903961181640625 40.26648712158203125 31.898670196533203125 21.703046798706054688 18.855442047119140625 15.294427871704101562 17.225507736206054688 22.013744354248046875 23.320840835571289062 24.295866012573242188 28.41826629638671875 30.1472015380859375 26.923465728759765625 26.07283782958984375 31.519998550415039062 33.260356903076171875 31.779819488525390625 26.245267868041992188 22.587400436401367188 22.831392288208007812 23.750972747802734375 22.66996002197265625 20.732706069946289062 22.225217819213867188 26.315937042236328125 28.076639175415039062 28.338037490844726562 29.344934463500976562 26.7590484619140625 19.111841201782226562 13.549183845520019531 24.62087249755859375 33.94809722900390625 33.3642578125 22.02382659912109375 12.088086128234863281 17.353780746459960938 20.101961135864257812 21.412595748901367188 23.360332489013671875 21.076808929443359375 14.859309196472167969 18.099689483642578125 21.038904190063476562 20.790090560913085938 15.907941818237304688 16.581357955932617188 17.366519927978515625 12.813042640686035156 8.1010227203369140625 6.6340122222900390625 5.7702922821044921875 3.3553636074066162109 3.3786242008209228516 4.4487071037292480469 5.1566033363342285156 8.4235019683837890625 15.019768714904785156 23.533296585083007812 27.501497268676757812 27.64971160888671875 23.8821563720703125 19.507139205932617188 16.763734817504882812 18.400482177734375 18.571039199829101562 16.741546630859375 16.48123931884765625 16.690601348876953125 -9999 
-9999 14.297537803649902344 15.405236244201660156 9.7624254226684570312 5.2405810356140136719 8.7978696823120117188 9.8125324249267578125 9.8494167327880859375 8.345417022705078125 5.9902362823486328125 7.2588944435119628906 8.9349079132080078125 8.088375091552734375 7.9328274726867675781 9.755092620849609375 15.826175689697265625 24.313940048217773438 27.733013153076171875 27.884311676025390625 26.494977951049804688 23.178194046020507812 23.577798843383789062 23.57477569580078125 24.903240203857421875 27.330545425415039062 30.473428726196289062 27.736240386962890625 21.750865936279296875 17.959333419799804688 15.417508125305175781 15.578972816467285156 20.08737945556640625 27.916521072387695312 26.6807403564453125 16.787111282348632812 12.985316276550292969 17.473323822021484375 23.128725051879882812 27.080949783325195312 24.931356430053710938 18.052354812622070312 18.6724090576171875 20.632711410522460938 14.16880035400390625 9.372417449951171875 11.419017791748046875 13.348198890686035156 8.0571880340576171875 9.6191034317016601562 23.86681365966796875 23.955974578857421875 17.914188385009765625 18.954088211059570312 20.715061187744140625 15.595374107360839844 12.709395408630371094 18.06449127197265625 26.354183197021484375 30.854677200317382812 27.191305160522460938 24.0603485107421875 21.387155532836914062 20.419963836669921875 25.609323501586914062 29.818746566772460938 29.588367462158203125 28.117525100708007812 29.83185577392578125 27.779506683349609375 21.519773483276367188 20.90509033203125 18.146026611328125 13.810586929321289062 14.291254043579101562 17.23758697509765625 18.050516128540039062 16.56812286376953125 16.380556106567382812 20.174528121948242188 20.416933059692382812 16.26831817626953125 19.867258071899414062 24.033678054809570312 23.019603729248046875 20.86042022705078125 19.708772659301757812 22.143419265747070312 26.957530975341796875 30.673685073852539062 33.620357513427734375 34.7983856201171875 31.553487777709960938 23.527622222900390625 13.703250885009765625 5.7546944618225097656 15.274797439575195312 26.17435455322265625 33.270832061767578125 37.45257568359375 36.9966583251953125 32.852512359619140625 31.324899673461914062 27.998355865478515625 29.898984909057617188 34.832706451416015625 35.721561431884765625 29.329313278198242188 24.309722900390625 22.84375762939453125 19.7652435302734375 18.23891448974609375 21.822711944580078125 22.607177734375 22.36960601806640625 26.035871505737304688 28.434820175170898438 29.0023040771484375 25.117696762084960938 27.600887298583984375 33.98319244384765625 36.74755096435546875 36.524333953857421875 32.443359375 27.849046707153320312 24.423841476440429688 22.7375946044921875 21.29547119140625 20.028772354125976562 24.059370040893554688 29.010732650756835938 29.6519775390625 29.152708053588867188 29.09619140625 26.808074951171875 20.098093032836914062 13.225218772888183594 18.9092559814453125 31.533521652221679688 34.1417999267578125 26.526754379272460938 14.28183746337890625 12.855702400207519531 16.302690505981445312 18.864971160888671875 22.449337005615234375 21.352079391479492188 13.753691673278808594 19.535936355590820312 22.3113861083984375 22.233018875122070312 17.25347137451171875 13.319645881652832031 15.316423416137695312 12.173328399658203125 8.9128513336181640625 8.4291839599609375 7.7436432838439941406 7.3376283645629882812 8.33126068115234375 8.8968133926391601562 8.9554567337036132812 9.5204315185546875 13.366320610046386719 21.191331863403320312 26.261608123779296875 26.542572021484375 22.577617645263671875 16.886627197265625 16.041223526000976562 19.652788162231445312 19.62689971923828125 17.991609573364257812 17.208316802978515625 16.498744964599609375 -9999 
-9999 14.24149322509765625 11.194845199584960938 7.2720913887023925781 5.1070404052734375 9.2383222579956054688 11.355023384094238281 12.32576751708984375 11.9576263427734375 10.334337234497070312 9.4805994033813476562 10.06998443603515625 11.415815353393554688 14.886867523193359375 20.161914825439453125 23.693355560302734375 27.373758316040039062 31.241304397583007812 32.99509429931640625 34.75655364990234375 34.722412109375 34.492191314697265625 30.369489669799804688 27.282365798950195312 30.395151138305664062 32.76169586181640625 29.58158111572265625 23.269666671752929688 19.5618133544921875 16.075714111328125 15.214695930480957031 22.4210662841796875 29.502857208251953125 26.036512374877929688 16.784383773803710938 12.832810401916503906 13.744484901428222656 20.522325515747070312 28.422695159912109375 26.80271148681640625 17.620653152465820312 16.113056182861328125 18.661500930786132812 14.452111244201660156 9.2089300155639648438 8.5626554489135742188 11.701299667358398438 11.349863052368164062 1.5339219570159912109 19.883237838745117188 26.435060501098632812 21.588563919067382812 17.390432357788085938 15.658350944519042969 14.163680076599121094 16.758634567260742188 22.121143341064453125 29.233602523803710938 32.377506256103515625 26.007886886596679688 18.807615280151367188 20.41951751708984375 21.936428070068359375 26.045719146728515625 26.183498382568359375 23.892267227172851562 23.447362899780273438 27.117473602294921875 30.875463485717773438 30.237688064575195312 31.091035842895507812 31.776391983032226562 31.2037506103515625 29.73607635498046875 29.911169052124023438 32.762180328369140625 33.56508636474609375 32.9079742431640625 33.66301727294921875 32.0053253173828125 26.429840087890625 19.670728683471679688 19.354578018188476562 20.699636459350585938 19.347896575927734375 15.552493095397949219 12.449717521667480469 19.782388687133789062 27.61844635009765625 33.430389404296875 35.324802398681640625 32.065830230712890625 25.38355255126953125 17.133089065551757812 10.167642593383789062 4.2229762077331542969 8.4887533187866210938 18.132518768310546875 26.7071685791015625 31.198017120361328125 29.163885116577148438 25.935285568237304688 22.613679885864257812 19.908512115478515625 19.96551513671875 16.495861053466796875 14.856725692749023438 23.307252883911132812 23.790409088134765625 24.07950592041015625 25.619764328002929688 25.481998443603515625 21.456659317016601562 22.896694183349609375 25.487859725952148438 26.83997344970703125 27.115421295166015625 23.321939468383789062 26.758699417114257812 32.084625244140625 34.372707366943359375 35.139759063720703125 33.957035064697265625 32.530841827392578125 29.303987503051757812 24.458553314208984375 20.106853485107421875 17.50728607177734375 21.71596527099609375 26.620798110961914062 26.638439178466796875 24.391298294067382812 24.133882522583007812 22.971654891967773438 20.415307998657226562 17.223115921020507812 14.654767990112304688 27.490009307861328125 33.542865753173828125 29.404302597045898438 20.2111663818359375 14.3018951416015625 14.996206283569335938 17.970331192016601562 22.641632080078125 22.652070999145507812 14.42415618896484375 22.545618057250976562 25.452449798583984375 25.1220245361328125 19.954156875610351562 14.390415191650390625 15.645944595336914062 11.855457305908203125 8.4262399673461914062 10.146448135375976562 11.684530258178710938 12.535952568054199219 13.096795082092285156 13.167401313781738281 13.733583450317382812 12.969141006469726562 13.522731781005859375 18.79532623291015625 23.62209320068359375 24.340459823608398438 21.472196578979492188 18.715826034545898438 20.6718292236328125 22.987173080444335938 21.240427017211914062 19.084196090698242188 17.877645492553710938 17.03989410400390625 -9999 
-9999 15.04621124267578125 10.834469795227050781 8.3976869583129882812 7.6976456642150878906 9.4740610122680664062 11.141947746276855469 12.642960548400878906 12.892407417297363281 12.743577003479003906 14.517022132873535156 18.877271652221679688 23.487405776977539062 26.824052810668945312 29.022586822509765625 29.533084869384765625 28.839227676391601562 31.02930450439453125 33.693073272705078125 36.7132110595703125 37.63460540771484375 37.07726287841796875 34.511173248291015625 31.03060150146484375 31.572113037109375 32.849575042724609375 28.999662399291992188 22.433797836303710938 19.812143325805664062 20.44985198974609375 21.690408706665039062 26.026315689086914062 29.652811050415039062 25.773054122924804688 18.432111740112304688 14.792952537536621094 13.6887054443359375 18.458711624145507812 27.61829376220703125 26.907678604125976562 16.67784881591796875 12.747616767883300781 16.174966812133789062 14.912699699401855469 9.2518463134765625 7.894016265869140625 11.582562446594238281 13.354597091674804688 3.8914463520050048828 16.483770370483398438 26.882989883422851562 23.71781158447265625 17.0360260009765625 12.604688644409179688 12.824260711669921875 17.70819091796875 22.403011322021484375 29.006578445434570312 33.081371307373046875 29.450033187866210938 18.444288253784179688 10.924588203430175781 15.333215713500976562 18.885860443115234375 19.46222686767578125 21.41240692138671875 23.937215805053710938 22.076116561889648438 23.343170166015625 28.31681060791015625 32.1319580078125 34.021083831787109375 34.274585723876953125 33.3393707275390625 32.951747894287109375 36.202579498291015625 36.41652679443359375 35.2013397216796875 35.478900909423828125 34.8512420654296875 32.20276641845703125 30.202840805053710938 28.768613815307617188 31.998373031616210938 31.620058059692382812 27.550870895385742188 18.756456375122070312 10.845498085021972656 23.3951263427734375 33.2824859619140625 35.68956756591796875 31.67374420166015625 25.297939300537109375 19.571577072143554688 15.901032447814941406 13.346414566040039062 10.896883010864257812 7.6641297340393066406 5.8587155342102050781 11.213126182556152344 12.669866561889648438 11.972397804260253906 11.326452255249023438 8.6340227127075195312 7.2570705413818359375 3.7767019271850585938 8.5467443466186523438 20.760457992553710938 27.7599945068359375 30.179178237915039062 29.307981491088867188 24.503936767578125 22.673456192016601562 24.072649002075195312 23.24880218505859375 24.138185501098632812 25.456354141235351562 23.957254409790039062 25.567796707153320312 29.70600128173828125 30.204559326171875 29.698034286499023438 29.108791351318359375 30.211217880249023438 29.906225204467773438 25.353113174438476562 18.203731536865234375 13.359917640686035156 15.957144737243652344 20.343534469604492188 21.631206512451171875 22.284166336059570312 19.9275970458984375 20.529510498046875 24.485067367553710938 23.955760955810546875 17.464206695556640625 22.61550140380859375 32.063297271728515625 31.558248519897460938 25.961164474487304688 18.859239578247070312 16.524892807006835938 19.022848129272460938 24.082643508911132812 24.383209228515625 14.980122566223144531 24.216474533081054688 26.0265960693359375 23.5588531494140625 17.105321884155273438 14.473643302917480469 16.385677337646484375 12.891037940979003906 9.9928445816040039062 12.145954132080078125 13.179337501525878906 13.193574905395507812 12.763569831848144531 12.383281707763671875 13.753350257873535156 13.783200263977050781 13.8030548095703125 17.43831634521484375 21.72271728515625 23.20113372802734375 21.283716201782226562 20.529661178588867188 24.1564788818359375 24.892755508422851562 21.0083465576171875 17.980470657348632812 17.54079437255859375 17.515026092529296875 -9999 
-9999 16.135995864868164062 13.14699554443359375 9.4017095565795898438 8.1258478164672851562 7.9556546211242675781 9.3154935836791992188 11.504366874694824219 14.150332450866699219 17.92830657958984375 23.792964935302734375 27.990848541259765625 29.439798355102539062 29.988527297973632812 30.521396636962890625 29.67798614501953125 26.993419647216796875 26.699808120727539062 28.949808120727539062 32.460018157958984375 34.4467010498046875 34.076534271240234375 33.49272918701171875 32.65030670166015625 31.428197860717773438 30.98386383056640625 26.040147781372070312 19.917890548706054688 18.107877731323242188 19.130273818969726562 22.530519485473632812 26.530191421508789062 28.225116729736328125 24.553201675415039062 18.7483673095703125 15.153693199157714844 14.387821197509765625 17.052309036254882812 24.282365798950195312 24.886213302612304688 15.384366989135742188 10.211688041687011719 13.578499794006347656 14.347036361694335938 9.4939785003662109375 8.4446468353271484375 13.070494651794433594 15.467325210571289062 4.9528155326843261719 15.905759811401367188 26.879056930541992188 24.692705154418945312 19.523611068725585938 16.139537811279296875 14.966935157775878906 15.911250114440917969 19.356451034545898438 25.589498519897460938 30.892530441284179688 31.855260848999023438 26.914377212524414062 17.1352691650390625 11.5922088623046875 12.963913917541503906 16.4525909423828125 22.395608901977539062 27.591394424438476562 25.328525543212890625 19.80535888671875 24.91745758056640625 30.516544342041015625 32.391117095947265625 31.268018722534179688 30.36972808837890625 31.308292388916015625 34.04633331298828125 33.334201812744140625 31.616832733154296875 33.919033050537109375 34.896213531494140625 32.511867523193359375 32.229217529296875 29.829946517944335938 31.985677719116210938 30.155323028564453125 26.343561172485351562 25.441560745239257812 16.268972396850585938 18.249053955078125 30.199487686157226562 33.658527374267578125 30.516744613647460938 25.520599365234375 23.277530670166015625 21.76580047607421875 20.224370956420898438 18.09838104248046875 12.685196876525878906 8.1361322402954101562 7.6187596321105957031 4.9369788169860839844 4.8348345756530761719 7.8786725997924804688 8.687732696533203125 8.2835817337036132812 6.5343060493469238281 8.4068841934204101562 19.322637557983398438 28.77838897705078125 32.00920867919921875 28.833982467651367188 24.345228195190429688 25.434137344360351562 23.699647903442382812 20.005979537963867188 21.345331192016601562 25.82810211181640625 26.405763626098632812 25.528879165649414062 29.2103424072265625 28.80998992919921875 25.830762863159179688 23.902860641479492188 24.950872421264648438 25.4759521484375 22.152666091918945312 16.582096099853515625 12.278470993041992188 14.234810829162597656 19.84810638427734375 21.715747833251953125 19.353872299194335938 17.45131683349609375 22.973911285400390625 26.105043411254882812 26.005918502807617188 20.731426239013671875 18.2655792236328125 29.742706298828125 32.488658905029296875 29.6533050537109375 21.812744140625 16.327188491821289062 18.866657257080078125 24.95615386962890625 25.883333206176757812 14.311944007873535156 22.610177993774414062 24.606817245483398438 20.47609710693359375 13.76175689697265625 15.828291893005371094 16.625812530517578125 13.40178680419921875 11.964935302734375 14.203029632568359375 13.787607192993164062 12.602278709411621094 12.09066009521484375 12.152439117431640625 13.314333915710449219 13.166728019714355469 12.644418716430664062 15.997141838073730469 21.733898162841796875 24.677598953247070312 23.416864395141601562 22.616245269775390625 24.965970993041992188 24.89482879638671875 20.636249542236328125 16.519796371459960938 16.78365325927734375 18.61820220947265625 -9999 
-9999 16.165399551391601562 14.949747085571289062 7.2234768867492675781 2.6941139698028564453 5.4550275802612304688 8.9106435775756835938 13.717195510864257812 21.019987106323242188 26.66463470458984375 30.880849838256835938 31.918840408325195312 30.231966018676757812 28.955837249755859375 28.019567489624023438 24.997026443481445312 21.302297592163085938 20.391147613525390625 22.475622177124023438 26.001848220825195312 28.683046340942382812 28.7349395751953125 29.117321014404296875 30.165363311767578125 29.547952651977539062 28.46128082275390625 23.006696701049804688 17.629543304443359375 17.691463470458984375 16.724496841430664062 18.656267166137695312 23.46688079833984375 25.790088653564453125 23.242540359497070312 19.010084152221679688 16.109003067016601562 16.246349334716796875 17.701227188110351562 20.54180908203125 20.548669815063476562 13.570693016052246094 9.48770904541015625 12.280276298522949219 12.595801353454589844 8.7534275054931640625 8.640537261962890625 14.725008964538574219 17.019266128540039062 4.3172702789306640625 16.725236892700195312 27.022867202758789062 24.979557037353515625 20.595689773559570312 16.858049392700195312 13.665357589721679688 13.306159019470214844 15.005152702331542969 19.561336517333984375 26.192232131958007812 30.706853866577148438 30.185388565063476562 24.67488861083984375 18.636774063110351562 16.340456008911132812 18.434236526489257812 24.034540176391601562 28.56237030029296875 28.631122589111328125 23.365741729736328125 22.153673171997070312 27.406719207763671875 30.680004119873046875 30.68704986572265625 30.069948196411132812 30.453123092651367188 31.313289642333984375 31.494310379028320312 31.1345977783203125 33.840930938720703125 34.8822174072265625 31.562700271606445312 31.274965286254882812 30.132383346557617188 31.92708587646484375 29.759084701538085938 24.371095657348632812 26.80138397216796875 22.945499420166015625 16.00652313232421875 24.080713272094726562 27.644121170043945312 26.730663299560546875 24.250112533569335938 24.36701202392578125 24.943723678588867188 25.090412139892578125 22.892772674560546875 17.111133575439453125 13.429409027099609375 12.0323638916015625 10.344959259033203125 9.3984041213989257812 9.8393344879150390625 10.402679443359375 10.524503707885742188 11.253094673156738281 15.879833221435546875 21.650304794311523438 26.335409164428710938 29.53302764892578125 28.720251083374023438 29.29779815673828125 28.539434432983398438 22.250020980834960938 15.0740814208984375 19.567010879516601562 25.04451751708984375 26.42461395263671875 25.604656219482421875 29.4908294677734375 29.552297592163085938 26.031650543212890625 23.748975753784179688 23.528797149658203125 23.003635406494140625 21.061431884765625 18.675567626953125 15.078655242919921875 15.111407279968261719 19.52214813232421875 20.672052383422851562 18.052476882934570312 19.892742156982421875 22.41046142578125 22.702556610107421875 22.987096786499023438 19.678457260131835938 13.682445526123046875 26.93398284912109375 32.482379913330078125 30.978048324584960938 23.991205215454101562 15.135640144348144531 15.859707832336425781 24.0511322021484375 26.4505615234375 17.669439315795898438 22.320392608642578125 25.561689376831054688 20.707910537719726562 14.136198997497558594 18.739879608154296875 17.912281036376953125 13.600498199462890625 11.464885711669921875 12.491987228393554688 11.467189788818359375 10.842223167419433594 10.817897796630859375 10.824586868286132812 11.306092262268066406 12.087030410766601562 12.971929550170898438 14.694883346557617188 20.773962020874023438 26.038089752197265625 26.469394683837890625 24.755441665649414062 23.89977264404296875 23.297454833984375 20.908403396606445312 17.227872848510742188 16.983259201049804688 18.480688095092773438 -9999 
-9999 14.737310409545898438 17.401613235473632812 10.55634307861328125 3.7055375576019287109 9.3937511444091796875 14.011099815368652344 20.14934539794921875 28.441514968872070312 33.020740509033203125 34.0277557373046875 32.451263427734375 28.111978530883789062 22.34088134765625 15.238629341125488281 9.4681348800659179688 10.51470947265625 11.170599937438964844 12.751981735229492188 15.830080986022949219 19.62009429931640625 23.636281967163085938 25.307941436767578125 26.1754302978515625 26.371355056762695312 26.001255035400390625 22.02154541015625 19.1005096435546875 20.3655548095703125 19.118518829345703125 19.505214691162109375 23.785495758056640625 25.511682510375976562 22.286840438842773438 18.52138519287109375 16.872999191284179688 17.436786651611328125 17.80060577392578125 17.759021759033203125 15.899454116821289062 11.574192047119140625 10.209913253784179688 11.282006263732910156 10.334950447082519531 8.4580793380737304688 9.7581310272216796875 16.512624740600585938 17.486438751220703125 2.5875408649444580078 18.312412261962890625 26.752227783203125 23.35079193115234375 18.845531463623046875 17.454839706420898438 16.286731719970703125 14.616515159606933594 13.825305938720703125 16.1378631591796875 22.301515579223632812 27.705820083618164062 27.6190185546875 23.663272857666015625 22.630910873413085938 22.9134368896484375 23.44646453857421875 26.234365463256835938 29.33792877197265625 31.151800155639648438 27.915925979614257812 23.559110641479492188 25.954172134399414062 27.994976043701171875 26.294698715209960938 25.6268768310546875 27.506792068481445312 29.999731063842773438 32.142894744873046875 33.3355255126953125 34.3601837158203125 33.722255706787109375 29.577150344848632812 29.263761520385742188 29.90146636962890625 32.56740570068359375 29.680044174194335938 23.032655715942382812 25.03829193115234375 24.390325546264648438 16.84033203125 20.709756851196289062 21.9770355224609375 17.112848281860351562 13.84343719482421875 16.748487472534179688 21.280651092529296875 25.134368896484375 24.654705047607421875 19.976671218872070312 16.111333847045898438 12.971167564392089844 10.967282295227050781 10.505396842956542969 11.659662246704101562 13.27080535888671875 14.1898193359375 16.658723831176757812 22.109783172607421875 24.890169143676757812 22.937601089477539062 23.73455047607421875 30.986871719360351562 35.734203338623046875 33.636016845703125 23.620128631591796875 18.289812088012695312 22.584913253784179688 23.894235610961914062 24.160432815551757812 24.761638641357421875 28.713312149047851562 29.733867645263671875 26.887052536010742188 24.34234619140625 24.026247024536132812 24.517742156982421875 23.622358322143554688 20.297672271728515625 15.521116256713867188 15.581889152526855469 18.986881256103515625 19.873735427856445312 18.88561248779296875 20.81061553955078125 19.454767227172851562 19.164020538330078125 20.402385711669921875 18.8695526123046875 11.728835105895996094 24.903690338134765625 32.970294952392578125 31.306848526000976562 25.640697479248046875 17.656690597534179688 15.054635047912597656 24.209934234619140625 26.92040252685546875 21.888902664184570312 24.117532730102539062 26.248662948608398438 20.859760284423828125 14.179210662841796875 20.380998611450195312 20.174528121948242188 13.815548896789550781 9.57869720458984375 8.7177076339721679688 6.5988554954528808594 4.4505605697631835938 2.67452239990234375 0.43699437379837036133 4.332431793212890625 12.164315223693847656 15.969435691833496094 14.698970794677734375 17.026716232299804688 24.118688583374023438 27.756162643432617188 26.854488372802734375 24.399293899536132812 23.136600494384765625 22.81735992431640625 20.762086868286132812 19.19399261474609375 18.9712066650390625 -9999 
-9999 14.006720542907714844 19.0247039794921875 16.786510467529296875 9.5058870315551757812 10.824372291564941406 16.2646484375 23.980066299438476562 31.937267303466796875 35.06427764892578125 32.472835540771484375 24.695125579833984375 13.042354583740234375 13.128338813781738281 23.4843902587890625 32.410266876220703125 36.655193328857421875 35.629566192626953125 30.504114151000976562 25.265855789184570312 16.70183563232421875 10.774313926696777344 14.773199081420898438 18.281347274780273438 21.033246994018554688 22.440515518188476562 21.0127410888671875 21.521589279174804688 24.2692718505859375 23.961469650268554688 23.03900909423828125 23.530755996704101562 20.070163726806640625 12.899457931518554688 11.450537681579589844 11.240813255310058594 10.683457374572753906 11.539470672607421875 13.029436111450195312 11.48851776123046875 8.9606733322143554688 9.0486812591552734375 10.055436134338378906 10.558543205261230469 10.267198562622070312 12.179531097412109375 17.850805282592773438 16.207353591918945312 2.0137307643890380859 20.54730987548828125 25.38079071044921875 21.067523956298828125 16.666131973266601562 14.029042243957519531 13.21035003662109375 14.211078643798828125 14.880205154418945312 16.577695846557617188 22.129199981689453125 26.59386444091796875 24.81690216064453125 21.533948898315429688 23.0636749267578125 25.88202667236328125 26.63074493408203125 28.609693527221679688 31.562252044677734375 33.597995758056640625 31.3568115234375 27.91778564453125 28.8662872314453125 28.382371902465820312 23.390272140502929688 22.22280120849609375 25.26329803466796875 29.047769546508789062 32.309722900390625 33.955165863037109375 34.516086578369140625 32.525604248046875 27.910734176635742188 27.770784378051757812 29.062086105346679688 31.940235137939453125 27.53363800048828125 22.0031890869140625 23.408697128295898438 23.540029525756835938 17.564065933227539062 20.204141616821289062 22.126012802124023438 16.33170318603515625 11.446994781494140625 10.839712142944335938 12.284913063049316406 16.063030242919921875 19.726898193359375 18.68558502197265625 15.986659049987792969 13.317542076110839844 10.797174453735351562 10.681056976318359375 13.82335662841796875 16.621606826782226562 18.270526885986328125 21.369808197021484375 25.5341796875 25.759979248046875 19.289964675903320312 17.443479537963867188 29.906597137451171875 39.49932861328125 39.68610382080078125 30.557952880859375 28.098081588745117188 28.293222427368164062 26.309740066528320312 23.61075592041015625 22.842525482177734375 24.3847503662109375 26.514120101928710938 23.828432083129882812 20.406726837158203125 25.130365371704101562 28.279119491577148438 27.20829010009765625 21.842069625854492188 14.672438621520996094 14.676334381103515625 17.680450439453125 17.7295379638671875 18.17913818359375 19.77024078369140625 18.2675018310546875 19.229215621948242188 19.403135299682617188 18.5989837646484375 12.991974830627441406 22.383157730102539062 33.314083099365234375 31.545602798461914062 25.760553359985351562 20.371677398681640625 15.328969955444335938 24.024509429931640625 27.38153839111328125 22.064069747924804688 23.18134307861328125 25.216833114624023438 20.433269500732421875 14.417633056640625 19.912191390991210938 22.465360641479492188 16.228740692138671875 9.31633758544921875 3.4506692886352539062 2.2018368244171142578 7.5556206703186035156 12.683423042297363281 15.461833953857421875 15.298671722412109375 17.046855926513671875 20.465351104736328125 18.841663360595703125 16.63574981689453125 18.898241043090820312 23.2252197265625 25.510829925537109375 25.704763412475585938 24.159364700317382812 23.947252273559570312 23.4016571044921875 22.378915786743164062 21.901052474975585938 -9999 
-9999 14.130959510803222656 19.03237152099609375 19.541437149047851562 15.454717636108398438 14.743565559387207031 20.405729293823242188 28.16709136962890625 33.002727508544921875 32.153778076171875 21.166006088256835938 12.278400421142578125 25.252073287963867188 33.915435791015625 38.601043701171875 41.12413787841796875 41.967426300048828125 43.217075347900390625 41.227874755859375 38.540409088134765625 35.4188995361328125 29.694873809814453125 22.392015457153320312 16.805086135864257812 12.641565322875976562 10.274849891662597656 9.566944122314453125 12.522134780883789062 15.852909088134765625 14.107235908508300781 11.216897010803222656 11.087283134460449219 15.438426017761230469 21.1905975341796875 23.209283828735351562 21.67507171630859375 18.647710800170898438 17.59851837158203125 16.9808349609375 12.123736381530761719 8.517200469970703125 8.2567014694213867188 8.5381727218627929688 10.940131187438964844 12.595026016235351562 14.783880233764648438 19.044286727905273438 14.14157867431640625 5.6208524703979492188 21.425653457641601562 23.181835174560546875 20.452108383178710938 17.87091827392578125 13.295094490051269531 8.8871965408325195312 9.0963926315307617188 11.848580360412597656 16.1542510986328125 22.471963882446289062 25.686067581176757812 24.401012420654296875 21.919933319091796875 22.661228179931640625 25.08655548095703125 26.212240219116210938 29.610620498657226562 33.327411651611328125 35.382965087890625 34.111846923828125 31.810955047607421875 31.606233596801757812 28.44261932373046875 22.639665603637695312 22.954370498657226562 26.0538787841796875 27.779935836791992188 29.530561447143554688 31.560085296630859375 33.39237213134765625 31.207731246948242188 27.094141006469726562 28.905458450317382812 30.707500457763671875 31.163562774658203125 25.719654083251953125 23.381216049194335938 23.975795745849609375 23.554189682006835938 18.346370697021484375 18.121889114379882812 19.0793609619140625 14.784304618835449219 14.801442146301269531 17.397096633911132812 17.002729415893554688 12.674632072448730469 8.6967792510986328125 9.3890056610107421875 9.8668966293334960938 9.3736248016357421875 6.5095829963684082031 7.9684514999389648438 14.731860160827636719 19.713506698608398438 21.693338394165039062 24.149599075317382812 26.911630630493164062 24.836048126220703125 16.07161712646484375 12.999309539794921875 24.671535491943359375 38.714672088623046875 42.359405517578125 36.820056915283203125 34.787837982177734375 32.159931182861328125 29.501575469970703125 23.874883651733398438 19.878103256225585938 18.608631134033203125 23.076711654663085938 21.258115768432617188 13.557736396789550781 24.719387054443359375 29.834747314453125 28.922428131103515625 22.429174423217773438 14.217823982238769531 14.260863304138183594 16.509082794189453125 15.246608734130859375 16.341686248779296875 17.861400604248046875 19.46714019775390625 22.263248443603515625 20.255741119384765625 18.02841949462890625 14.460638999938964844 18.3461761474609375 32.333156585693359375 32.444446563720703125 26.3562469482421875 22.302804946899414062 16.206853866577148438 20.57946014404296875 27.0648956298828125 22.566713333129882812 24.060853958129882812 26.938884735107421875 21.962125778198242188 15.662097930908203125 18.080654144287109375 21.7830657958984375 18.106777191162109375 12.097294807434082031 6.69992828369140625 8.5378980636596679688 15.439357757568359375 20.744417190551757812 23.911891937255859375 24.802545547485351562 24.389163970947265625 26.104099273681640625 25.475866317749023438 24.043048858642578125 22.417293548583984375 19.548999786376953125 19.164646148681640625 21.918321609497070312 23.024618148803710938 23.702581405639648438 22.937730789184570312 21.9998016357421875 23.021818161010742188 -9999 
-9999 14.917546272277832031 18.443891525268554688 18.7130889892578125 16.721822738647460938 18.545377731323242188 26.620000839233398438 32.526782989501953125 32.152736663818359375 23.17212677001953125 16.351428985595703125 30.971635818481445312 37.26828765869140625 38.392162322998046875 37.90238189697265625 35.051517486572265625 33.213901519775390625 38.121997833251953125 40.817699432373046875 42.207981109619140625 42.400173187255859375 40.767940521240234375 38.05625152587890625 37.920482635498046875 37.84578704833984375 34.343769073486328125 29.599681854248046875 26.358272552490234375 24.628894805908203125 23.466968536376953125 23.401529312133789062 25.76833343505859375 28.420591354370117188 28.169170379638671875 27.656665802001953125 25.458797454833984375 22.298250198364257812 21.613985061645507812 20.035669326782226562 13.457692146301269531 9.20626068115234375 8.5501956939697265625 7.7928113937377929688 10.300291061401367188 13.476526260375976562 17.371185302734375 20.436235427856445312 12.245908737182617188 8.564563751220703125 21.231386184692382812 21.6433868408203125 20.383100509643554688 18.335165023803710938 13.333919525146484375 9.5506544113159179688 9.4281034469604492188 10.928694725036621094 14.445345878601074219 19.929849624633789062 22.178424835205078125 20.300050735473632812 20.037242889404296875 23.29022216796875 24.646587371826171875 26.3709564208984375 30.746456146240234375 34.01641082763671875 35.932880401611328125 35.53142547607421875 33.801403045654296875 32.486270904541015625 28.427843093872070312 24.217927932739257812 25.236333847045898438 27.762247085571289062 27.383749008178710938 26.490255355834960938 29.657213211059570312 32.606658935546875 30.087306976318359375 26.661304473876953125 29.603534698486328125 31.549219131469726562 29.122211456298828125 23.537029266357421875 23.657192230224609375 24.037176132202148438 23.354330062866210938 19.190355300903320312 17.863142013549804688 16.6503143310546875 13.827139854431152344 13.394516944885253906 13.538979530334472656 13.5351715087890625 13.4570159912109375 12.597388267517089844 11.279755592346191406 12.019101142883300781 12.249051094055175781 8.596843719482421875 5.4186487197875976562 12.805906295776367188 21.122495651245117188 23.450836181640625 25.20085906982421875 27.044986724853515625 24.224657058715820312 16.432855606079101562 13.056986808776855469 16.719587326049804688 33.354869842529296875 41.345355987548828125 39.662418365478515625 36.51747894287109375 32.610927581787109375 30.431644439697265625 22.459230422973632812 17.589807510375976562 17.33419036865234375 22.864894866943359375 20.699853897094726562 9.5729522705078125 24.606109619140625 30.524295806884765625 28.526021957397460938 19.260572433471679688 12.103513717651367188 13.697923660278320312 15.178964614868164062 12.843675613403320312 15.031339645385742188 16.240509033203125 19.13176727294921875 24.2458648681640625 22.473821640014648438 18.8823699951171875 15.78751373291015625 15.657708168029785156 30.527349472045898438 34.094570159912109375 28.860630035400390625 24.355417251586914062 18.93597412109375 18.241228103637695312 26.507539749145507812 25.181909561157226562 26.708494186401367188 27.809589385986328125 20.315855026245117188 15.501262664794921875 16.4984893798828125 18.648162841796875 16.735744476318359375 14.901661872863769531 15.005582809448242188 13.5384063720703125 13.463430404663085938 15.599120140075683594 18.361371994018554688 23.941333770751953125 27.638315200805664062 29.407342910766601562 29.843700408935546875 29.5463104248046875 29.122854232788085938 27.041141510009765625 23.147890090942382812 18.633951187133789062 18.635149002075195312 21.633344650268554688 20.535449981689453125 17.927968978881835938 17.591180801391601562 -9999 
-9999 15.755232810974121094 18.307819366455078125 18.511907577514648438 19.52359771728515625 24.711156845092773438 31.333179473876953125 33.442440032958984375 26.704174041748046875 11.923516273498535156 26.171144485473632812 33.743988037109375 33.299716949462890625 31.219179153442382812 28.313814163208007812 24.361104965209960938 25.892595291137695312 32.191570281982421875 35.61215972900390625 38.32288360595703125 40.301654815673828125 40.35239410400390625 39.4928436279296875 41.398891448974609375 44.188228607177734375 43.85205078125 40.405548095703125 36.626117706298828125 33.702594757080078125 31.570722579956054688 30.835363388061523438 30.025438308715820312 27.789918899536132812 26.8855133056640625 28.072698593139648438 26.5221405029296875 24.18506622314453125 24.920957565307617188 22.636556625366210938 14.9477691650390625 10.562987327575683594 9.10601806640625 7.1327290534973144531 9.1524286270141601562 13.237096786499023438 19.565792083740234375 21.95894622802734375 10.529006004333496094 9.7995891571044921875 19.99736785888671875 20.186248779296875 18.881570816040039062 16.493989944458007812 13.553357124328613281 10.415822982788085938 9.4006834030151367188 10.696712493896484375 12.760025978088378906 16.921321868896484375 19.659046173095703125 17.354339599609375 18.497119903564453125 23.916637420654296875 26.146596908569335938 28.508636474609375 31.364286422729492188 33.1230316162109375 34.873035430908203125 35.129764556884765625 34.5038299560546875 33.798244476318359375 31.516168594360351562 28.984621047973632812 28.692913055419921875 29.06531524658203125 26.264421463012695312 24.855543136596679688 30.213598251342773438 32.994907379150390625 29.859117507934570312 25.604555130004882812 25.052331924438476562 26.057373046875 23.16778564453125 19.757028579711914062 21.641887664794921875 22.160448074340820312 21.294981002807617188 17.801088333129882812 16.613094329833984375 15.075491905212402344 14.003613471984863281 14.417209625244140625 12.606900215148925781 10.2227630615234375 8.528072357177734375 10.015751838684082031 13.583829879760742188 16.017513275146484375 15.766795158386230469 12.913977622985839844 10.497766494750976562 9.5432987213134765625 19.264223098754882812 23.302602767944335938 25.191898345947265625 26.56330108642578125 24.86312103271484375 20.194644927978515625 17.54985809326171875 8.93479156494140625 18.69061279296875 32.838138580322265625 37.126369476318359375 34.101078033447265625 30.907613754272460938 29.078098297119140625 18.218959808349609375 13.905005455017089844 17.202175140380859375 23.001379013061523438 16.967500686645507812 10.121954917907714844 27.420635223388671875 32.05157470703125 26.529352188110351562 13.703876495361328125 9.0792970657348632812 12.50293731689453125 13.908411979675292969 10.766933441162109375 13.340406417846679688 13.10040283203125 15.669833183288574219 22.75283050537109375 22.445089340209960938 18.396060943603515625 15.023584365844726562 14.094517707824707031 27.29205322265625 33.7044830322265625 29.966381072998046875 24.624021530151367188 18.9923858642578125 14.583420753479003906 22.10190582275390625 24.8411407470703125 26.592357635498046875 23.46353912353515625 13.902605056762695312 15.587614059448242188 16.409694671630859375 16.191999435424804688 13.3537750244140625 13.483191490173339844 18.1179962158203125 21.482030868530273438 22.54833984375 23.387363433837890625 20.773473739624023438 17.734127044677734375 22.206180572509765625 26.522716522216796875 28.8459930419921875 28.635417938232421875 28.78455352783203125 30.112552642822265625 29.489610671997070312 25.477670669555664062 22.633935928344726562 24.725627899169921875 23.878833770751953125 21.453723907470703125 19.497152328491210938 -9999 
-9999 16.079133987426757812 18.990795135498046875 20.774618148803710938 25.455699920654296875 30.169881820678710938 32.025684356689453125 29.995195388793945312 15.48377227783203125 19.142669677734375 31.7995452880859375 30.463003158569335938 24.817552566528320312 19.401889801025390625 14.986235618591308594 12.837595939636230469 17.769069671630859375 25.745273590087890625 29.351881027221679688 31.0697174072265625 34.417877197265625 37.340663909912109375 39.051723480224609375 39.799457550048828125 40.265655517578125 41.430370330810546875 41.06008148193359375 38.26371002197265625 34.59880828857421875 32.556552886962890625 31.231954574584960938 28.634916305541992188 25.600902557373046875 25.679834365844726562 27.819057464599609375 28.473375320434570312 27.581205368041992188 27.476091384887695312 24.63430023193359375 16.785856246948242188 11.9310150146484375 9.446414947509765625 6.59098052978515625 8.531772613525390625 12.642577171325683594 20.557622909545898438 22.772069931030273438 8.9467926025390625 10.567613601684570312 18.8822174072265625 19.455020904541015625 17.962932586669921875 14.610187530517578125 11.7362213134765625 9.284221649169921875 8.5390529632568359375 10.177237510681152344 12.275349617004394531 16.09362030029296875 19.2508697509765625 17.693941116333007812 19.300548553466796875 25.449468612670898438 27.829006195068359375 29.6093292236328125 31.158815383911132812 32.14306640625 33.500423431396484375 33.875759124755859375 33.9252166748046875 34.2154998779296875 34.5800018310546875 34.139080047607421875 32.97586822509765625 29.3376922607421875 23.114206314086914062 23.008073806762695312 30.361358642578125 33.129001617431640625 29.348430633544921875 23.174882888793945312 18.281261444091796875 17.31528472900390625 16.078033447265625 17.438009262084960938 19.902017593383789062 20.656915664672851562 19.867738723754882812 16.785602569580078125 16.209455490112304688 15.885645866394042969 16.463994979858398438 16.866563796997070312 14.187368392944335938 10.891122817993164062 9.07782745361328125 9.7155895233154296875 12.13484954833984375 13.841390609741210938 13.480016708374023438 11.653512001037597656 11.914034843444824219 8.4774465560913085938 13.107811927795410156 21.152256011962890625 24.975179672241210938 26.478372573852539062 25.700420379638671875 23.370853424072265625 21.797647476196289062 15.509276390075683594 4.3816251754760742188 15.845299720764160156 25.083126068115234375 26.691633224487304688 31.246120452880859375 27.729145050048828125 14.016551017761230469 10.735392570495605469 17.385463714599609375 21.313119888305664062 8.185100555419921875 19.375200271606445312 31.373378753662109375 31.455514907836914062 21.553264617919921875 8.2296514511108398438 6.7478513717651367188 11.000682830810546875 12.73810577392578125 9.3629655838012695312 11.389893531799316406 10.145013809204101562 11.885115623474121094 19.72690582275390625 20.204629898071289062 15.667326927185058594 12.181941032409667969 11.713168144226074219 21.804700851440429688 30.339141845703125 30.566511154174804688 26.432268142700195312 19.162775039672851562 8.7887439727783203125 10.95034027099609375 17.72791290283203125 20.99344635009765625 15.336744308471679688 12.986723899841308594 17.897371292114257812 16.87467193603515625 14.279557228088378906 10.763315200805664062 11.2626800537109375 15.045567512512207031 19.66565704345703125 24.103212356567382812 28.133724212646484375 27.749431610107421875 21.498809814453125 15.883502960205078125 16.394123077392578125 18.858814239501953125 17.858121871948242188 16.03966522216796875 18.8495635986328125 22.318696975708007812 25.111431121826171875 26.422580718994140625 27.641157150268554688 26.692211151123046875 24.58031463623046875 22.108713150024414062 -9999 
-9999 16.415348052978515625 20.420963287353515625 24.057096481323242188 30.02225494384765625 32.305389404296875 29.661579132080078125 22.368268966674804688 11.2748260498046875 28.696817398071289062 31.909881591796875 25.14678192138671875 17.23403167724609375 11.057264328002929688 8.104030609130859375 6.230403900146484375 8.0975351333618164062 15.709381103515625 22.841428756713867188 26.459817886352539062 29.515514373779296875 32.52487945556640625 34.7914886474609375 35.52445220947265625 36.47490692138671875 38.311492919921875 39.60747528076171875 38.130687713623046875 33.94091796875 32.2305450439453125 31.0774383544921875 28.681165695190429688 26.076410293579101562 25.391324996948242188 27.301645278930664062 29.8725433349609375 30.211725234985351562 29.038646697998046875 25.619655609130859375 18.677715301513671875 13.842576026916503906 10.493081092834472656 6.9116206169128417969 8.6282024383544921875 12.25568389892578125 20.804662704467773438 22.857219696044921875 7.4097566604614257812 11.102628707885742188 18.662626266479492188 19.575380325317382812 18.869510650634765625 15.768443107604980469 10.425106048583984375 6.2951760292053222656 7.3485155105590820312 9.6254224777221679688 11.910369873046875 14.788759231567382812 17.523958206176757812 18.72255706787109375 22.353548049926757812 26.737913131713867188 27.70568084716796875 29.659029006958007812 31.520233154296875 32.5196075439453125 33.460048675537109375 33.890491485595703125 34.661365509033203125 35.37500762939453125 36.5167236328125 37.466739654541015625 35.52594757080078125 27.259012222290039062 18.718046188354492188 21.749879837036132812 30.434703826904296875 34.022930145263671875 29.6045989990234375 21.08295440673828125 15.615946769714355469 14.099779129028320312 13.68509674072265625 17.967996597290039062 19.77342987060546875 20.282382965087890625 19.333112716674804688 15.9542694091796875 16.943981170654296875 19.123323440551757812 19.75501251220703125 18.05287933349609375 14.833498954772949219 12.700962066650390625 11.749215126037597656 11.821158409118652344 12.702763557434082031 13.342378616333007812 13.004601478576660156 11.302943229675292969 11.425242424011230469 10.385518074035644531 5.4155201911926269531 15.700479507446289062 23.393449783325195312 26.458118438720703125 25.909429550170898438 24.066934585571289062 23.042388916015625 19.69788360595703125 13.213714599609375 6.4634990692138671875 8.6243991851806640625 25.35903167724609375 33.06438446044921875 24.733545303344726562 11.537146568298339844 12.715608596801757812 21.270923614501953125 18.205753326416015625 12.273583412170410156 29.846088409423828125 32.999088287353515625 27.422031402587890625 14.613122940063476562 4.2203526496887207031 4.7240877151489257812 8.888950347900390625 11.203954696655273438 8.7460918426513671875 10.084130287170410156 8.7472524642944335938 9.6914834976196289062 18.578653335571289062 18.619398117065429688 13.112877845764160156 10.339272499084472656 10.578029632568359375 17.6977386474609375 25.59345245361328125 28.421314239501953125 27.3251495361328125 22.011667251586914062 12.427954673767089844 5.6343584060668945312 9.5516271591186523438 11.718394279479980469 8.0604724884033203125 14.641013145446777344 19.652418136596679688 17.784099578857421875 14.130072593688964844 11.244071006774902344 10.437383651733398438 11.766005516052246094 15.855188369750976562 23.572942733764648438 28.959850311279296875 29.070585250854492188 26.264490127563476562 23.782842636108398438 24.214540481567382812 26.501363754272460938 26.789358139038085938 23.356563568115234375 19.2868499755859375 15.304277420043945312 14.465609550476074219 20.744920730590820312 24.399946212768554688 24.1208343505859375 21.698957443237304688 18.802509307861328125 -9999 
-9999 17.617578506469726562 22.084119796752929688 26.31324005126953125 32.435546875 32.78563690185546875 26.716192245483398438 13.798560142517089844 20.57574462890625 30.249439239501953125 26.66735076904296875 17.735912322998046875 12.41851806640625 9.1908826828002929688 7.6327981948852539062 5.4428186416625976562 3.3661434650421142578 6.6853032112121582031 13.738238334655761719 19.27069091796875 21.609460830688476562 22.138765335083007812 22.954601287841796875 25.030628204345703125 29.04552459716796875 32.447673797607421875 36.520267486572265625 37.268199920654296875 32.384021759033203125 29.067533493041992188 27.50048065185546875 25.852304458618164062 25.757730484008789062 26.335058212280273438 28.206531524658203125 31.450878143310546875 31.9055023193359375 29.880601882934570312 26.04454803466796875 20.205142974853515625 15.85663604736328125 12.11748504638671875 8.2291212081909179688 9.0460567474365234375 12.639582633972167969 21.67443084716796875 22.7131805419921875 5.9070835113525390625 12.783334732055664062 19.011402130126953125 18.764322280883789062 17.746400833129882812 14.923519134521484375 10.920004844665527344 8.5213403701782226562 8.422756195068359375 9.7626199722290039062 11.962261199951171875 13.685863494873046875 15.952814102172851562 20.296766281127929688 23.717037200927734375 25.11533355712890625 27.27008819580078125 30.735754013061523438 32.827022552490234375 33.82544708251953125 34.743274688720703125 35.3507537841796875 36.71501922607421875 37.198673248291015625 37.19338226318359375 37.795467376708984375 33.85974884033203125 23.002794265747070312 17.198049545288085938 23.435253143310546875 31.38959503173828125 33.738067626953125 28.521434783935546875 20.357479095458984375 17.516794204711914062 16.373809814453125 15.097296714782714844 18.987396240234375 20.19545745849609375 20.324377059936523438 18.5098419189453125 14.906640052795410156 17.423826217651367188 20.414861679077148438 20.374608993530273438 17.976070404052734375 14.917736053466796875 12.570955276489257812 10.971660614013671875 10.67334747314453125 12.027587890625 13.654564857482910156 13.48706817626953125 11.645755767822265625 11.716525077819824219 12.864457130432128906 9.0207853317260742188 7.7403116226196289062 18.262416839599609375 25.089395523071289062 25.729375839233398438 23.538726806640625 22.418773651123046875 20.643911361694335938 18.045122146606445312 12.441523551940917969 7.1375675201416015625 26.634519577026367188 31.867151260375976562 20.516506195068359375 9.7854595184326171875 18.48970794677734375 26.297895431518554688 16.258920669555664062 25.482975006103515625 33.71428680419921875 29.919775009155273438 20.75005340576171875 8.984954833984375 2.9399075508117675781 5.3573665618896484375 9.6831302642822265625 13.073800086975097656 10.881834983825683594 9.58233642578125 6.9067401885986328125 9.2947111129760742188 18.271881103515625 16.48371124267578125 11.320108413696289062 10.269473075866699219 12.385957717895507812 20.107799530029296875 25.582202911376953125 24.807689666748046875 22.742856979370117188 20.934904098510742188 15.814818382263183594 10.40008544921875 9.4631166458129882812 7.4921841621398925781 5.0371537208557128906 13.409847259521484375 19.589557647705078125 18.3240814208984375 15.09955596923828125 12.631167411804199219 10.435847282409667969 10.209697723388671875 14.466073036193847656 22.472042083740234375 28.889425277709960938 30.469701766967773438 29.1471405029296875 27.529542922973632812 26.014307022094726562 26.891111373901367188 29.069082260131835938 27.955640792846679688 24.663867950439453125 22.873569488525390625 19.71952056884765625 16.809854507446289062 17.6367950439453125 17.720907211303710938 15.794875144958496094 13.338982582092285156 -9999 
-9999 19.9072723388671875 24.848476409912109375 28.551458358764648438 33.385997772216796875 32.30706787109375 23.145603179931640625 11.888485908508300781 26.353908538818359375 27.074329376220703125 19.565084457397460938 11.097330093383789062 8.6352720260620117188 10.297168731689453125 8.923572540283203125 7.1959018707275390625 5.0260758399963378906 3.7342240810394287109 4.92505645751953125 10.233272552490234375 12.335813522338867188 10.784564971923828125 9.34095001220703125 12.883717536926269531 18.684381484985351562 21.570482254028320312 27.724905014038085938 31.899425506591796875 28.118623733520507812 23.701662063598632812 21.637849807739257812 20.834653854370117188 23.3471832275390625 26.239770889282226562 28.522146224975585938 31.80224609375 33.33948516845703125 31.581668853759765625 27.15041351318359375 20.956792831420898438 16.8206024169921875 13.731123924255371094 10.227421760559082031 9.67206573486328125 13.931778907775878906 23.142673492431640625 21.298543930053710938 2.4934494495391845703 15.010114669799804688 18.790136337280273438 16.233022689819335938 14.403796195983886719 13.153496742248535156 11.394208908081054688 10.058950424194335938 11.180967330932617188 12.318979263305664062 14.402768135070800781 16.44126129150390625 18.21953582763671875 19.068891525268554688 19.347198486328125 23.214132308959960938 28.62976837158203125 32.45679473876953125 34.097164154052734375 34.93527984619140625 35.854198455810546875 36.328388214111328125 37.299152374267578125 36.78478240966796875 35.330654144287109375 35.294315338134765625 30.802083969116210938 21.1461181640625 18.55358123779296875 25.490270614624023438 31.771778106689453125 31.507373809814453125 26.625505447387695312 22.374782562255859375 21.189554214477539062 16.077032089233398438 12.605031967163085938 17.392742156982421875 19.421932220458984375 20.313507080078125 17.894014358520507812 14.534971237182617188 16.58504486083984375 17.759984970092773438 16.402956008911132812 15.659758567810058594 14.437726020812988281 12.356685638427734375 9.8809499740600585938 9.1258440017700195312 11.096231460571289062 13.268178939819335938 12.631093978881835938 10.407834053039550781 10.823183059692382812 13.533900260925292969 13.983359336853027344 9.669841766357421875 11.319611549377441406 21.484188079833984375 25.324731826782226562 23.619441986083984375 21.165639877319335938 19.022779464721679688 17.802173614501953125 14.310884475708007812 2.2959778308868408203 25.56583404541015625 31.33913421630859375 18.100536346435546875 9.1285247802734375 24.160648345947265625 27.59415435791015625 20.332921981811523438 33.21036529541015625 35.429210662841796875 31.624746322631835938 23.530670166015625 13.667937278747558594 9.5262708663940429688 14.500560760498046875 18.873651504516601562 21.070611953735351562 17.48851776123046875 12.769637107849121094 8.3632116317749023438 12.309579849243164062 16.788806915283203125 14.331273078918457031 11.12445831298828125 10.76436614990234375 14.5522308349609375 23.718631744384765625 28.320842742919921875 25.127050399780273438 19.999988555908203125 17.484601974487304688 16.22216033935546875 13.406994819641113281 10.947171211242675781 7.8628497123718261719 5.23255157470703125 11.696431159973144531 17.655239105224609375 16.786947250366210938 15.402466773986816406 16.02045440673828125 15.519398689270019531 13.914727210998535156 14.336245536804199219 18.2098236083984375 25.295793533325195312 28.55825042724609375 26.442111968994140625 23.537038803100585938 20.172376632690429688 20.345453262329101562 25.073076248168945312 26.914669036865234375 25.093912124633789062 23.679571151733398438 22.66302490234375 20.115482330322265625 17.461151123046875 15.20654296875 12.108183860778808594 8.8581829071044921875 -9999 
-9999 22.561491012573242188 28.8672027587890625 31.978055953979492188 33.3972320556640625 30.2626190185546875 17.764347076416015625 16.015569686889648438 27.186887741088867188 21.568103790283203125 11.792516708374023438 5.1267504692077636719 4.1215572357177734375 10.137432098388671875 10.487757682800292969 9.5686616897583007812 8.0417013168334960938 6.1805319786071777344 5.7256946563720703125 7.5631690025329589844 8.5947160720825195312 7.2987904548645019531 7.6713271141052246094 12.163265228271484375 16.0120697021484375 15.778920173645019531 19.208211898803710938 23.098882675170898438 19.84841156005859375 16.898067474365234375 17.072221755981445312 18.169086456298828125 21.745153427124023438 25.121057510375976562 26.855409622192382812 29.884187698364257812 33.214473724365234375 33.299793243408203125 29.153234481811523438 21.754085540771484375 16.728397369384765625 14.887925148010253906 12.572381973266601562 10.842476844787597656 16.269256591796875 24.383340835571289062 18.137929916381835938 1.7520914077758789062 16.520189285278320312 17.299505233764648438 12.732651710510253906 11.334848403930664062 11.481156349182128906 13.195084571838378906 14.977540969848632812 15.832575798034667969 15.81107330322265625 15.857866287231445312 15.577750205993652344 14.495542526245117188 13.871187210083007812 16.454395294189453125 23.861112594604492188 30.59488677978515625 33.618000030517578125 34.920566558837890625 35.690456390380859375 36.1826171875 36.248142242431640625 36.855579376220703125 35.859973907470703125 34.27263641357421875 34.007755279541015625 29.655405044555664062 22.117462158203125 20.008518218994140625 25.431673049926757812 30.932786941528320312 29.95944976806640625 26.818536758422851562 25.328622817993164062 23.377685546875 14.269514083862304688 6.3063039779663085938 13.783594131469726562 18.467638015747070312 20.380796432495117188 17.873125076293945312 14.208956718444824219 14.275643348693847656 14.72905731201171875 13.173822402954101562 13.455965995788574219 13.410991668701171875 12.465172767639160156 10.416452407836914062 9.6084909439086914062 11.197243690490722656 12.677662849426269531 12.207119941711425781 9.804134368896484375 8.8976583480834960938 11.494748115539550781 13.888195037841796875 12.959082603454589844 8.520664215087890625 15.831751823425292969 23.945404052734375 24.544515609741210938 21.545751571655273438 18.585302352905273438 17.630022048950195312 15.955388069152832031 3.7347528934478759766 24.34922027587890625 31.687305450439453125 17.719903945922851562 13.648938179016113281 28.795019149780273438 24.41347503662109375 20.476818084716796875 34.136409759521484375 37.39142608642578125 36.18914794921875 30.47391510009765625 23.763607025146484375 22.466709136962890625 27.556871414184570312 28.289236068725585938 28.182689666748046875 24.510860443115234375 18.603740692138671875 14.191501617431640625 16.126218795776367188 15.660799980163574219 14.134337425231933594 11.312430381774902344 10.650859832763671875 14.305614471435546875 22.83142852783203125 26.560407638549804688 21.19242095947265625 16.509546279907226562 14.966031074523925781 15.475329399108886719 14.471853256225585938 11.75753021240234375 9.200061798095703125 6.1223969459533691406 11.213850021362304688 15.607300758361816406 14.834058761596679688 14.933121681213378906 17.091318130493164062 18.523790359497070312 18.496402740478515625 16.033693313598632812 14.0968170166015625 19.159488677978515625 24.544843673706054688 25.10384368896484375 24.755016326904296875 24.109508514404296875 25.18994140625 28.565557479858398438 31.159475326538085938 30.977293014526367188 28.419277191162109375 24.977321624755859375 20.0302581787109375 14.26305389404296875 11.385132789611816406 12.134014129638671875 14.444178581237792969 -9999 
-9999 24.77539825439453125 32.5197601318359375 34.7825164794921875 32.26628875732421875 26.69824981689453125 13.511006355285644531 20.489912033081054688 24.212308883666992188 14.120426177978515625 4.3093156814575195312 0.67331737279891967773 4.4795813560485839844 10.661850929260253906 12.55516815185546875 11.456265449523925781 9.86501312255859375 7.9096064567565917969 7.966037750244140625 9.0846157073974609375 9.3449964523315429688 8.8727769851684570312 12.117392539978027344 16.502542495727539062 18.296644210815429688 18.675642013549804688 22.41696929931640625 24.224761962890625 19.66564178466796875 15.978376388549804688 16.063249588012695312 18.444610595703125 22.349100112915039062 24.285099029541015625 25.075412750244140625 28.019262313842773438 31.79628753662109375 33.221843719482421875 30.272943496704101562 22.915464401245117188 16.464199066162109375 15.413702011108398438 14.916810035705566406 13.400567054748535156 19.84458160400390625 24.49234771728515625 13.428218841552734375 6.1651196479797363281 16.943195343017578125 14.655169486999511719 9.9740924835205078125 10.467761993408203125 13.02465057373046875 15.736985206604003906 17.16757965087890625 17.459529876708984375 14.812373161315917969 11.745100021362304688 10.207695960998535156 10.191763877868652344 11.79013824462890625 16.151052474975585938 24.651912689208984375 31.116207122802734375 33.951900482177734375 35.24291229248046875 35.893177032470703125 36.080722808837890625 36.309803009033203125 37.2974853515625 36.45825958251953125 34.983318328857421875 34.461334228515625 29.692258834838867188 22.803497314453125 20.365880966186523438 24.59014129638671875 29.51053619384765625 29.671522140502929688 28.558214187622070312 27.064006805419921875 23.336809158325195312 14.874752998352050781 6.4694333076477050781 11.539890289306640625 18.417844772338867188 20.783329010009765625 18.181161880493164062 15.11034393310546875 14.582033157348632812 15.555486679077148438 14.812451362609863281 14.168503761291503906 13.418788909912109375 13.320361137390136719 12.584574699401855469 11.830487251281738281 11.867176055908203125 12.031829833984375 12.079413414001464844 10.414188385009765625 8.571765899658203125 9.7978315353393554688 11.847777366638183594 12.898417472839355469 9.9709606170654296875 10.462427139282226562 21.105382919311523438 25.202302932739257812 23.4798736572265625 20.194952011108398438 18.505420684814453125 16.06920623779296875 4.5753998756408691406 21.563617706298828125 31.402727127075195312 19.568311691284179688 21.030721664428710938 30.2474212646484375 18.087667465209960938 14.780767440795898438 26.534318923950195312 34.443935394287109375 37.089427947998046875 33.681461334228515625 30.708063125610351562 31.85794830322265625 34.909984588623046875 32.26740264892578125 31.888715744018554688 28.479921340942382812 22.369281768798828125 19.297494888305664062 17.8706512451171875 14.940947532653808594 14.454668045043945312 11.104976654052734375 9.146373748779296875 11.092488288879394531 18.9225006103515625 24.24555206298828125 18.121000289916992188 11.31417083740234375 10.615861892700195312 12.793760299682617188 13.023743629455566406 11.801942825317382812 9.812572479248046875 3.9824242591857910156 10.167323112487792969 11.888235092163085938 9.5069856643676757812 8.2223634719848632812 8.8294591903686523438 12.035366058349609375 17.61893463134765625 18.431753158569335938 17.092782974243164062 22.271642684936523438 28.71889495849609375 31.035755157470703125 30.911703109741210938 30.6039886474609375 31.075044631958007812 32.830841064453125 34.087757110595703125 31.75850677490234375 24.927562713623046875 16.652933120727539062 9.58237457275390625 12.424008369445800781 21.015916824340820312 26.593664169311523438 27.643545150756835938 -9999 
-9999 27.751970291137695312 34.76708984375 35.97966766357421875 30.412298202514648438 20.195837020874023438 13.479891777038574219 23.657903671264648438 20.879835128784179688 9.1525487899780273438 5.2217583656311035156 4.3848466873168945312 5.5932526588439941406 10.266017913818359375 13.0411834716796875 12.121967315673828125 10.435024261474609375 8.5984525680541992188 7.4622039794921875 8.0492029190063476562 9.7583293914794921875 11.047616004943847656 15.1819610595703125 19.12073516845703125 20.518457412719726562 22.91168212890625 27.167284011840820312 29.0849151611328125 27.005334854125976562 24.299329757690429688 21.27243804931640625 20.90090179443359375 23.5989227294921875 24.872142791748046875 25.889177322387695312 27.653596878051757812 29.82364654541015625 31.794330596923828125 30.167842864990234375 23.478008270263671875 16.099943161010742188 15.460776329040527344 17.082469940185546875 17.62639617919921875 23.472713470458984375 23.295106887817382812 7.9242811203002929688 11.324440956115722656 16.532602310180664062 11.522077560424804688 8.3888826370239257812 10.369561195373535156 13.991949081420898438 16.645154953002929688 18.142042160034179688 17.890787124633789062 13.397238731384277344 8.9504728317260742188 8.0625782012939453125 8.8434038162231445312 11.42046356201171875 17.215440750122070312 24.941249847412109375 30.319070816040039062 33.111721038818359375 34.63495635986328125 35.460155487060546875 35.867618560791015625 36.430240631103515625 37.76445770263671875 37.65660858154296875 36.441349029541015625 35.1425933837890625 29.72869873046875 22.984495162963867188 20.79483795166015625 24.54837799072265625 28.6129608154296875 30.244487762451171875 29.744937896728515625 26.983325958251953125 23.284633636474609375 16.863302230834960938 11.27384185791015625 10.934517860412597656 17.494470596313476562 20.785999298095703125 18.262348175048828125 15.8682098388671875 15.579523086547851562 16.776590347290039062 16.18988800048828125 15.060455322265625 14.670582771301269531 14.980987548828125 14.705357551574707031 13.609056472778320312 12.263355255126953125 11.633697509765625 12.000682830810546875 11.386285781860351562 9.1252164840698242188 9.3031148910522460938 10.833766937255859375 12.687702178955078125 12.2768707275390625 8.1346368789672851562 17.453577041625976562 24.752977371215820312 24.823728561401367188 21.496717453002929688 17.912115097045898438 14.223592758178710938 6.0981197357177734375 13.653085708618164062 27.171850204467773438 24.000152587890625 26.674957275390625 26.160848617553710938 9.5234918594360351562 11.142526626586914062 16.142732620239257812 27.057224273681640625 35.4047393798828125 36.756038665771484375 37.002521514892578125 37.37989044189453125 35.875644683837890625 31.110029220581054688 32.794525146484375 30.99040985107421875 25.472200393676757812 22.613124847412109375 17.356519699096679688 13.774637222290039062 14.35268402099609375 11.693022727966308594 8.6997528076171875 8.2326335906982421875 13.987051963806152344 21.428316116333007812 19.584991455078125 13.576769828796386719 11.041935920715332031 12.492785453796386719 13.437466621398925781 13.683430671691894531 9.827972412109375 5.6800971031188964844 13.774465560913085938 12.909129142761230469 9.201446533203125 7.15224456787109375 8.176410675048828125 10.772729873657226562 16.123767852783203125 23.810718536376953125 27.980281829833984375 30.20088958740234375 31.69017791748046875 31.750436782836914062 31.439893722534179688 30.298175811767578125 30.2576904296875 31.832977294921875 30.624744415283203125 22.923559188842773438 10.871311187744140625 14.183054924011230469 21.784801483154296875 26.542816162109375 30.225217819213867188 31.937351226806640625 30.68560028076171875 -9999 
-9999 31.709859848022460938 35.24216461181640625 35.26859283447265625 27.130901336669921875 12.886705398559570312 14.458075523376464844 19.916913986206054688 15.106016159057617188 8.5260934829711914062 10.567854881286621094 6.7558608055114746094 4.7676329612731933594 8.6864423751831054688 12.612741470336914062 12.552561759948730469 10.915623664855957031 9.18645477294921875 6.6661729812622070312 7.0728316307067871094 9.942859649658203125 11.407998085021972656 14.728901863098144531 19.508411407470703125 22.72991943359375 26.430963516235351562 29.727901458740234375 31.609956741333007812 31.202070236206054688 30.839015960693359375 29.802804946899414062 27.007284164428710938 25.40067291259765625 26.379302978515625 28.34363555908203125 28.230335235595703125 27.066219329833984375 29.499853134155273438 29.674348831176757812 23.009954452514648438 15.348586082458496094 15.556255340576171875 19.256196975708007812 21.783344268798828125 25.21392822265625 19.88282012939453125 1.0781255960464477539 16.290651321411132812 15.352152824401855469 8.8085260391235351562 7.6107330322265625 9.3822050094604492188 13.266905784606933594 17.000215530395507812 18.664121627807617188 17.32102203369140625 12.827711105346679688 9.3956365585327148438 8.3597517013549804688 8.8392515182495117188 12.110073089599609375 18.26580047607421875 24.907400131225585938 29.392932891845703125 31.859653472900390625 33.589385986328125 34.999912261962890625 35.881824493408203125 36.533283233642578125 37.873989105224609375 38.54662322998046875 37.760166168212890625 35.1647186279296875 29.606201171875 24.3707427978515625 23.152246475219726562 25.68138885498046875 27.771883010864257812 29.558828353881835938 28.942873001098632812 26.717283248901367188 25.217630386352539062 19.700323104858398438 13.267024993896484375 8.5012884140014648438 13.343860626220703125 18.159271240234375 16.326635360717773438 14.282677650451660156 14.602468490600585938 16.924083709716796875 16.841680526733398438 15.463811874389648438 15.241408348083496094 15.693255424499511719 14.941550254821777344 13.361650466918945312 11.743905067443847656 10.8258056640625 11.861618995666503906 12.154511451721191406 9.6742238998413085938 9.499408721923828125 11.074415206909179688 13.104750633239746094 14.525820732116699219 9.82703399658203125 12.6188812255859375 22.92147064208984375 24.840978622436523438 21.836639404296875 17.265186309814453125 14.128174781799316406 10.178815841674804688 5.1102113723754882812 14.641588211059570312 19.32122039794921875 22.7724609375 16.011728286743164062 5.6903409957885742188 9.9959115982055664062 13.904710769653320312 22.073003768920898438 31.870698928833007812 37.12787628173828125 38.270626068115234375 34.900951385498046875 25.941234588623046875 18.040008544921875 22.748241424560546875 27.136892318725585938 27.7246551513671875 23.562381744384765625 15.825860023498535156 13.002973556518554688 13.828765869140625 12.886827468872070312 11.170889854431152344 10.099292755126953125 10.305645942687988281 14.31722259521484375 17.560062408447265625 16.922700881958007812 14.569540023803710938 14.471319198608398438 15.878857612609863281 17.0164794921875 12.576566696166992188 14.878528594970703125 20.608221054077148438 20.440578460693359375 20.28189849853515625 19.912569046020507812 19.5761871337890625 21.458051681518554688 26.752796173095703125 33.555538177490234375 35.60935211181640625 34.790424346923828125 33.917999267578125 33.028369903564453125 32.189785003662109375 30.304180145263671875 29.8573455810546875 28.63649749755859375 20.307256698608398438 8.5582876205444335938 21.351419448852539062 29.735340118408203125 31.567684173583984375 30.936933517456054688 30.280122756958007812 28.668058395385742188 27.508031845092773438 -9999 
-9999 35.157001495361328125 33.693927764892578125 31.271121978759765625 22.152904510498046875 13.802251815795898438 14.255303382873535156 13.8012237548828125 8.5626459121704101562 5.6633572578430175781 13.489818572998046875 9.7243394851684570312 4.5150508880615234375 6.7329373359680175781 11.898614883422851562 12.893351554870605469 11.847311019897460938 10.731001853942871094 7.6325168609619140625 8.8077630996704101562 11.027916908264160156 11.60753631591796875 13.063405036926269531 18.75453948974609375 24.760744094848632812 29.36635589599609375 31.459339141845703125 32.27465057373046875 31.952932357788085938 31.019443511962890625 31.997316360473632812 30.761434555053710938 27.179765701293945312 26.778287887573242188 28.950496673583984375 28.163328170776367188 25.489542007446289062 26.73514556884765625 27.61275482177734375 21.94190216064453125 15.484600067138671875 16.41536712646484375 21.255670547485351562 24.423643112182617188 24.849409103393554688 14.833085060119628906 7.1088500022888183594 18.57901763916015625 12.990421295166015625 6.885986328125 7.4298467636108398438 8.6242876052856445312 11.767313957214355469 16.1623382568359375 17.878835678100585938 16.114629745483398438 12.909211158752441406 11.14955902099609375 10.313596725463867188 10.18614959716796875 12.740293502807617188 18.444713592529296875 24.87964630126953125 29.194858551025390625 31.368566513061523438 32.807880401611328125 34.278026580810546875 35.545749664306640625 36.47930908203125 37.7431182861328125 38.755481719970703125 38.079036712646484375 34.743915557861328125 30.398542404174804688 27.237873077392578125 26.48553466796875 26.726442337036132812 25.941400527954101562 26.877016067504882812 27.982297897338867188 28.527675628662109375 27.88885498046875 21.488180160522460938 13.403464317321777344 6.8371281623840332031 9.630290985107421875 14.93347930908203125 14.078658103942871094 13.510128021240234375 15.210058212280273438 17.733808517456054688 16.971284866333007812 14.948384284973144531 14.959773063659667969 15.833161354064941406 14.546779632568359375 11.722344398498535156 9.872966766357421875 8.8341321945190429688 10.544928550720214844 11.803980827331542969 10.052814483642578125 10.480843544006347656 11.408766746520996094 12.579332351684570312 14.872784614562988281 13.682027816772460938 6.20673370361328125 19.24245452880859375 24.446096420288085938 21.896574020385742188 16.895540237426757812 14.766829490661621094 12.876811981201171875 9.1706495285034179688 4.6463360786437988281 4.1983609199523925781 8.7594356536865234375 3.7103955745697021484 3.167530059814453125 8.5949602127075195312 13.774197578430175781 18.362905502319335938 23.864107131958007812 26.858518600463867188 24.658540725708007812 17.93128204345703125 11.886495590209960938 13.360640525817871094 19.0057525634765625 23.947643280029296875 26.3855438232421875 21.712924957275390625 14.428906440734863281 12.449594497680664062 12.854025840759277344 12.655302047729492188 12.331828117370605469 13.094000816345214844 13.294001579284667969 11.167073249816894531 10.421355247497558594 12.534209251403808594 11.899401664733886719 11.174876213073730469 12.601224899291992188 14.341256141662597656 10.324748992919921875 18.018861770629882812 24.249666213989257812 25.364316940307617188 26.758623123168945312 27.2083740234375 25.528196334838867188 26.485111236572265625 32.609943389892578125 36.5519866943359375 36.373760223388671875 35.09841156005859375 33.50318145751953125 32.465030670166015625 31.082912445068359375 28.672914505004882812 27.073883056640625 20.879083633422851562 10.466572761535644531 25.172712326049804688 34.9887542724609375 36.44174957275390625 35.001720428466796875 32.070526123046875 28.749288558959960938 26.18613433837890625 27.109170913696289062 -9999 
-9999 37.487926483154296875 31.146982192993164062 24.720041275024414062 15.538095474243164062 14.213253974914550781 14.820250511169433594 12.479353904724121094 5.637607574462890625 6.321727752685546875 13.094611167907714844 12.038938522338867188 6.4353108406066894531 6.385982513427734375 10.223318099975585938 12.366398811340332031 12.34496307373046875 12.716218948364257812 10.820630073547363281 9.95159149169921875 11.566226005554199219 11.844155311584472656 12.664583206176757812 18.36911773681640625 27.191989898681640625 32.732807159423828125 32.662967681884765625 31.11330413818359375 31.048534393310546875 29.680843353271484375 30.087648391723632812 31.405147552490234375 29.195192337036132812 26.297832489013671875 27.302335739135742188 26.410093307495117188 24.252870559692382812 24.3025360107421875 23.88906097412109375 20.774883270263671875 17.47989654541015625 18.148485183715820312 22.296079635620117188 25.3733673095703125 23.0212249755859375 9.3434581756591796875 11.912164688110351562 18.085344314575195312 9.9769678115844726562 5.8745045661926269531 7.5106921195983886719 8.697757720947265625 10.755290985107421875 14.167952537536621094 15.460529327392578125 14.02194976806640625 12.566586494445800781 12.418799400329589844 12.165984153747558594 11.7475128173828125 13.376165390014648438 18.382354736328125 25.523366928100585938 30.513269424438476562 32.20313262939453125 32.54433441162109375 33.2509765625 34.718402862548828125 36.040958404541015625 36.89942169189453125 37.459506988525390625 36.711528778076171875 34.55214691162109375 33.138916015625 31.164548873901367188 28.923467636108398438 27.475866317749023438 25.576038360595703125 25.927888870239257812 28.62131500244140625 31.271810531616210938 29.100170135498046875 21.329925537109375 12.812592506408691406 5.2629156112670898438 5.5661196708679199219 11.636416435241699219 13.473375320434570312 15.095890998840332031 16.979761123657226562 17.651376724243164062 15.976305007934570312 14.828068733215332031 15.383731842041015625 15.900966644287109375 14.720204353332519531 10.237166404724121094 8.0192279815673828125 7.8359351158142089844 9.811878204345703125 12.332568168640136719 11.667368888854980469 11.900153160095214844 11.793751716613769531 12.006610870361328125 14.115245819091796875 16.97724151611328125 10.197220802307128906 11.714838981628417969 22.627855300903320312 21.760843276977539062 16.758760452270507812 15.798450469970703125 16.143085479736328125 13.702022552490234375 10.382839202880859375 9.7590589523315429688 8.2438573837280273438 5.1324281692504882812 3.6555283069610595703 4.0634369850158691406 5.1753182411193847656 6.7920775413513183594 8.6462888717651367188 11.987177848815917969 14.9949951171875 19.073812484741210938 21.80350494384765625 21.751977920532226562 21.201578140258789062 20.15280914306640625 20.676816940307617188 17.845102310180664062 12.61768341064453125 11.249843597412109375 11.487891197204589844 11.177171707153320312 11.179644584655761719 12.889538764953613281 14.266935348510742188 14.975248336791992188 15.629037857055664062 16.015493392944335938 15.076264381408691406 13.676703453063964844 12.281255722045898438 9.4601240158081054688 3.6057217121124267578 19.94904327392578125 26.988880157470703125 27.653135299682617188 28.147428512573242188 28.152212142944335938 27.84511566162109375 28.472711563110351562 33.172149658203125 34.59159088134765625 34.074066162109375 32.907649993896484375 30.359273910522460938 27.94412994384765625 25.954204559326171875 23.275114059448242188 17.995922088623046875 9.7906770706176757812 23.862497329711914062 34.91466522216796875 37.13706207275390625 35.486042022705078125 35.095867156982421875 33.114398956298828125 29.357244491577148438 27.134540557861328125 27.607273101806640625 -9999 
-9999 37.721149444580078125 28.23020172119140625 17.976604461669921875 10.234732627868652344 14.450766563415527344 15.615660667419433594 13.3017425537109375 9.2927312850952148438 10.143481254577636719 11.95053863525390625 13.158929824829101562 10.863193511962890625 8.979156494140625 10.607311248779296875 12.110983848571777344 11.529881477355957031 11.696543693542480469 11.883618354797363281 9.6573200225830078125 7.8410282135009765625 8.9326000213623046875 12.896297454833984375 20.119602203369140625 28.18932342529296875 32.31903839111328125 30.95996856689453125 28.243600845336914062 28.268941879272460938 26.657474517822265625 23.834386825561523438 26.617523193359375 29.680273056030273438 27.682361602783203125 26.730512619018554688 25.905916213989257812 23.227628707885742188 21.683868408203125 20.641313552856445312 19.966053009033203125 19.6764984130859375 19.7345733642578125 22.016696929931640625 24.685642242431640625 20.4720001220703125 3.8111214637756347656 15.49623870849609375 16.505365371704101562 7.3959102630615234375 5.6429209709167480469 7.5249056816101074219 8.5632305145263671875 10.091304779052734375 12.726872444152832031 13.110928535461425781 11.227116584777832031 10.248837471008300781 11.027014732360839844 11.438282966613769531 11.740201950073242188 13.523363113403320312 17.796049118041992188 25.666074752807617188 32.21112060546875 33.346240997314453125 32.065425872802734375 32.349456787109375 34.072559356689453125 35.34723663330078125 35.40818023681640625 34.784557342529296875 34.545948028564453125 35.247623443603515625 36.53118896484375 34.85155487060546875 30.930315017700195312 29.502729415893554688 28.511564254760742188 28.337738037109375 30.524919509887695312 32.13207244873046875 28.025547027587890625 19.486425399780273438 10.713197708129882812 4.9375519752502441406 0.93649822473526000977 6.9441733360290527344 11.248992919921875 13.735333442687988281 15.336117744445800781 15.817037582397460938 14.960415840148925781 13.385828971862792969 12.498525619506835938 13.931496620178222656 15.896716117858886719 11.963574409484863281 9.2950916290283203125 9.77417755126953125 11.117535591125488281 13.605568885803222656 13.427015304565429688 12.116810798645019531 11.333960533142089844 11.469506263732910156 12.347433090209960938 15.883740425109863281 15.705899238586425781 4.7068395614624023438 16.863771438598632812 20.715557098388671875 17.550012588500976562 16.628993988037109375 16.846410751342773438 14.282538414001464844 11.472070693969726562 9.4646253585815429688 6.8675942420959472656 6.8520522117614746094 6.6788759231567382812 5.1443042755126953125 3.3653309345245361328 2.9463202953338623047 4.5763082504272460938 9.927501678466796875 16.69366455078125 22.823726654052734375 24.523378372192382812 19.6690521240234375 14.54433441162109375 13.806534767150878906 15.824644088745117188 14.015561103820800781 10.037465095520019531 9.3603830337524414062 9.9435739517211914062 9.7540340423583984375 9.8733644485473632812 11.070855140686035156 11.706876754760742188 13.576612472534179688 16.988927841186523438 19.125459671020507812 17.480579376220703125 13.020849227905273438 8.7475175857543945312 3.8542916774749755859 8.2015695571899414062 22.604955673217773438 28.60174560546875 26.8946990966796875 25.438386917114257812 24.932346343994140625 26.930032730102539062 29.308591842651367188 32.427402496337890625 32.042285919189453125 30.125896453857421875 28.049701690673828125 25.190179824829101562 22.493144989013671875 19.812356948852539062 14.048169136047363281 8.100276947021484375 21.303195953369140625 32.366374969482421875 35.602245330810546875 34.35140228271484375 30.886678695678710938 30.895933151245117188 30.865823745727539062 27.507045745849609375 23.680517196655273438 22.1022796630859375 -9999 
-9999 35.30987548828125 25.256814956665039062 13.340732574462890625 12.239488601684570312 17.244709014892578125 16.386705398559570312 13.321292877197265625 13.002501487731933594 14.753500938415527344 13.587476730346679688 14.715081214904785156 15.4068756103515625 9.65593719482421875 6.2623181343078613281 7.0191507339477539062 10.398968696594238281 13.524970054626464844 15.459865570068359375 15.775246620178222656 14.901913642883300781 14.061639785766601562 15.574789047241210938 19.891674041748046875 24.879627227783203125 28.6856231689453125 30.013174057006835938 31.413288116455078125 33.446140289306640625 31.685161590576171875 25.662784576416015625 19.746196746826171875 20.903972625732421875 26.507396697998046875 28.171304702758789062 28.598005294799804688 25.080392837524414062 21.279829025268554688 20.043460845947265625 19.445920944213867188 19.625118255615234375 19.798267364501953125 20.753023147583007812 23.016630172729492188 17.905765533447265625 0.58407229185104370117 16.790252685546875 14.520143508911132812 6.1973428726196289062 6.0520710945129394531 7.2415180206298828125 7.8855814933776855469 10.032533645629882812 12.770604133605957031 13.095978736877441406 12.252737998962402344 11.930324554443359375 11.341780662536621094 11.032222747802734375 11.939615249633789062 13.950750350952148438 17.132411956787109375 24.227834701538085938 31.950887680053710938 33.61814117431640625 31.619626998901367188 31.744455337524414062 33.637928009033203125 35.403766632080078125 35.2135772705078125 33.530017852783203125 33.8823699951171875 36.270046234130859375 37.895481109619140625 35.671756744384765625 32.193355560302734375 32.0030975341796875 31.992052078247070312 30.7763214111328125 31.0101776123046875 30.845703125 26.498517990112304688 18.672254562377929688 11.542878150939941406 7.4355144500732421875 5.4971413612365722656 4.9652342796325683594 7.3067917823791503906 9.34085845947265625 10.68233489990234375 13.248539924621582031 13.446015357971191406 10.287766456604003906 8.1133680343627929688 10.296498298645019531 15.16283416748046875 14.640735626220703125 13.272742271423339844 12.815448760986328125 12.249186515808105469 13.976938247680664062 14.385515213012695312 11.561941146850585938 9.1351318359375 8.4730596542358398438 8.53157806396484375 11.218043327331542969 13.692297935485839844 8.6939935684204101562 7.2639064788818359375 17.323602676391601562 18.0630950927734375 16.82251739501953125 16.026220321655273438 15.367143630981445312 14.366679191589355469 9.5164899826049804688 5.4595875740051269531 7.2529597282409667969 8.6919469833374023438 6.5787224769592285156 6.1475610733032226562 7.2419600486755371094 5.4365391731262207031 6.0677990913391113281 13.533396720886230469 23.9572906494140625 29.308994293212890625 24.135301589965820312 15.719448089599609375 13.478304862976074219 14.403177261352539062 11.545369148254394531 7.5206542015075683594 7.4167504310607910156 8.8120946884155273438 9.3167743682861328125 9.6472063064575195312 9.9614238739013671875 9.9945831298828125 12.080431938171386719 14.805206298828125 15.337965965270996094 11.610848426818847656 4.5749483108520507812 4.1590609550476074219 11.105838775634765625 16.707004547119140625 24.272348403930664062 28.664655685424804688 26.40876007080078125 22.010496139526367188 18.136285781860351562 21.534942626953125 26.520738601684570312 29.2703094482421875 27.74677276611328125 24.523408889770507812 22.00421142578125 19.844507217407226562 16.847761154174804688 11.491559982299804688 12.632348060607910156 22.91954803466796875 30.604619979858398438 33.169742584228515625 32.01760101318359375 29.109144210815429688 24.120435714721679688 22.252954483032226562 22.148687362670898438 20.036769866943359375 19.637918472290039062 21.437976837158203125 -9999 
-9999 31.001918792724609375 22.050189971923828125 11.052350044250488281 13.829010009765625 14.01068115234375 12.933926582336425781 13.548245429992675781 16.4359893798828125 19.536336898803710938 19.257925033569335938 19.57769775390625 19.215181350708007812 14.003432273864746094 9.667331695556640625 11.789957046508789062 16.3632049560546875 18.892305374145507812 18.87264251708984375 18.83103179931640625 19.054719924926757812 19.109035491943359375 19.504762649536132812 21.855813980102539062 26.294103622436523438 31.049913406372070312 32.79232025146484375 33.4447479248046875 34.95409393310546875 34.0545196533203125 31.482391357421875 28.00701904296875 20.508451461791992188 18.692211151123046875 24.727085113525390625 26.959140777587890625 24.330503463745117188 22.748926162719726562 22.415393829345703125 20.635877609252929688 19.659597396850585938 19.682096481323242188 19.899351119995117188 21.4575042724609375 15.309762001037597656 2.8094944953918457031 16.343755722045898438 14.055751800537109375 7.1805644035339355469 6.8519878387451171875 6.9297623634338378906 7.4483423233032226562 10.269046783447265625 12.786383628845214844 13.298426628112792969 12.906606674194335938 11.46514892578125 10.003403663635253906 10.648359298706054688 12.240713119506835938 13.697589874267578125 15.95383453369140625 21.924480438232421875 29.671947479248046875 32.444316864013671875 30.934873580932617188 30.77849578857421875 33.02988433837890625 35.972721099853515625 36.371616363525390625 34.283237457275390625 34.78270721435546875 38.270732879638671875 37.743144989013671875 33.767147064208984375 32.476894378662109375 33.315158843994140625 33.37017059326171875 32.4069061279296875 31.572582244873046875 30.393377304077148438 26.2203369140625 19.81505584716796875 15.294475555419921875 11.869787216186523438 8.6602268218994140625 3.9492616653442382812 2.8795404434204101562 4.4380769729614257812 5.4789299964904785156 11.156985282897949219 10.108506202697753906 6.71114349365234375 6.3288679122924804688 7.8990216255187988281 12.713129043579101562 15.120430946350097656 15.037706375122070312 13.207964897155761719 11.710996627807617188 14.615796089172363281 15.365365982055664062 9.7920312881469726562 5.2263655662536621094 3.6776459217071533203 6.8125348091125488281 9.5084400177001953125 9.9686222076416015625 10.601447105407714844 4.4915938377380371094 12.224621772766113281 16.233915328979492188 16.160211563110351562 16.5370330810546875 17.637359619140625 16.303606033325195312 10.538117408752441406 5.2572488784790039062 6.8630313873291015625 10.272639274597167969 9.4121351242065429688 9.9167299270629882812 9.36336517333984375 6.6797876358032226562 2.1467866897583007812 6.6289567947387695312 19.173107147216796875 29.843173980712890625 30.053955078125 22.1821441650390625 15.834657669067382812 14.112988471984863281 10.365132331848144531 5.2389802932739257812 5.7631702423095703125 9.094287872314453125 11.48395538330078125 12.132068634033203125 11.402856826782226562 11.463198661804199219 13.938406944274902344 14.765791893005371094 10.923377037048339844 2.1340804100036621094 9.4198513031005859375 14.901127815246582031 19.95294952392578125 24.121248245239257812 27.457477569580078125 28.520147323608398438 25.321390151977539062 21.779027938842773438 17.385812759399414062 16.901819229125976562 20.866868972778320312 22.850873947143554688 21.11968994140625 18.680616378784179688 17.122480392456054688 15.258741378784179688 10.792265892028808594 14.905446052551269531 25.8982086181640625 31.047029495239257812 31.683277130126953125 30.80327606201171875 28.837915420532226562 25.716037750244140625 18.67974853515625 13.252444267272949219 16.934030532836914062 22.067737579345703125 24.505573272705078125 24.479227066040039062 -9999 
-9999 25.839168548583984375 16.918012619018554688 11.861166000366210938 12.994350433349609375 9.244281768798828125 9.0248689651489257812 13.008221626281738281 17.4504852294921875 21.849405288696289062 23.586399078369140625 24.443668365478515625 22.339513778686523438 19.138101577758789062 15.274300575256347656 13.155707359313964844 13.749635696411132812 16.845735549926757812 17.101560592651367188 17.473596572875976562 19.42156219482421875 19.9780731201171875 18.618326187133789062 17.327329635620117188 18.62518310546875 24.608785629272460938 30.7137603759765625 33.735015869140625 33.93531036376953125 32.55863189697265625 31.044830322265625 30.009214401245117188 26.95235443115234375 20.03690338134765625 16.222467422485351562 15.067471504211425781 12.959421157836914062 15.153040885925292969 18.557558059692382812 18.314619064331054688 18.786956787109375 19.096773147583007812 18.763387680053710938 19.559078216552734375 12.400111198425292969 3.9251244068145751953 14.802801132202148438 13.901203155517578125 8.9614400863647460938 7.7154355049133300781 7.0960154533386230469 7.7085976600646972656 10.092294692993164062 11.829004287719726562 12.500438690185546875 12.495458602905273438 11.753659248352050781 11.326375007629394531 12.238445281982421875 13.052866935729980469 13.629403114318847656 15.468593597412109375 19.73554229736328125 25.967054367065429688 29.961187362670898438 30.164325714111328125 29.2710723876953125 29.814115524291992188 32.689327239990234375 34.891590118408203125 34.612400054931640625 36.83007049560546875 40.182453155517578125 37.247173309326171875 32.093475341796875 32.0654144287109375 32.672992706298828125 32.231235504150390625 31.853240966796875 30.589723587036132812 28.6328277587890625 24.404909133911132812 20.092784881591796875 18.465448379516601562 15.136518478393554688 11.535746574401855469 9.5639371871948242188 8.081203460693359375 6.98065185546875 7.1158671379089355469 13.201914787292480469 11.009448051452636719 1.3286179304122924805 4.6725659370422363281 7.6296472549438476562 11.602914810180664062 14.600169181823730469 14.280453681945800781 11.993054389953613281 11.056427001953125 14.527057647705078125 12.703487396240234375 4.6536335945129394531 5.1474680900573730469 5.234149932861328125 8.5916748046875 10.68584442138671875 10.280492782592773438 12.094083786010742188 9.0632610321044921875 8.4066791534423828125 12.997128486633300781 15.596017837524414062 17.93241119384765625 19.28636932373046875 18.217973709106445312 12.853306770324707031 6.713592529296875 6.5892419815063476562 10.20223236083984375 10.733979225158691406 9.0194635391235351562 8.4064159393310546875 8.53539276123046875 4.8463673591613769531 2.2718958854675292969 11.510062217712402344 24.879449844360351562 31.835666656494140625 28.878200531005859375 20.65483856201171875 15.102620124816894531 10.7512969970703125 5.8078179359436035156 7.1570606231689453125 11.331847190856933594 15.126688957214355469 16.588726043701171875 16.222026824951171875 16.61643218994140625 18.287567138671875 16.311435699462890625 7.9732060432434082031 8.4138479232788085938 17.500936508178710938 20.361867904663085938 22.041784286499023438 25.600427627563476562 28.806781768798828125 28.90859222412109375 24.71688079833984375 20.44281005859375 18.635961532592773438 17.02310943603515625 17.419443130493164062 17.822725296020507812 15.624654769897460938 12.9429168701171875 11.278914451599121094 11.642924308776855469 14.804607391357421875 25.449779510498046875 31.988994598388671875 32.590763092041015625 31.160429000854492188 30.317422866821289062 28.744897842407226562 24.150007247924804688 14.555497169494628906 14.423638343811035156 22.012577056884765625 26.321887969970703125 26.685604095458984375 23.934572219848632812 -9999 
-9999 19.346164703369140625 10.649099349975585938 15.029895782470703125 15.618149757385253906 12.738194465637207031 12.610053062438964844 13.541878700256347656 15.330517768859863281 19.298067092895507812 23.202045440673828125 24.988378524780273438 21.77027130126953125 19.624162673950195312 16.78714752197265625 10.313015937805175781 8.0366411209106445312 12.338342666625976562 13.380324363708496094 14.096749305725097656 17.998327255249023438 20.6858062744140625 20.441804885864257812 17.541791915893554688 16.847139358520507812 23.533559799194335938 31.10236358642578125 33.5648956298828125 32.002399444580078125 30.969404220581054688 31.149234771728515625 30.653181076049804688 29.034959793090820312 26.421064376831054688 22.786712646484375 18.270761489868164062 17.099931716918945312 19.897500991821289062 18.214351654052734375 13.349884033203125 14.140026092529296875 15.250223159790039062 16.3799591064453125 17.880346298217773438 9.7723932266235351562 4.8239035606384277344 13.071543693542480469 13.160288810729980469 9.90000152587890625 8.2037286758422851562 7.7790131568908691406 8.3231363296508789062 9.7301158905029296875 11.139926910400390625 12.239648818969726562 11.717210769653320312 10.435175895690917969 10.975949287414550781 12.869525909423828125 14.119184494018554688 14.851700782775878906 15.975354194641113281 18.091527938842773438 22.553087234497070312 27.541147232055664062 30.18555450439453125 30.664041519165039062 29.10697174072265625 28.48680877685546875 33.03436279296875 36.346332550048828125 37.8382720947265625 38.880146026611328125 36.33795166015625 32.925403594970703125 32.77410125732421875 33.224578857421875 32.567691802978515625 31.720348358154296875 28.585697174072265625 23.734203338623046875 21.126852035522460938 20.9590911865234375 20.948949813842773438 16.672405242919921875 14.984408378601074219 15.775778770446777344 15.448709487915039062 14.152231216430664062 13.277083396911621094 17.226457595825195312 16.802663803100585938 8.1521368026733398438 3.8720109462738037109 7.1177811622619628906 10.898778915405273438 13.64795684814453125 14.515981674194335938 13.014521598815917969 10.966315269470214844 11.036580085754394531 5.9754381179809570312 5.3821687698364257812 9.0889978408813476562 8.0422334671020507812 10.263956069946289062 12.139606475830078125 12.031839370727539062 12.73227691650390625 10.489369392395019531 7.3406586647033691406 11.07689666748046875 15.230658531188964844 18.138341903686523438 19.744703292846679688 20.5764312744140625 17.176151275634765625 10.834589958190917969 7.2964010238647460938 8.1040410995483398438 9.2862386703491210938 7.2546143531799316406 7.0642552375793457031 9.568485260009765625 8.5819606781005859375 3.6793446540832519531 6.1026759147644042969 18.671154022216796875 29.784412384033203125 33.4492645263671875 30.195970535278320312 23.091642379760742188 16.487987518310546875 12.16379547119140625 11.914205551147460938 14.277894020080566406 16.382549285888671875 17.801832199096679688 18.54640960693359375 19.343107223510742188 18.597307205200195312 12.354704856872558594 9.1924648284912109375 17.700862884521484375 21.981039047241210938 22.524473190307617188 22.844890594482421875 24.926126480102539062 26.219638824462890625 24.587083816528320312 20.014165878295898438 16.71308135986328125 16.90467071533203125 17.351270675659179688 16.161449432373046875 12.802014350891113281 8.84870147705078125 9.7549304962158203125 14.160190582275390625 18.205282211303710938 21.187808990478515625 28.01325225830078125 30.861705780029296875 30.297765731811523438 30.3955841064453125 30.35483551025390625 27.45546722412109375 18.79502105712890625 12.403285980224609375 20.373521804809570312 25.8146209716796875 28.272886276245117188 27.2335662841796875 22.02082061767578125 -9999 
-9999 12.335592269897460938 12.729827880859375 19.0193634033203125 20.129175186157226562 19.553342819213867188 17.169782638549804688 14.059617042541503906 13.070420265197753906 15.764598846435546875 21.485372543334960938 24.34629058837890625 20.670429229736328125 18.063375473022460938 17.490842819213867188 10.935805320739746094 5.5455350875854492188 8.5500621795654296875 11.647566795349121094 12.677943229675292969 15.384305953979492188 20.445447921752929688 23.4849853515625 21.078580856323242188 19.608667373657226562 24.689485549926757812 28.68878936767578125 29.860811233520507812 30.907817840576171875 33.8215484619140625 36.88233184814453125 36.673740386962890625 33.405498504638671875 31.181468963623046875 29.584920883178710938 23.501920700073242188 17.682783126831054688 19.870027542114257812 20.908481597900390625 17.040563583374023438 15.918534278869628906 17.91387176513671875 20.836469650268554688 20.662689208984375 9.8620319366455078125 4.5760135650634765625 12.211683273315429688 13.234457015991210938 10.348543167114257812 8.159698486328125 7.7121043205261230469 8.196044921875 9.5310201644897460938 11.320527076721191406 12.753518104553222656 11.58310699462890625 9.8354473114013671875 10.704230308532714844 12.822019577026367188 14.619182586669921875 15.323526382446289062 15.646754264831542969 17.698186874389648438 23.017984390258789062 29.801662445068359375 34.18590545654296875 35.064701080322265625 32.14643096923828125 28.721483230590820312 30.959844589233398438 35.01770782470703125 36.359752655029296875 36.16921234130859375 34.97248077392578125 34.273014068603515625 34.049518585205078125 34.336406707763671875 33.492656707763671875 31.746953964233398438 25.912385940551757812 17.728036880493164062 18.725568771362304688 22.503335952758789062 22.760419845581054688 19.440809249877929688 18.760885238647460938 19.727991104125976562 19.825567245483398438 18.298936843872070312 17.06853485107421875 19.81510162353515625 21.160076141357421875 15.883349418640136719 10.913858413696289062 9.1237773895263671875 8.0175752639770507812 8.287715911865234375 11.582174301147460938 12.536388397216796875 9.8152723312377929688 5.84526824951171875 0.21717795729637145996 7.343296051025390625 9.77374267578125 8.7344045639038085938 10.737273216247558594 12.705971717834472656 12.532422065734863281 12.026647567749023438 10.686358451843261719 7.9475202560424804688 10.940402030944824219 15.169244766235351562 17.393594741821289062 18.391370773315429688 19.958574295043945312 19.251560211181640625 14.655416488647460938 8.2651834487915039062 6.9209322929382324219 9.4446401596069335938 9.7402324676513671875 8.8482751846313476562 11.569471359252929688 11.043292999267578125 6.3994431495666503906 1.626665949821472168 10.161836624145507812 21.154520034790039062 30.069375991821289062 34.821346282958984375 32.318180084228515625 23.720659255981445312 16.0686798095703125 13.288338661193847656 13.430878639221191406 14.7244415283203125 16.568088531494140625 17.747808456420898438 15.253703117370605469 7.3803644180297851562 6.76610565185546875 18.202135086059570312 23.873304367065429688 24.794530868530273438 24.326206207275390625 23.958723068237304688 24.044744491577148438 21.95000457763671875 18.289499282836914062 14.3489532470703125 12.946153640747070312 14.260756492614746094 14.380716323852539062 11.1356201171875 10.42305755615234375 18.018970489501953125 24.337432861328125 25.956111907958984375 24.2309722900390625 21.545404434204101562 25.2178802490234375 28.023664474487304688 26.5983428955078125 26.714862823486328125 25.910329818725585938 20.13138580322265625 11.781809806823730469 19.110858917236328125 25.412523269653320312 28.163385391235351562 29.0457611083984375 26.059478759765625 18.024198532104492188 -9999 
-9999 12.976941108703613281 21.4458770751953125 23.527555465698242188 22.476226806640625 21.50547027587890625 18.551988601684570312 14.963601112365722656 12.890909194946289062 14.009246826171875 18.218847274780273438 21.638505935668945312 20.052394866943359375 16.995502471923828125 16.585653305053710938 13.433852195739746094 8.0467376708984375 7.3873820304870605469 11.037023544311523438 11.764554977416992188 12.707708358764648438 18.843862533569335938 23.560712814331054688 22.152864456176757812 20.847034454345703125 23.439416885375976562 27.216037750244140625 32.35048675537109375 34.770748138427734375 35.65000152587890625 37.70343017578125 37.6092681884765625 32.65276336669921875 28.547733306884765625 29.349336624145507812 27.462568283081054688 19.895265579223632812 16.965204238891601562 17.831394195556640625 15.420081138610839844 12.024000167846679688 13.864027976989746094 20.982654571533203125 22.830242156982421875 12.715379714965820312 2.5573427677154541016 12.524756431579589844 14.434062004089355469 10.395090103149414062 8.1513843536376953125 7.7754917144775390625 8.319610595703125 10.340500831604003906 13.151478767395019531 13.665493011474609375 10.196358680725097656 8.3132915496826171875 10.196763038635253906 12.677243232727050781 14.438755989074707031 15.070233345031738281 15.449779510498046875 18.27887725830078125 25.16863250732421875 32.180248260498046875 35.06945037841796875 34.255344390869140625 31.363019943237304688 26.026683807373046875 26.311925888061523438 32.573421478271484375 36.33365631103515625 35.999561309814453125 34.51482391357421875 35.417728424072265625 35.84583282470703125 34.90055084228515625 32.505222320556640625 29.695329666137695312 23.068445205688476562 15.9678192138671875 17.76334381103515625 21.915750503540039062 22.2964630126953125 21.083395004272460938 20.176502227783203125 20.073089599609375 20.561967849731445312 19.474760055541992188 17.68304443359375 19.373355865478515625 21.7933197021484375 19.278741836547851562 16.526781082153320312 13.842383384704589844 8.6644411087036132812 3.1878383159637451172 3.0781695842742919922 6.5753130912780761719 5.4023261070251464844 2.3900587558746337891 3.5566995143890380859 7.102748870849609375 8.994457244873046875 10.188912391662597656 11.775600433349609375 12.468217849731445312 11.658707618713378906 10.523088455200195312 10.380801200866699219 7.8933844566345214844 10.056731224060058594 14.617122650146484375 16.477294921875 17.067317962646484375 17.578716278076171875 18.151912689208984375 16.973066329956054688 11.362397193908691406 9.8868618011474609375 12.328107833862304688 13.57561492919921875 13.233138084411621094 14.776423454284667969 13.751458168029785156 9.431560516357421875 3.5212144851684570312 4.1108708381652832031 11.186045646667480469 18.865825653076171875 27.733686447143554688 32.271617889404296875 27.851362228393554688 18.85504150390625 13.044851303100585938 11.760736465454101562 16.126644134521484375 18.385972976684570312 17.334880828857421875 11.325168609619140625 12.448919296264648438 21.095384597778320312 25.834636688232421875 26.819858551025390625 26.5391693115234375 24.976461410522460938 22.504148483276367188 20.412927627563476562 16.384183883666992188 12.891939163208007812 10.820719718933105469 9.5027608871459960938 7.7964806556701660156 10.6032867431640625 18.812496185302734375 26.139280319213867188 31.107786178588867188 32.5525970458984375 31.077661514282226562 26.832019805908203125 21.126941680908203125 23.802967071533203125 28.90769195556640625 27.220876693725585938 24.913457870483398438 20.1637725830078125 10.768439292907714844 16.716197967529296875 26.832818984985351562 28.897024154663085938 29.504331588745117188 27.542028427124023438 20.415691375732421875 11.781155586242675781 -9999 
-9999 24.326421737670898438 30.091541290283203125 27.404582977294921875 22.60832977294921875 18.74863433837890625 16.478816986083984375 15.12493133544921875 14.223443984985351562 15.185669898986816406 16.485044479370117188 17.197671890258789062 17.850801467895507812 17.187963485717773438 15.829253196716308594 14.319355010986328125 11.738013267517089844 9.0951318740844726562 11.334050178527832031 11.937022209167480469 12.488208770751953125 18.2780914306640625 21.68799591064453125 20.862333297729492188 19.321750640869140625 18.373796463012695312 21.58060455322265625 26.358621597290039062 28.164644241333007812 28.869518280029296875 32.49555206298828125 34.061107635498046875 29.721357345581054688 26.453184127807617188 30.5896453857421875 31.833189010620117188 24.221300125122070312 18.902040481567382812 17.966699600219726562 15.539042472839355469 11.369236946105957031 10.898736953735351562 17.934467315673828125 22.921773910522460938 17.026866912841796875 2.0082309246063232422 12.042718887329101562 15.6254119873046875 10.476771354675292969 8.459598541259765625 9.0206127166748046875 10.037649154663085938 12.356341361999511719 15.737285614013671875 15.463341712951660156 11.135170936584472656 9.30660247802734375 9.3445215225219726562 10.679567337036132812 12.090358734130859375 14.059779167175292969 15.641469001770019531 18.709026336669921875 25.139997482299804688 30.9741668701171875 33.888172149658203125 33.693973541259765625 32.69963836669921875 29.2782745361328125 27.032938003540039062 31.784078598022460938 36.98651885986328125 37.43547821044921875 35.83233642578125 37.206390380859375 37.9500274658203125 34.603153228759765625 29.488557815551757812 26.527904510498046875 21.464529037475585938 16.889247894287109375 17.693574905395507812 19.41291046142578125 19.375942230224609375 20.059980392456054688 19.53720855712890625 18.523044586181640625 18.913190841674804688 18.730756759643554688 16.9683990478515625 18.048540115356445312 20.717876434326171875 20.248796463012695312 19.013372421264648438 15.85196685791015625 9.761749267578125 6.7296581268310546875 5.5879349708557128906 5.9448490142822265625 5.6023917198181152344 4.1854262351989746094 5.0101418495178222656 6.5397167205810546875 8.8859996795654296875 11.825854301452636719 13.044142723083496094 12.216725349426269531 10.9302520751953125 9.6045370101928710938 10.447569847106933594 8.1062030792236328125 8.6141500473022460938 13.553097724914550781 15.347252845764160156 16.29528045654296875 16.318326950073242188 16.826202392578125 17.650945663452148438 14.067511558532714844 12.278528213500976562 12.988946914672851562 13.893805503845214844 14.8853759765625 15.840776443481445312 14.88800048828125 11.168410301208496094 4.9968328475952148438 1.8577754497528076172 6.6976137161254882812 11.589350700378417969 18.469053268432617188 24.754575729370117188 28.212879180908203125 27.1631317138671875 21.356433868408203125 17.068141937255859375 20.695337295532226562 20.571756362915039062 16.072336196899414062 19.74192047119140625 21.613058090209960938 22.88076019287109375 24.392107009887695312 25.161230087280273438 24.71448516845703125 21.485998153686523438 17.891351699829101562 15.476773262023925781 11.085468292236328125 8.2613468170166015625 7.0089602470397949219 7.7091197967529296875 16.725940704345703125 25.373968124389648438 29.48113250732421875 31.8390960693359375 33.352153778076171875 31.991907119750976562 30.594837188720703125 27.214567184448242188 21.751003265380859375 26.171918869018554688 31.178295135498046875 28.980091094970703125 22.405347824096679688 13.802354812622070312 13.792776107788085938 23.794462203979492188 29.825193405151367188 29.3127899169921875 27.94696044921875 21.7402801513671875 10.819817543029785156 13.847593307495117188 -9999 
-9999 34.406795501708984375 33.880950927734375 28.083831787109375 22.816663742065429688 17.179330825805664062 13.460109710693359375 12.917993545532226562 14.265406608581542969 16.657350540161132812 17.939373016357421875 15.169253349304199219 14.9507904052734375 17.492311477661132812 16.612977981567382812 14.589989662170410156 14.434611320495605469 13.515264511108398438 14.156267166137695312 14.026213645935058594 13.575245857238769531 16.694856643676757812 18.72077178955078125 18.69551849365234375 16.21662139892578125 14.892445564270019531 16.660173416137695312 23.004878997802734375 28.5102691650390625 30.792816162109375 32.6766510009765625 33.498600006103515625 31.080686569213867188 29.617078781127929688 32.520977020263671875 32.826030731201171875 25.9423675537109375 19.257177352905273438 15.865932464599609375 13.183924674987792969 8.8725299835205078125 6.7287511825561523438 13.939928054809570312 22.61220550537109375 21.175661087036132812 7.50408172607421875 9.0585279464721679688 15.953664779663085938 11.365990638732910156 8.1713075637817382812 9.5276689529418945312 12.041405677795410156 13.97899627685546875 16.825700759887695312 16.797529220581054688 12.208616256713867188 10.589092254638671875 10.901778221130371094 10.669477462768554688 9.9866123199462890625 12.216129302978515625 16.001306533813476562 19.752977371215820312 25.41973114013671875 29.373220443725585938 31.985486984252929688 32.851276397705078125 32.98822784423828125 31.850809097290039062 27.219800949096679688 26.926092147827148438 33.61678314208984375 37.05054473876953125 37.2293701171875 38.45459747314453125 39.30931854248046875 35.895656585693359375 30.883045196533203125 27.745517730712890625 22.451595306396484375 18.433961868286132812 18.682851791381835938 18.298625946044921875 18.3684234619140625 19.851154327392578125 20.353742599487304688 19.105899810791015625 17.782045364379882812 17.216516494750976562 16.306743621826171875 16.94235992431640625 19.063873291015625 20.433950424194335938 19.9311065673828125 15.604358673095703125 7.8512735366821289062 6.6291255950927734375 10.019914627075195312 11.037441253662109375 9.5345821380615234375 7.6411924362182617188 6.757671356201171875 6.9954013824462890625 9.8883123397827148438 12.555695533752441406 12.662950515747070312 11.383543014526367188 10.351042747497558594 9.2854785919189453125 10.841167449951171875 9.1283979415893554688 8.0456686019897460938 13.616455078125 15.585654258728027344 16.189027786254882812 15.638078689575195312 15.148149490356445312 15.882256507873535156 14.055589675903320312 12.383866310119628906 12.188305854797363281 12.745181083679199219 15.494970321655273438 16.755491256713867188 15.977323532104492188 12.800314903259277344 6.7430748939514160156 1.9345722198486328125 4.2541837692260742188 9.9470262527465820312 15.311002731323242188 14.098505020141601562 18.7595062255859375 26.950059890747070312 28.46355438232421875 26.693370819091796875 25.197132110595703125 20.045322418212890625 16.321720123291015625 26.11937713623046875 27.384347915649414062 27.84917449951171875 27.519321441650390625 23.997158050537109375 20.302911758422851562 15.790169715881347656 12.994044303894042969 10.615856170654296875 8.44913482666015625 10.673520088195800781 16.577825546264648438 24.853130340576171875 31.89703369140625 33.167179107666015625 31.225582122802734375 31.3392791748046875 32.5755462646484375 30.429162979125976562 30.662683486938476562 28.670652389526367188 24.8092803955078125 29.549795150756835938 31.778667449951171875 26.648797988891601562 14.261698722839355469 14.079908370971679688 21.561891555786132812 27.058870315551757812 29.914386749267578125 27.887582778930664062 24.160081863403320312 14.712609291076660156 14.261477470397949219 22.063385009765625 -9999 
-9999 36.288639068603515625 30.758056640625 25.874032974243164062 24.556951522827148438 20.098758697509765625 15.427219390869140625 13.579001426696777344 14.353325843811035156 16.879032135009765625 19.515810012817382812 16.18332672119140625 12.703001022338867188 16.086793899536132812 17.666933059692382812 15.1028900146484375 15.237539291381835938 17.333642959594726562 17.743822097778320312 16.126878738403320312 14.638052940368652344 14.362352371215820312 14.542266845703125 15.39673614501953125 13.423040390014648438 14.052926063537597656 18.808668136596679688 25.860660552978515625 31.505064010620117188 33.570865631103515625 33.944889068603515625 34.685878753662109375 33.783966064453125 31.904550552368164062 31.768199920654296875 30.33336639404296875 24.3673248291015625 18.15484619140625 13.875084877014160156 10.705797195434570312 6.7457051277160644531 4.0151333808898925781 8.9570751190185546875 20.236602783203125 23.656002044677734375 12.9106597900390625 4.1378984451293945312 14.769677162170410156 11.97267913818359375 7.8227238655090332031 10.559267997741699219 13.354833602905273438 14.099672317504882812 16.283830642700195312 17.291439056396484375 14.324473381042480469 11.410440444946289062 9.97652435302734375 10.357243537902832031 10.470147132873535156 11.613995552062988281 15.353603363037109375 20.212087631225585938 26.414037704467773438 30.366071701049804688 33.10626220703125 35.208560943603515625 36.131610870361328125 36.12750244140625 30.5036773681640625 24.765611648559570312 26.3748626708984375 32.56139373779296875 35.90123748779296875 37.471405029296875 37.972301483154296875 35.6308746337890625 31.799367904663085938 27.438747406005859375 22.4691162109375 20.17517852783203125 19.687953948974609375 19.921539306640625 20.93170166015625 20.822896957397460938 19.615688323974609375 17.798915863037109375 16.286912918090820312 16.4748992919921875 16.927661895751953125 17.303134918212890625 19.043626785278320312 20.84930419921875 19.642408370971679688 14.461230278015136719 5.3883504867553710938 6.6124978065490722656 11.176418304443359375 13.576409339904785156 13.215728759765625 12.224378585815429688 11.396848678588867188 10.254129409790039062 9.9007062911987304688 10.635560989379882812 11.204440116882324219 10.60732269287109375 9.6892766952514648438 9.544612884521484375 12.047747611999511719 11.319120407104492188 7.5804295539855957031 13.624296188354492188 16.759836196899414062 17.383287429809570312 16.265390396118164062 13.782375335693359375 12.696912765502929688 13.183867454528808594 13.268368721008300781 11.958907127380371094 12.009134292602539062 17.582607269287109375 19.650281906127929688 18.010713577270507812 13.255578994750976562 7.5023331642150878906 3.9674756526947021484 3.0204374790191650391 9.3874874114990234375 14.8547515869140625 7.8928065299987792969 3.100627899169921875 11.174632072448730469 19.906667709350585938 24.157543182373046875 22.2316131591796875 15.844008445739746094 15.240273475646972656 25.387210845947265625 29.427450180053710938 32.961246490478515625 35.429630279541015625 31.017192840576171875 20.731782913208007812 11.86467742919921875 8.8743467330932617188 9.6161632537841796875 14.972699165344238281 23.059774398803710938 30.698122024536132812 34.93506622314453125 35.695766448974609375 33.53443145751953125 31.990388870239257812 31.674608230590820312 29.793182373046875 25.556337356567382812 28.024480819702148438 26.16546630859375 24.736162185668945312 29.36057281494140625 29.083492279052734375 20.038038253784179688 9.17092132568359375 19.252664566040039062 25.42368316650390625 29.105630874633789062 29.633790969848632812 24.774690628051757812 17.199382781982421875 14.301119804382324219 23.77744293212890625 27.975189208984375 -9999 
-9999 31.098949432373046875 23.436716079711914062 22.091291427612304688 23.919189453125 21.38698577880859375 18.330341339111328125 17.059865951538085938 16.518499374389648438 17.734670639038085938 20.403947830200195312 18.739969253540039062 10.801112174987792969 10.050160408020019531 15.868107795715332031 16.621973037719726562 17.207239151000976562 19.123447418212890625 19.907073974609375 18.588747024536132812 15.717219352722167969 11.495119094848632812 9.7736721038818359375 11.253450393676757812 10.130723953247070312 13.003493309020996094 20.481454849243164062 26.325927734375 31.00966644287109375 34.281398773193359375 36.0951385498046875 36.748279571533203125 34.972805023193359375 30.660696029663085938 28.15087890625 26.553262710571289062 22.378726959228515625 17.959669113159179688 13.432615280151367188 9.190837860107421875 6.09902191162109375 3.8571622371673583984 5.4668102264404296875 15.8625640869140625 24.069738388061523438 17.591043472290039062 1.4139031171798706055 13.214327812194824219 13.757075309753417969 10.902289390563964844 12.991326332092285156 12.751589775085449219 12.772825241088867188 15.4192962646484375 17.082868576049804688 15.018137931823730469 12.635986328125 10.443798065185546875 8.865154266357421875 9.8171796798706054688 12.798246383666992188 16.296316146850585938 19.868650436401367188 25.131994247436523438 29.997671127319335938 33.43603515625 35.9779815673828125 36.65245819091796875 36.7191009521484375 30.999917984008789062 25.153659820556640625 25.797960281372070312 27.117359161376953125 30.748350143432617188 34.50336456298828125 35.16196441650390625 32.9622955322265625 29.25054931640625 23.009990692138671875 21.903102874755859375 23.52147674560546875 23.025056838989257812 23.74462127685546875 22.733537673950195312 18.76727294921875 16.476526260375976562 17.566812515258789062 19.3752288818359375 19.933645248413085938 18.462026596069335938 17.80783843994140625 19.41614532470703125 19.917360305786132812 17.266809463500976562 12.911953926086425781 4.4339532852172851562 9.6567163467407226562 13.194477081298828125 14.627285003662109375 16.00153350830078125 15.863939285278320312 14.55059814453125 12.284581184387207031 8.1076755523681640625 6.5539617538452148438 10.067753791809082031 10.479991912841796875 9.3410930633544921875 9.9627094268798828125 13.449694633483886719 14.315928459167480469 8.0702800750732421875 11.368366241455078125 16.474710464477539062 18.512973785400390625 18.629957199096679688 14.75684356689453125 11.130268096923828125 13.537302017211914062 15.1884918212890625 13.203528404235839844 12.877855300903320312 18.884555816650390625 22.742074966430664062 21.106420516967773438 13.156401634216308594 9.302501678466796875 9.9611310958862304688 8.7539091110229492188 9.8416423797607421875 13.475549697875976562 7.8585453033447265625 3.7077853679656982422 4.1003570556640625 5.5438446998596191406 9.1157817840576171875 10.174869537353515625 9.4739675521850585938 11.864428520202636719 20.042783737182617188 25.570653915405273438 31.127130508422851562 35.850311279296875 33.8117523193359375 22.2106781005859375 11.004137039184570312 8.6484432220458984375 13.498471260070800781 22.99300384521484375 32.935588836669921875 37.336734771728515625 36.7558441162109375 34.088306427001953125 32.043941497802734375 33.1360931396484375 33.00769805908203125 26.788837432861328125 23.53505706787109375 25.288602828979492188 21.48946380615234375 21.502109527587890625 26.148569107055664062 22.959320068359375 10.713171958923339844 14.106515884399414062 23.738355636596679688 28.717363357543945312 30.839202880859375 27.458370208740234375 18.0144500732421875 12.614506721496582031 23.2334136962890625 30.057270050048828125 28.790800094604492188 -9999 
-9999 22.068952560424804688 17.321819305419921875 18.625394821166992188 21.625110626220703125 20.469118118286132812 17.505033493041992188 16.8509063720703125 16.622392654418945312 18.55091094970703125 22.672063827514648438 24.048215866088867188 15.100088119506835938 8.7025976181030273438 10.127146720886230469 15.116524696350097656 19.611173629760742188 21.358791351318359375 20.797498703002929688 19.506256103515625 15.935056686401367188 9.4386034011840820312 6.7627377510070800781 8.3325366973876953125 9.8226919174194335938 15.383626937866210938 21.387903213500976562 25.531192779541015625 27.559602737426757812 30.763452529907226562 35.605342864990234375 38.48529815673828125 37.889148712158203125 33.64557647705078125 29.243989944458007812 26.796863555908203125 24.105321884155273438 20.681348800659179688 14.701654434204101562 8.5533781051635742188 5.9140343666076660156 4.2037572860717773438 3.958087921142578125 10.854287147521972656 22.026113510131835938 21.065229415893554688 6.0407590866088867188 11.133704185485839844 16.333913803100585938 15.305795669555664062 13.897136688232421875 10.409426689147949219 10.847513198852539062 14.64141082763671875 16.7760467529296875 14.922669410705566406 12.848124504089355469 11.249677658081054688 9.7786865234375 10.596453666687011719 11.955303192138671875 13.649027824401855469 17.129404067993164062 22.457777023315429688 28.528079986572265625 33.3813323974609375 36.153606414794921875 36.963169097900390625 37.582668304443359375 34.312831878662109375 27.851694107055664062 27.5599517822265625 28.955188751220703125 28.664516448974609375 32.375576019287109375 35.123615264892578125 32.925037384033203125 24.48648834228515625 13.792241096496582031 21.929159164428710938 28.626422882080078125 27.822832107543945312 23.53925323486328125 19.38410186767578125 18.90323638916015625 20.446516036987304688 21.471437454223632812 21.57971954345703125 19.218505859375 15.458547592163085938 15.206142425537109375 18.059007644653320312 18.902231216430664062 15.882964134216308594 12.784953117370605469 8.87799072265625 14.774798393249511719 17.493646621704101562 17.501783370971679688 17.941745758056640625 17.984300613403320312 16.053869247436523438 12.831781387329101562 8.820285797119140625 4.5976290702819824219 8.81209564208984375 9.634098052978515625 8.6535959243774414062 10.20587158203125 14.088202476501464844 16.454549789428710938 11.183003425598144531 7.8935232162475585938 15.258885383605957031 18.668619155883789062 20.396272659301757812 17.138914108276367188 13.626082420349121094 15.764801979064941406 16.133626937866210938 14.570542335510253906 14.521119117736816406 18.814205169677734375 24.830640792846679688 24.357311248779296875 15.697681427001953125 15.507709503173828125 18.299076080322265625 17.496763229370117188 13.695850372314453125 11.536891937255859375 6.6660027503967285156 2.3754591941833496094 6.3016991615295410156 6.7390646934509277344 4.897960662841796875 3.2760627269744873047 4.7654232978820800781 8.9616270065307617188 20.53864288330078125 30.5310821533203125 33.6289520263671875 33.856784820556640625 30.875558853149414062 20.98123931884765625 10.893000602722167969 8.0629339218139648438 13.977166175842285156 26.566114425659179688 35.24277496337890625 35.0444183349609375 32.087779998779296875 29.218967437744140625 28.371580123901367188 30.29248046875 31.484148025512695312 28.871124267578125 30.2506103515625 29.605358123779296875 25.75945281982421875 24.65767669677734375 24.784832000732421875 15.582668304443359375 11.106319427490234375 22.025907516479492188 27.796175003051757812 30.226078033447265625 28.578779220581054688 20.330982208251953125 11.5735626220703125 19.731870651245117188 29.272169113159179688 29.2273406982421875 22.007131576538085938 -9999 
-9999 13.846590042114257812 15.035699844360351562 15.819208145141601562 18.814977645874023438 19.801313400268554688 17.165487289428710938 15.148686408996582031 14.789478302001953125 19.732717514038085938 27.49861907958984375 29.973127365112304688 21.6083984375 17.449108123779296875 15.019197463989257812 12.726691246032714844 19.331241607666015625 23.962741851806640625 21.594839096069335938 17.79205322265625 14.5803375244140625 8.5178918838500976562 5.5750403404235839844 8.9603672027587890625 14.280381202697753906 19.31154632568359375 23.14810943603515625 25.580480575561523438 24.592334747314453125 25.930206298828125 31.626092910766601562 35.998836517333984375 37.42154693603515625 35.475322723388671875 31.805494308471679688 28.959329605102539062 27.441827774047851562 26.07379150390625 19.190898895263671875 9.831974029541015625 6.0485596656799316406 4.0835194587707519531 3.8601679801940917969 7.7070326805114746094 18.087186813354492188 22.033689498901367188 9.8211240768432617188 9.3606319427490234375 19.098615646362304688 18.913152694702148438 13.452604293823242188 8.0912628173828125 9.0246028900146484375 13.8267364501953125 16.428560256958007812 14.676580429077148438 12.612476348876953125 11.070654869079589844 9.9270582199096679688 11.216055870056152344 12.515349388122558594 14.235869407653808594 17.91210174560546875 22.076890945434570312 27.985378265380859375 33.37937164306640625 35.6627655029296875 36.2200164794921875 36.761486053466796875 36.308948516845703125 34.441364288330078125 31.237735748291015625 27.58895111083984375 26.351222991943359375 28.26883697509765625 33.012699127197265625 31.085630416870117188 17.437192916870117188 12.009064674377441406 20.70304107666015625 25.445280075073242188 22.9142608642578125 19.923675537109375 23.711175918579101562 24.81224822998046875 22.575086593627929688 20.346698760986328125 18.183435440063476562 15.687026023864746094 14.16080474853515625 14.745344161987304688 17.679258346557617188 19.513591766357421875 16.959695816040039062 14.714426994323730469 15.688239097595214844 19.764673233032226562 21.003309249877929688 20.129606246948242188 18.791658401489257812 18.518735885620117188 16.712369918823242188 13.682430267333984375 11.562342643737792969 8.4491863250732421875 8.9594621658325195312 8.487842559814453125 7.8245477676391601562 10.559308052062988281 13.916745185852050781 16.730581283569335938 14.651846885681152344 6.2972965240478515625 13.282858848571777344 18.124416351318359375 20.107021331787109375 17.7874603271484375 15.950452804565429688 16.760408401489257812 15.102877616882324219 14.17710113525390625 14.395193099975585938 17.794918060302734375 24.918478012084960938 25.850206375122070312 21.41851043701171875 22.996791839599609375 24.494029998779296875 24.20684051513671875 20.180339813232421875 13.899473190307617188 6.4448418617248535156 4.4371280670166015625 6.9204583168029785156 6.6628584861755371094 5.7354230880737304688 4.7771010398864746094 3.6737439632415771484 7.7848906517028808594 24.303438186645507812 35.50997161865234375 34.458919525146484375 29.167718887329101562 24.987329483032226562 19.289125442504882812 11.4174957275390625 7.5275621414184570312 14.054846763610839844 28.194400787353515625 32.635334014892578125 24.468526840209960938 21.424465179443359375 22.60296630859375 23.002410888671875 23.018159866333007812 23.1863250732421875 25.57810211181640625 31.993396759033203125 34.09119415283203125 33.148998260498046875 31.827363967895507812 26.877681732177734375 17.123769760131835938 21.363489151000976562 27.164957046508789062 28.437414169311523438 27.44658660888671875 22.447723388671875 13.552007675170898438 14.873453140258789062 25.477848052978515625 28.695264816284179688 21.96468353271484375 14.274080276489257812 -9999 
-9999 13.054012298583984375 13.703203201293945312 13.899489402770996094 16.291677474975585938 19.682424545288085938 19.582147598266601562 15.72345733642578125 15.060389518737792969 21.561483383178710938 30.401281356811523438 33.793727874755859375 27.7479095458984375 22.575786590576171875 21.984563827514648438 14.883099555969238281 14.846217155456542969 24.024175643920898438 22.710271835327148438 15.588412284851074219 12.846753120422363281 8.2294549942016601562 4.8846225738525390625 11.662645339965820312 19.440029144287109375 22.037721633911132812 24.209840774536132812 25.274648666381835938 22.405332565307617188 22.106576919555664062 27.190946578979492188 30.9558258056640625 33.729244232177734375 36.30603790283203125 36.497707366943359375 33.356414794921875 29.35662078857421875 28.430112838745117188 23.344516754150390625 13.295842170715332031 7.4485669136047363281 4.32514190673828125 4.4650177955627441406 8.39980316162109375 15.951780319213867188 20.684864044189453125 11.550077438354492188 9.1566524505615234375 22.058263778686523438 20.59918975830078125 12.043139457702636719 6.7418498992919921875 7.8714089393615722656 13.358575820922851562 16.891160964965820312 14.692159652709960938 12.086999893188476562 10.76329803466796875 9.2354984283447265625 9.775119781494140625 11.156949996948242188 14.236700057983398438 19.129802703857421875 22.161426544189453125 27.6480865478515625 33.310070037841796875 35.06352996826171875 35.226703643798828125 35.817485809326171875 36.957897186279296875 37.013225555419921875 34.13146209716796875 27.597028732299804688 18.98459625244140625 18.757305145263671875 27.7755279541015625 30.230215072631835938 20.083822250366210938 20.1697845458984375 17.251867294311523438 20.69377899169921875 24.32654571533203125 26.532445907592773438 26.985082626342773438 23.635095596313476562 19.195903778076171875 16.301250457763671875 15.272608757019042969 15.92833709716796875 16.048290252685546875 15.43624114990234375 16.394456863403320312 17.326995849609375 14.735804557800292969 12.937142372131347656 17.430850982666015625 21.06109619140625 21.98313140869140625 20.785360336303710938 17.979181289672851562 16.92401123046875 16.305379867553710938 13.933711051940917969 12.468278884887695312 12.243360519409179688 11.268787384033203125 9.10434722900390625 8.7259359359741210938 11.974383354187011719 14.289977073669433594 16.316722869873046875 16.295534133911132812 7.8747167587280273438 9.8361177444458007812 16.224517822265625 18.33606719970703125 16.012094497680664062 15.744849205017089844 15.578721046447753906 14.467226982116699219 14.577616691589355469 13.812144279479980469 16.63671875 23.310918807983398438 25.25266265869140625 24.274923324584960938 24.836284637451171875 24.268039703369140625 24.205915451049804688 21.641618728637695312 15.284304618835449219 9.7153882980346679688 8.2542247772216796875 7.9762787818908691406 6.865909576416015625 7.0941567420959472656 6.8669962882995605469 4.3037314414978027344 8.2201719284057617188 24.8516082763671875 37.1426544189453125 34.86826324462890625 26.131872177124023438 23.2881927490234375 20.925235748291015625 13.867316246032714844 7.7253699302673339844 13.138910293579101562 27.748043060302734375 31.735490798950195312 20.751489639282226562 15.222982406616210938 17.631732940673828125 17.184600830078125 14.815287590026855469 11.113177299499511719 11.797892570495605469 19.4749908447265625 25.162769317626953125 28.370647430419921875 27.61515045166015625 21.533840179443359375 20.731542587280273438 28.095918655395507812 29.902469635009765625 27.349500656127929688 24.482013702392578125 18.2353057861328125 11.874250411987304688 18.568178176879882812 25.59897613525390625 22.201517105102539062 11.802202224731445312 13.112741470336914062 -9999 
-9999 12.573896408081054688 12.087657928466796875 13.547793388366699219 16.472059249877929688 21.661813735961914062 24.075006484985351562 22.156978607177734375 22.650928497314453125 26.382892608642578125 31.635789871215820312 35.27753448486328125 32.870128631591796875 23.48089599609375 23.481927871704101562 19.903522491455078125 11.715332984924316406 19.785394668579101562 23.0352630615234375 15.90056610107421875 11.994283676147460938 8.7366313934326171875 6.0327134132385253906 14.674632072448730469 22.739160537719726562 23.596630096435546875 24.191677093505859375 24.634233474731445312 20.927629470825195312 19.242603302001953125 23.237699508666992188 24.8237457275390625 25.158475875854492188 30.351591110229492188 36.876373291015625 37.979949951171875 32.903766632080078125 28.918207168579101562 23.992197036743164062 15.743762969970703125 10.486493110656738281 6.3885645866394042969 5.30774688720703125 10.135987281799316406 15.958657264709472656 19.094753265380859375 11.292760848999023438 9.8584308624267578125 23.885297775268554688 20.98793792724609375 10.842088699340820312 6.7064342498779296875 7.8593797683715820312 13.053525924682617188 17.365850448608398438 14.608579635620117188 11.446430206298828125 10.301679611206054688 8.7529087066650390625 9.3912305831909179688 10.928853988647460938 14.074635505676269531 18.821638107299804688 21.71652984619140625 26.962625503540039062 32.8460540771484375 34.614837646484375 34.7775115966796875 36.03757476806640625 36.141185760498046875 35.04109954833984375 34.89067840576171875 33.536495208740234375 28.014566421508789062 24.4798431396484375 30.026720046997070312 35.037227630615234375 30.224964141845703125 24.71804046630859375 16.516927719116210938 24.258220672607421875 27.950130462646484375 28.888185501098632812 27.444889068603515625 24.097421646118164062 20.677013397216796875 18.721063613891601562 18.092367172241210938 17.992828369140625 17.668605804443359375 16.71004486083984375 16.265108108520507812 14.9414215087890625 10.044475555419921875 6.9131021499633789062 14.251170158386230469 18.252344131469726562 20.413305282592773438 19.589807510375976562 15.902295112609863281 15.253864288330078125 16.430904388427734375 13.535120964050292969 11.263094902038574219 13.261538505554199219 13.368250846862792969 11.012386322021484375 9.9826765060424804688 13.229674339294433594 15.69416046142578125 16.866838455200195312 16.31671142578125 8.2079524993896484375 6.7842469215393066406 13.000459671020507812 15.619062423706054688 13.343091011047363281 14.8916015625 14.290235519409179688 15.204265594482421875 15.6910400390625 14.63694000244140625 15.87574005126953125 20.437520980834960938 22.664228439331054688 21.700304031372070312 20.849664688110351562 19.4251708984375 19.585199356079101562 19.633358001708984375 16.5801239013671875 12.789091110229492188 10.636747360229492188 9.8288717269897460938 9.2138652801513671875 9.7185802459716796875 7.8615293502807617188 2.5920855998992919922 8.3644933700561523438 22.20040130615234375 35.124446868896484375 35.159908294677734375 28.202707290649414062 25.518817901611328125 23.858934402465820312 18.149820327758789062 11.321606636047363281 12.227274894714355469 24.1987152099609375 31.41587066650390625 24.999372482299804688 16.965362548828125 13.031141281127929688 9.3133335113525390625 6.6840014457702636719 3.5059392452239990234 5.85031890869140625 8.0831470489501953125 8.528759002685546875 8.7569665908813476562 8.2818365097045898438 14.2799530029296875 22.59934234619140625 28.480295181274414062 29.240352630615234375 25.864477157592773438 22.711900711059570312 16.3040771484375 14.241723060607910156 20.242706298828125 21.352001190185546875 12.195894241333007812 4.7408542633056640625 14.400029182434082031 -9999 
-9999 15.007363319396972656 16.899717330932617188 20.235729217529296875 24.064397811889648438 28.796373367309570312 30.963207244873046875 30.290826797485351562 30.07408905029296875 32.112926483154296875 34.681182861328125 35.175846099853515625 34.445926666259765625 25.322742462158203125 22.421695709228515625 24.743577957153320312 17.322793960571289062 13.8541412353515625 19.499101638793945312 17.613649368286132812 12.998563766479492188 11.315327644348144531 12.172657012939453125 18.481456756591796875 24.189279556274414062 24.742034912109375 24.894079208374023438 25.509677886962890625 21.644138336181640625 18.31301116943359375 20.343992233276367188 21.645338058471679688 19.309356689453125 19.614526748657226562 30.072271347045898438 38.34452056884765625 35.99742889404296875 30.053522109985351562 23.957508087158203125 17.248210906982421875 14.525768280029296875 10.961842536926269531 7.3345084190368652344 11.102513313293457031 16.664897918701171875 19.08802032470703125 11.016106605529785156 10.130628585815429688 24.476434707641601562 21.94431304931640625 11.083478927612304688 6.6767549514770507812 7.7319416999816894531 11.81427001953125 15.745862960815429688 13.671239852905273438 11.514799118041992188 10.840888023376464844 9.8109197616577148438 10.688410758972167969 11.981867790222167969 14.422954559326171875 18.320285797119140625 20.987117767333984375 25.517297744750976562 31.606111526489257812 34.559154510498046875 35.848602294921875 37.045040130615234375 33.304134368896484375 31.31989288330078125 35.84915924072265625 37.8032379150390625 34.285274505615234375 30.400150299072265625 32.624786376953125 36.6420440673828125 33.510776519775390625 23.541675567626953125 17.8306884765625 24.866689682006835938 25.07077789306640625 26.133626937866210938 26.360982894897460938 25.448770523071289062 24.222599029541015625 21.706750869750976562 19.691274642944335938 19.971197128295898438 19.397603988647460938 18.479579925537109375 17.141344070434570312 14.186863899230957031 7.2204623222351074219 5.3286404609680175781 13.50366973876953125 16.6286773681640625 18.311708450317382812 16.727636337280273438 12.27454376220703125 14.205391883850097656 16.86670684814453125 13.418850898742675781 10.522030830383300781 12.901053428649902344 13.644781112670898438 12.117684364318847656 9.879802703857421875 13.307374000549316406 17.3423614501953125 18.017343521118164062 15.628485679626464844 7.2506251335144042969 6.1034984588623046875 9.7995100021362304688 11.450549125671386719 10.658566474914550781 13.538120269775390625 12.553857803344726562 14.767116546630859375 14.926123619079589844 14.177474021911621094 13.398871421813964844 15.141880989074707031 17.32289886474609375 15.574366569519042969 14.401601791381835938 14.02349090576171875 15.941544532775878906 18.61392974853515625 18.273080825805664062 14.880086898803710938 11.279294967651367188 10.389804840087890625 11.731156349182128906 13.349146842956542969 9.574390411376953125 3.0799491405487060547 6.4975495338439941406 19.05243682861328125 30.501178741455078125 31.050550460815429688 25.069091796875 22.646055221557617188 22.490613937377929688 19.9505615234375 16.174066543579101562 15.191784858703613281 18.770128250122070312 28.059465408325195312 28.67867279052734375 20.28279876708984375 9.1980133056640625 5.5653085708618164062 4.7881627082824707031 4.1565833091735839844 6.9405045509338378906 7.3631167411804199219 7.0339188575744628906 12.3055572509765625 20.597265243530273438 25.3921356201171875 26.171274185180664062 26.63848876953125 25.949541091918945312 22.434720993041992188 18.405652999877929688 13.689417839050292969 15.615691184997558594 18.749288558959960938 14.272110939025878906 2.5626056194305419922 10.05655670166015625 17.975641250610351562 -9999 
-9999 22.145746231079101562 25.095821380615234375 28.410243988037109375 32.236843109130859375 34.9037628173828125 34.48911285400390625 33.04140472412109375 32.4878692626953125 34.366222381591796875 36.17810821533203125 34.267852783203125 32.877532958984375 27.83978271484375 21.85822296142578125 27.923938751220703125 25.344991683959960938 18.95378875732421875 16.393903732299804688 18.834577560424804688 18.696321487426757812 19.657115936279296875 21.15592193603515625 22.433399200439453125 24.424831390380859375 25.626813888549804688 26.693695068359375 26.985622406005859375 22.688913345336914062 18.5086517333984375 19.067747116088867188 21.371801376342773438 20.985538482666015625 19.409332275390625 24.614500045776367188 33.768939971923828125 34.810207366943359375 31.154836654663085938 25.496255874633789062 18.3984222412109375 17.302354812622070312 16.663057327270507812 12.598034858703613281 12.463574409484863281 16.470195770263671875 19.533723831176757812 11.671959877014160156 9.0920877456665039062 23.848329544067382812 23.335626602172851562 13.428287506103515625 7.1050872802734375 7.2786755561828613281 10.834431648254394531 13.796830177307128906 11.281345367431640625 10.160401344299316406 11.056549072265625 10.062317848205566406 10.780140876770019531 13.069890975952148438 16.123256683349609375 19.717187881469726562 20.767683029174804688 22.871553421020507812 27.89890289306640625 32.377071380615234375 36.443634033203125 37.17529296875 31.322101593017578125 30.03162384033203125 34.425628662109375 37.008327484130859375 32.857501983642578125 24.618608474731445312 22.942277908325195312 27.165241241455078125 26.017755508422851562 22.008260726928710938 26.77324676513671875 28.5684051513671875 24.181859970092773438 20.121637344360351562 17.874746322631835938 17.649312973022460938 20.038019180297851562 21.192213058471679688 21.990810394287109375 22.688365936279296875 20.872316360473632812 19.712400436401367188 17.877496719360351562 13.990811347961425781 5.7561330795288085938 6.89434814453125 14.866705894470214844 17.821901321411132812 18.097164154052734375 14.6050262451171875 8.546863555908203125 13.064314842224121094 16.724924087524414062 14.812082290649414062 13.192007064819335938 14.322566986083984375 13.99149322509765625 13.045671463012695312 9.6163225173950195312 12.260105133056640625 18.814641952514648438 19.173143386840820312 14.412928581237792969 7.1959896087646484375 8.1064004898071289062 8.6193141937255859375 6.507808685302734375 9.5679731369018554688 12.396132469177246094 11.827094078063964844 14.069248199462890625 13.421903610229492188 13.131544113159179688 10.133049964904785156 8.5130529403686523438 10.721909523010253906 10.506035804748535156 10.7091064453125 11.037151336669921875 14.584699630737304688 18.48505401611328125 19.218723297119140625 15.873093605041503906 10.95275115966796875 10.075288772583007812 12.742833137512207031 15.137776374816894531 11.999899864196777344 8.6291399002075195312 5.04575347900390625 17.863733291625976562 28.800296783447265625 28.476139068603515625 21.320241928100585938 18.227338790893554688 18.999750137329101562 18.5273284912109375 16.584108352661132812 15.026210784912109375 13.381581306457519531 20.576076507568359375 28.070735931396484375 25.309122085571289062 12.289991378784179688 4.5646643638610839844 4.9819135665893554688 4.5637521743774414062 7.1384181976318359375 9.9311971664428710938 14.1334686279296875 21.16094970703125 26.058115005493164062 26.4152679443359375 25.281690597534179688 23.61916351318359375 20.581743240356445312 16.694108963012695312 13.21783447265625 12.252084732055664062 16.8927001953125 17.570512771606445312 9.1065740585327148438 7.9684834480285644531 14.961416244506835938 21.869356155395507812 -9999 
-9999 24.128118515014648438 26.642940521240234375 28.498258590698242188 30.36467742919921875 30.3458251953125 27.97541046142578125 27.308309555053710938 27.762781143188476562 29.403516769409179688 30.8398284912109375 29.37348175048828125 29.7705078125 28.642057418823242188 22.333637237548828125 28.105495452880859375 29.734762191772460938 27.073858261108398438 22.47295379638671875 21.776803970336914062 26.636898040771484375 28.972209930419921875 27.945116043090820312 24.313436508178710938 23.460117340087890625 26.202531814575195312 27.853620529174804688 26.733341217041015625 22.282693862915039062 19.098871231079101562 19.753709793090820312 21.685739517211914062 21.66269683837890625 19.922803878784179688 21.585699081420898438 26.192554473876953125 28.654354095458984375 30.487157821655273438 27.4195709228515625 19.259912490844726562 18.21688079833984375 20.873012542724609375 19.703775405883789062 16.291339874267578125 16.747419357299804688 19.999607086181640625 13.615019798278808594 5.6378359794616699219 21.264959335327148438 24.847787857055664062 18.841951370239257812 10.181975364685058594 7.3074970245361328125 10.885910987854003906 13.437341690063476562 9.978160858154296875 8.152057647705078125 10.038909912109375 9.564800262451171875 10.135104179382324219 13.489918708801269531 17.9232177734375 22.14543914794921875 22.253751754760742188 21.698883056640625 23.124837875366210938 27.522672653198242188 34.55216217041015625 35.04180908203125 28.818820953369140625 25.401523590087890625 28.26467132568359375 32.2027435302734375 29.654903411865234375 20.641698837280273438 16.335414886474609375 20.123128890991210938 25.346834182739257812 29.339630126953125 31.431255340576171875 30.666759490966796875 26.596769332885742188 21.449817657470703125 16.109424591064453125 10.947136878967285156 12.794717788696289062 19.00894927978515625 23.256753921508789062 24.237188339233398438 22.088605880737304688 20.943508148193359375 19.220386505126953125 14.635258674621582031 5.5368046760559082031 7.2715368270874023438 15.831378936767578125 18.811069488525390625 18.631494522094726562 14.510179519653320312 7.8784413337707519531 12.804409027099609375 16.902353286743164062 17.103437423706054688 16.712619781494140625 16.7144927978515625 15.269284248352050781 14.280809402465820312 9.8006887435913085938 9.6691732406616210938 19.332563400268554688 19.68048858642578125 11.489744186401367188 7.1424717903137207031 10.719805717468261719 9.463062286376953125 5.4437565803527832031 11.115035057067871094 11.64914703369140625 12.14117431640625 14.759801864624023438 14.433547019958496094 14.284873008728027344 9.7025022506713867188 6.1235079765319824219 6.8464894294738769531 8.6558027267456054688 10.189431190490722656 9.9808206558227539062 13.888238906860351562 18.597667694091796875 19.508792877197265625 16.520044326782226562 12.715527534484863281 11.5020904541015625 13.319136619567871094 14.79095458984375 13.358800888061523438 12.231397628784179688 6.6894555091857910156 14.489633560180664062 26.622283935546875 27.86864471435546875 22.9891357421875 20.170682907104492188 18.313829421997070312 15.945611000061035156 13.039784431457519531 9.9238595962524414062 7.6766781806945800781 12.962164878845214844 23.13330078125 27.241451263427734375 19.144275665283203125 5.6111164093017578125 2.1930978298187255859 5.3010554313659667969 10.519726753234863281 16.709936141967773438 22.12566375732421875 25.589603424072265625 23.933643341064453125 21.040357589721679688 20.179101943969726562 16.360792160034179688 11.284697532653808594 10.941735267639160156 11.866024017333984375 15.522695541381835938 20.01099395751953125 15.964044570922851562 11.602992057800292969 16.087350845336914062 20.532062530517578125 26.001911163330078125 -9999 
-9999 19.6383056640625 20.005084991455078125 19.696605682373046875 20.483407974243164062 20.630640029907226562 20.706842422485351562 23.356786727905273438 24.733449935913085938 26.234996795654296875 27.916524887084960938 26.618883132934570312 26.274095535278320312 25.780427932739257812 19.054170608520507812 22.1977386474609375 28.807107925415039062 30.769536972045898438 28.775201797485351562 23.49314117431640625 28.04810333251953125 30.805530548095703125 26.945905685424804688 24.3869476318359375 23.566923141479492188 26.350660324096679688 27.17828369140625 24.9038543701171875 21.54308319091796875 19.002439498901367188 18.795289993286132812 20.665380477905273438 20.471179962158203125 18.641984939575195312 19.189779281616210938 19.762950897216796875 20.430345535278320312 26.180522918701171875 26.694065093994140625 18.778478622436523438 16.5583648681640625 21.031316757202148438 23.752101898193359375 21.509389877319335938 19.6998291015625 21.63596343994140625 17.368814468383789062 1.447841644287109375 16.414991378784179688 24.755901336669921875 24.072164535522460938 15.625775337219238281 9.24208831787109375 11.956506729125976562 14.5377197265625 11.610203742980957031 9.639049530029296875 9.666046142578125 8.4291410446166992188 9.061687469482421875 12.670662879943847656 18.079748153686523438 23.160444259643554688 23.454561233520507812 20.528757095336914062 20.289369583129882812 25.149044036865234375 31.78200531005859375 30.44040679931640625 24.414165496826171875 25.811655044555664062 30.242124557495117188 33.025787353515625 33.467861175537109375 28.654178619384765625 23.13604736328125 24.66412353515625 31.363704681396484375 34.003314971923828125 32.255329132080078125 30.821378707885742188 28.518453598022460938 21.946887969970703125 18.244615554809570312 16.326280593872070312 13.8240203857421875 14.010424613952636719 19.656888961791992188 23.879375457763671875 23.375402450561523438 22.05731201171875 20.424266815185546875 15.706398963928222656 6.1677441596984863281 6.9672455787658691406 16.504735946655273438 19.519598007202148438 19.43158721923828125 15.774511337280273438 9.69069671630859375 13.883008956909179688 19.120172500610351562 19.759105682373046875 19.144170761108398438 18.449743270874023438 16.640508651733398438 16.01822662353515625 10.74700927734375 5.5714502334594726562 18.278417587280273438 20.35108184814453125 10.421147346496582031 5.5914616584777832031 11.657379150390625 12.068897247314453125 9.3350820541381835938 13.901221275329589844 12.183441162109375 12.544558525085449219 16.1514739990234375 17.000438690185546875 15.866788864135742188 10.925384521484375 8.3789196014404296875 8.8958272933959960938 10.016211509704589844 9.6500520706176757812 9.9378690719604492188 13.971551895141601562 18.173360824584960938 18.488985061645507812 16.67249298095703125 14.761113166809082031 13.511890411376953125 14.015814781188964844 14.762928009033203125 14.85762786865234375 15.126877784729003906 10.97400665283203125 7.3393855094909667969 19.163818359375 27.55182647705078125 29.6639862060546875 27.165513992309570312 21.296792984008789062 14.451380729675292969 9.890651702880859375 6.0004854202270507812 3.8674359321594238281 8.1475830078125 17.625593185424804688 26.738155364990234375 23.519208908081054688 8.6318025588989257812 1.1190538406372070312 7.6244568824768066406 17.569431304931640625 24.118501663208007812 25.422069549560546875 22.93033599853515625 17.028110504150390625 15.569378852844238281 15.252771377563476562 8.5583276748657226562 6.9939780235290527344 10.8191375732421875 15.235222816467285156 20.703601837158203125 19.362203598022460938 11.707016944885253906 17.693607330322265625 23.1860504150390625 25.546350479125976562 27.120462417602539062 -9999 
-9999 21.411739349365234375 18.400087356567382812 19.003393173217773438 22.971799850463867188 27.382762908935546875 30.724790573120117188 32.9969329833984375 33.423336029052734375 34.058620452880859375 36.02089691162109375 36.825176239013671875 34.4705810546875 28.887226104736328125 19.53694915771484375 13.116044044494628906 22.225353240966796875 29.557849884033203125 32.229892730712890625 27.867002487182617188 25.142446517944335938 30.135162353515625 26.132551193237304688 24.616970062255859375 25.475080490112304688 25.712228775024414062 25.144685745239257812 22.77448272705078125 20.385995864868164062 17.032194137573242188 15.190356254577636719 17.646543502807617188 18.1668701171875 16.503305435180664062 17.100406646728515625 16.774812698364257812 15.981181144714355469 21.137908935546875 22.855670928955078125 15.447030067443847656 11.81574249267578125 16.403963088989257812 21.628816604614257812 22.640886306762695312 21.624708175659179688 22.523319244384765625 20.770191192626953125 9.4929952621459960938 8.3914966583251953125 21.7030181884765625 26.787853240966796875 21.480205535888671875 13.4257659912109375 14.219105720520019531 17.089719772338867188 15.2981414794921875 12.22783660888671875 10.731419563293457031 10.40041351318359375 11.110215187072753906 12.49863433837890625 16.097507476806640625 20.962919235229492188 22.346660614013671875 20.19873809814453125 21.818742752075195312 28.782855987548828125 33.604602813720703125 31.911533355712890625 29.728328704833984375 32.632785797119140625 34.631572723388671875 34.9738922119140625 35.1110076904296875 31.429775238037109375 23.172161102294921875 20.220600128173828125 27.322437286376953125 30.632226943969726562 27.42400360107421875 26.556966781616210938 26.798311233520507812 21.916303634643554688 18.0857696533203125 18.751909255981445312 17.996747970581054688 14.572635650634765625 14.07547760009765625 20.645477294921875 23.801061630249023438 22.691873550415039062 21.102008819580078125 17.336549758911132812 7.6935420036315917969 7.2568426132202148438 17.05875396728515625 20.15222930908203125 20.041429519653320312 17.249708175659179688 12.872242927551269531 11.878737449645996094 19.083665847778320312 22.92015838623046875 22.226819992065429688 19.390954971313476562 17.351932525634765625 18.496868133544921875 13.700966835021972656 2.3924772739410400391 15.56812286376953125 20.407564163208007812 13.920148849487304688 2.3442304134368896484 9.1002902984619140625 13.016852378845214844 13.23303985595703125 17.11223602294921875 14.230012893676757812 14.025589942932128906 17.64048004150390625 18.841081619262695312 17.259874343872070312 13.832271575927734375 13.109554290771484375 13.40541839599609375 12.128484725952148438 9.69167327880859375 10.560613632202148438 14.0372772216796875 16.899217605590820312 16.783885955810546875 15.403005599975585938 14.032056808471679688 13.081981658935546875 13.327067375183105469 15.442104339599609375 16.163953781127929688 16.568775177001953125 12.936293601989746094 5.3980231285095214844 5.4939908981323242188 16.386064529418945312 25.625301361083984375 29.096851348876953125 25.082609176635742188 15.971974372863769531 10.071177482604980469 5.5182218551635742188 1.5745539665222167969 5.1332774162292480469 13.677257537841796875 25.678762435913085938 26.070110321044921875 11.202157020568847656 1.6013001203536987305 10.337494850158691406 23.063610076904296875 26.389768600463867188 21.263425827026367188 14.814915657043457031 10.277238845825195312 12.505530357360839844 13.068934440612792969 12.460556983947753906 16.017261505126953125 19.055929183959960938 22.104104995727539062 21.30335235595703125 13.3963470458984375 14.722202301025390625 23.994607925415039062 27.638963699340820312 26.945047378540039062 24.097391128540039062 -9999 
-9999 31.988719940185546875 30.497915267944335938 29.78827667236328125 30.801774978637695312 31.457965850830078125 31.50391387939453125 31.72415924072265625 31.340372085571289062 30.915678024291992188 32.8649444580078125 36.877231597900390625 38.09427642822265625 33.869106292724609375 26.083063125610351562 17.820703506469726562 15.310473442077636719 21.484514236450195312 28.727390289306640625 32.908138275146484375 28.6609039306640625 29.475921630859375 30.223194122314453125 26.248403549194335938 26.207208633422851562 24.94351959228515625 23.55744171142578125 21.090940475463867188 18.806322097778320312 15.743645668029785156 12.9036865234375 14.849855422973632812 17.541046142578125 16.357538223266601562 16.058919906616210938 16.241079330444335938 15.571516036987304688 18.698505401611328125 20.028545379638671875 13.768679618835449219 9.49767303466796875 12.802145004272460938 18.05840301513671875 20.778604507446289062 21.2476043701171875 21.658451080322265625 21.5590362548828125 16.055919647216796875 2.6429114341735839844 13.662689208984375 25.032327651977539062 25.136823654174804688 18.5687713623046875 16.981882095336914062 19.213960647583007812 17.4130096435546875 11.803549766540527344 8.6644754409790039062 9.4763135910034179688 12.324213027954101562 14.826030731201171875 16.633472442626953125 18.24173736572265625 18.314733505249023438 18.157283782958984375 24.34281158447265625 32.94370269775390625 35.72894287109375 33.301212310791015625 31.137872695922851562 33.136173248291015625 35.330242156982421875 35.6619720458984375 35.249034881591796875 32.613201141357421875 24.72798919677734375 18.089952468872070312 19.88608551025390625 27.65099334716796875 27.732421875 27.580013275146484375 28.181377410888671875 24.42081451416015625 18.221126556396484375 16.75360870361328125 17.784418106079101562 17.741180419921875 16.552473068237304688 18.92853546142578125 23.1170806884765625 22.300067901611328125 21.028553009033203125 18.606683731079101562 8.4456052780151367188 7.4415769577026367188 17.353755950927734375 20.512426376342773438 19.92414093017578125 17.5524444580078125 16.17449951171875 12.567211151123046875 11.106081962585449219 18.235383987426757812 21.416215896606445312 18.877958297729492188 18.267610549926757812 20.999790191650390625 17.647068023681640625 5.0429034233093261719 11.606783866882324219 17.622770309448242188 16.151033401489257812 8.473621368408203125 4.8721866607666015625 11.033032417297363281 15.191357612609863281 18.816883087158203125 14.897933006286621094 15.454706192016601562 18.924791336059570312 19.902082443237304688 18.603654861450195312 16.690168380737304688 15.452352523803710938 14.432970046997070312 13.062894821166992188 11.627885818481445312 12.230814933776855469 13.796047210693359375 15.843637466430664062 15.650238990783691406 14.553813934326171875 13.657023429870605469 10.964894294738769531 9.4930734634399414062 11.641748428344726562 14.261043548583984375 16.405267715454101562 12.126504898071289062 6.0453591346740722656 3.5379602909088134766 3.2623884677886962891 16.847116470336914062 26.929189682006835938 26.983770370483398438 18.347391128540039062 12.310678482055664062 7.6617145538330078125 1.5501295328140258789 3.2947139739990234375 10.539238929748535156 23.4210662841796875 27.25684356689453125 14.754247665405273438 3.0011796951293945312 9.69451141357421875 24.259004592895507812 26.061779022216796875 17.339931488037109375 11.34230804443359375 8.8338823318481445312 10.291290283203125 13.182387351989746094 19.401371002197265625 24.2140655517578125 26.247930526733398438 23.507757186889648438 14.26178741455078125 13.458550453186035156 22.709074020385742188 28.31468963623046875 28.11346435546875 24.054647445678710938 19.310459136962890625 -9999 
-9999 36.253444671630859375 33.09444427490234375 30.290838241577148438 28.629014968872070312 27.4564056396484375 27.59712982177734375 27.004106521606445312 26.90772247314453125 27.847368240356445312 30.534210205078125 34.669277191162109375 37.5338897705078125 36.27825164794921875 30.504793167114257812 23.48821258544921875 18.183559417724609375 19.16878509521484375 22.550991058349609375 30.189043045043945312 34.1369476318359375 33.85048675537109375 34.364215850830078125 29.416604995727539062 25.423248291015625 24.670911788940429688 23.780515670776367188 21.129047393798828125 18.974817276000976562 17.338312149047851562 14.28670501708984375 13.301003456115722656 16.765222549438476562 17.636339187622070312 16.481641769409179688 16.816953659057617188 16.088382720947265625 16.977590560913085938 17.398893356323242188 12.368533134460449219 9.0685415267944335938 12.089907646179199219 16.861980438232421875 19.296049118041992188 19.216184616088867188 18.977138519287109375 19.025814056396484375 17.034177780151367188 10.420139312744140625 3.4741227626800537109 19.484159469604492188 25.883686065673828125 22.4446258544921875 18.776998519897460938 19.802629470825195312 18.5287017822265625 13.397603034973144531 9.775539398193359375 10.397802352905273438 13.783773422241210938 15.2948150634765625 16.985605239868164062 19.531005859375 19.6064910888671875 18.689678192138671875 23.29949188232421875 32.210536956787109375 36.048053741455078125 34.1063232421875 31.845855712890625 33.235469818115234375 35.421443939208984375 36.2189178466796875 34.93048095703125 31.51705169677734375 25.06490325927734375 20.483751296997070312 18.334928512573242188 21.844549179077148438 24.084375381469726562 26.60553741455078125 30.387384414672851562 28.920763015747070312 22.234424591064453125 15.27927398681640625 15.423608779907226562 18.138521194458007812 19.202396392822265625 19.6783294677734375 21.592061996459960938 20.867879867553710938 20.18599700927734375 18.358226776123046875 8.3341493606567382812 7.5337367057800292969 17.301748275756835938 20.090387344360351562 19.580415725708007812 17.563081741333007812 17.029760360717773438 17.105100631713867188 13.824472427368164062 11.278570175170898438 14.350968360900878906 18.034826278686523438 19.62176513671875 21.7631378173828125 20.728773117065429688 9.8753232955932617188 9.4897785186767578125 14.235167503356933594 15.025336265563964844 12.794033050537109375 8.3201227188110351562 10.536631584167480469 15.502802848815917969 16.832323074340820312 11.931493759155273438 14.310705184936523438 17.897129058837890625 19.285297393798828125 18.259761810302734375 16.476114273071289062 14.292795181274414062 11.756128311157226562 9.8333921432495117188 10.685205459594726562 11.636630058288574219 11.9613037109375 14.375660896301269531 15.445197105407714844 15.178402900695800781 14.473694801330566406 9.8861150741577148438 5.867595672607421875 6.910938262939453125 13.560591697692871094 15.550600051879882812 10.667535781860351562 7.4514975547790527344 7.7721848487854003906 5.0924515724182128906 9.98595428466796875 22.868825912475585938 27.532308578491210938 20.58396148681640625 14.470545768737792969 10.725470542907714844 5.3068575859069824219 5.439586639404296875 8.8360528945922851562 18.255405426025390625 24.798770904541015625 18.162794113159179688 6.6735181808471679688 5.5797510147094726562 22.670286178588867188 27.216634750366210938 20.733800888061523438 16.008899688720703125 12.651958465576171875 13.623269081115722656 18.689401626586914062 22.7766265869140625 23.2711944580078125 21.517007827758789062 16.925874710083007812 17.10357666015625 22.833978652954101562 27.739828109741210938 27.983533859252929688 23.863832473754882812 18.774486541748046875 15.652909278869628906 -9999 
-9999 30.302076339721679688 26.031581878662109375 22.781757354736328125 22.266241073608398438 26.484073638916015625 30.138467788696289062 29.2295684814453125 27.140176773071289062 27.082246780395507812 30.083232879638671875 33.71318817138671875 37.28924560546875 38.724910736083984375 34.3463897705078125 26.575962066650390625 21.311025619506835938 20.646495819091796875 20.553842544555664062 21.377622604370117188 28.09814453125 33.14963531494140625 34.054073333740234375 29.205945968627929688 24.137517929077148438 23.769807815551757812 24.271793365478515625 23.292459487915039062 22.346576690673828125 21.583250045776367188 20.05345916748046875 19.213430404663085938 19.176128387451171875 18.975133895874023438 17.433713912963867188 16.850427627563476562 14.686920166015625 14.084214210510253906 14.796924591064453125 12.040663719177246094 11.426477432250976562 14.307804107666015625 17.39014434814453125 19.029109954833984375 17.500307083129882812 16.211454391479492188 15.812318801879882812 15.383240699768066406 13.164471626281738281 2.9760830402374267578 14.994959831237792969 25.741025924682617188 24.265743255615234375 19.448114395141601562 19.237451553344726562 17.961292266845703125 14.301760673522949219 11.644723892211914062 11.805238723754882812 15.072390556335449219 16.354522705078125 16.383272171020507812 16.446153640747070312 14.158911705017089844 12.948261260986328125 19.788537979125976562 30.094526290893554688 35.192928314208984375 35.123805999755859375 33.93891143798828125 34.908660888671875 36.562366485595703125 37.6464996337890625 35.4357147216796875 29.619318008422851562 23.91614532470703125 20.3198394775390625 23.076251983642578125 24.857303619384765625 26.242116928100585938 26.197137832641601562 27.604566574096679688 27.899837493896484375 25.414678573608398438 19.023326873779296875 13.832045555114746094 15.316121101379394531 17.341688156127929688 17.789304733276367188 17.925785064697265625 17.948110580444335938 18.536367416381835938 17.09839630126953125 8.3935556411743164062 7.4236826896667480469 16.833543777465820312 19.025976181030273438 19.85955047607421875 19.57779693603515625 18.851152420043945312 19.6063385009765625 19.7417755126953125 17.527812957763671875 9.2745370864868164062 16.423648834228515625 21.690837860107421875 22.428272247314453125 21.915205001831054688 13.501726150512695312 10.397183418273925781 13.771380424499511719 15.021687507629394531 15.29364013671875 12.923073768615722656 12.14852142333984375 14.153721809387207031 11.626770973205566406 7.0653839111328125 11.476458549499511719 12.804602622985839844 12.627269744873046875 12.230396270751953125 11.676825523376464844 10.272045135498046875 8.0514497756958007812 9.3185024261474609375 12.162718772888183594 11.385295867919921875 8.9896020889282226562 9.7421970367431640625 12.697592735290527344 14.453752517700195312 14.331218719482421875 9.5758304595947265625 5.1649427413940429688 7.13165283203125 13.883631706237792969 14.046840667724609375 10.732618331909179688 8.5432329177856445312 7.6166501045227050781 4.7412886619567871094 3.9151988029479980469 17.8413543701171875 28.279209136962890625 24.157886505126953125 16.305095672607421875 13.415509223937988281 10.733072280883789062 9.0431461334228515625 9.9187841415405273438 13.118745803833007812 17.958742141723632812 18.656309127807617188 11.863752365112304688 2.2754087448120117188 17.543422698974609375 25.371068954467773438 22.422506332397460938 18.820947647094726562 17.553956985473632812 20.1454925537109375 22.178312301635742188 20.681705474853515625 15.64145660400390625 10.597936630249023438 15.169688224792480469 24.48014068603515625 27.644281387329101562 27.867343902587890625 23.31103515625 17.948034286499023438 15.302643775939941406 14.454623222351074219 -9999 
-9999 24.2939300537109375 19.69830322265625 18.469808578491210938 22.595411300659179688 29.5626068115234375 33.37366485595703125 31.4931488037109375 28.381204605102539062 28.77959442138671875 32.958148956298828125 36.53951263427734375 39.281036376953125 40.39527130126953125 35.356658935546875 25.472200393676757812 19.07022857666015625 17.558168411254882812 17.567562103271484375 17.830352783203125 17.639085769653320312 20.725421905517578125 21.858076095581054688 19.781579971313476562 17.8784332275390625 19.214946746826171875 21.174175262451171875 21.579423904418945312 21.223880767822265625 20.100484848022460938 18.330327987670898438 18.00612640380859375 18.556049346923828125 17.596704483032226562 15.860064506530761719 14.497092247009277344 11.653328895568847656 11.253374099731445312 13.398447990417480469 13.152651786804199219 14.075878143310546875 14.906982421875 15.633419990539550781 17.6102752685546875 17.012468338012695312 15.669870376586914062 15.160657882690429688 16.037227630615234375 15.157048225402832031 4.5346064567565917969 14.886318206787109375 26.253244400024414062 24.927267074584960938 19.527666091918945312 18.353574752807617188 16.838056564331054688 13.871000289916992188 13.223586082458496094 13.769661903381347656 15.382885932922363281 15.577571868896484375 14.766137123107910156 15.246908187866210938 16.300859451293945312 16.858987808227539062 22.058137893676757812 29.582820892333984375 33.57640838623046875 35.2748260498046875 35.486431121826171875 36.07869720458984375 37.261531829833984375 38.26201629638671875 36.722858428955078125 31.501827239990234375 26.884836196899414062 22.444219589233398438 22.860065460205078125 26.19405364990234375 27.669813156127929688 27.928236007690429688 26.29848480224609375 23.51067352294921875 23.007366180419921875 22.068113327026367188 17.375585556030273438 13.855167388916015625 14.242611885070800781 14.834231376647949219 13.915414810180664062 14.712430000305175781 16.803297042846679688 15.61151123046875 8.3748006820678710938 5.8313078880310058594 15.343008995056152344 17.32842254638671875 18.4317474365234375 19.563625335693359375 19.450193405151367188 20.4738922119140625 22.2350616455078125 22.513547897338867188 13.92781829833984375 11.227947235107421875 22.432159423828125 24.7062835693359375 22.990343093872070312 15.5328369140625 10.859494209289550781 13.146798133850097656 15.192173004150390625 16.25290679931640625 14.957822799682617188 13.168482780456542969 11.907946586608886719 5.7569108009338378906 9.3741903305053710938 15.735043525695800781 15.049500465393066406 11.09127044677734375 8.358379364013671875 8.8349237442016601562 10.508547782897949219 13.2786407470703125 16.429744720458984375 16.776885986328125 15.1411895751953125 12.9033203125 10.7010345458984375 10.729221343994140625 12.269315719604492188 12.052218437194824219 8.2030439376831054688 4.2615289688110351562 7.0972561836242675781 12.678127288818359375 13.048479080200195312 10.430670738220214844 8.2441310882568359375 9.1385602951049804688 7.9917926788330078125 7.6889576911926269531 14.593375205993652344 27.923542022705078125 28.270582199096679688 18.40938568115234375 12.948200225830078125 12.046139717102050781 9.9125995635986328125 10.370945930480957031 11.488368988037109375 10.603908538818359375 16.510545730590820312 17.119909286499023438 6.7257227897644042969 13.885565757751464844 23.003004074096679688 24.57964324951171875 23.131391525268554688 23.28859710693359375 24.179384231567382812 21.441541671752929688 15.165692329406738281 8.61968231201171875 9.8264665603637695312 19.478420257568359375 26.981504440307617188 28.280824661254882812 25.800268173217773438 19.028081893920898438 14.975035667419433594 14.534481048583984375 14.592947006225585938 -9999 
-9999 20.296926498413085938 18.806062698364257812 22.878541946411132812 27.448743820190429688 32.29807281494140625 34.521053314208984375 32.45406341552734375 30.682798385620117188 32.9167938232421875 37.267009735107421875 38.56249237060546875 37.64752960205078125 34.803623199462890625 29.618015289306640625 23.244707107543945312 18.37313079833984375 17.119873046875 17.744825363159179688 18.737760543823242188 16.846494674682617188 15.685727119445800781 17.735418319702148438 19.007965087890625 15.310830116271972656 9.3623523712158203125 8.6806917190551757812 9.9615240097045898438 9.26761627197265625 8.0213766098022460938 8.5829906463623046875 9.4091167449951171875 9.2249088287353515625 9.2454833984375 11.223279953002929688 12.462092399597167969 10.68618011474609375 10.159419059753417969 13.144367218017578125 15.060214996337890625 15.943884849548339844 15.675673484802246094 15.070202827453613281 16.49139404296875 17.240245819091796875 16.506763458251953125 17.020654678344726562 19.391881942749023438 15.973393440246582031 1.3189442157745361328 18.304479598999023438 26.455507278442382812 22.946592330932617188 17.538206100463867188 17.0160675048828125 16.528461456298828125 13.862856864929199219 13.375502586364746094 15.020130157470703125 16.14093780517578125 15.682231903076171875 15.426949501037597656 14.795952796936035156 14.326547622680664062 16.634181976318359375 23.244958877563476562 29.313388824462890625 32.4173126220703125 35.10836029052734375 36.96346282958984375 36.74675750732421875 35.95328521728515625 36.668216705322265625 36.60230255126953125 33.742588043212890625 31.56664276123046875 29.58255767822265625 23.117059707641601562 20.432207107543945312 21.286809921264648438 21.66551971435546875 20.340929031372070312 18.768157958984375 19.36818695068359375 21.26708984375 19.59140777587890625 16.2965240478515625 12.694531440734863281 10.464009284973144531 9.1122694015502929688 10.549794197082519531 14.039008140563964844 13.28603363037109375 8.5615978240966796875 3.3818027973175048828 11.67867279052734375 14.382374763488769531 15.024384498596191406 16.947208404541015625 18.063173294067382812 19.859561920166015625 22.54819488525390625 23.897958755493164062 19.397382736206054688 8.0463819503784179688 19.49855804443359375 25.874292373657226562 24.734682083129882812 18.457304000854492188 12.003422737121582031 10.952700614929199219 14.546468734741210938 16.7384796142578125 15.575556755065917969 13.514679908752441406 8.7863855361938476562 6.5720763206481933594 17.079479217529296875 20.527862548828125 17.508090972900390625 14.550396919250488281 14.921750068664550781 17.2153778076171875 18.712512969970703125 18.603059768676757812 17.573497772216796875 15.260660171508789062 13.215951919555664062 11.884805679321289062 11.606165885925292969 11.327252388000488281 11.242119789123535156 10.143347740173339844 7.3357210159301757812 3.6650946140289306641 5.0022826194763183594 10.145845413208007812 11.688593864440917969 13.013246536254882812 14.651888847351074219 12.766486167907714844 9.0878629684448242188 7.7363901138305664062 10.563524246215820312 24.615955352783203125 31.138757705688476562 24.332143783569335938 17.351329803466796875 15.847435951232910156 14.282113075256347656 13.910933494567871094 13.412438392639160156 8.661701202392578125 11.264635086059570312 20.123773574829101562 11.906894683837890625 9.542514801025390625 18.262348175048828125 21.830423355102539062 22.628469467163085938 22.024206161499023438 19.433099746704101562 13.794597625732421875 9.9055566787719726562 12.265558242797851562 17.8332061767578125 23.989452362060546875 26.828065872192382812 25.468019485473632812 21.497898101806640625 15.849318504333496094 13.871662139892578125 14.222237586975097656 14.642496109008789062 -9999 
-9999 20.209043502807617188 24.578226089477539062 28.709325790405273438 30.74036407470703125 32.975811004638671875 33.710750579833984375 33.141407012939453125 33.198497772216796875 35.48584747314453125 36.225803375244140625 32.22783660888671875 28.154279708862304688 27.243900299072265625 30.522186279296875 29.7782440185546875 24.182697296142578125 20.430742263793945312 20.033063888549804688 21.620622634887695312 23.210788726806640625 25.258073806762695312 26.945087432861328125 27.973131179809570312 26.807455062866210938 25.676311492919921875 25.488199234008789062 24.708753585815429688 22.205938339233398438 19.679948806762695312 19.131259918212890625 18.772686004638671875 17.096467971801757812 15.873496055603027344 16.530939102172851562 17.461305618286132812 16.544691085815429688 15.0579833984375 15.333447456359863281 16.948459625244140625 16.952342987060546875 15.889871597290039062 14.800629615783691406 14.586422920227050781 15.282337188720703125 17.215330123901367188 21.8978729248046875 22.649112701416015625 12.859867095947265625 6.3066110610961914062 23.1300201416015625 25.391817092895507812 19.273097991943359375 15.052254676818847656 15.514726638793945312 16.442724227905273438 14.992212295532226562 13.332627296447753906 12.31955718994140625 12.418091773986816406 12.474950790405273438 13.136583328247070312 13.697924613952636719 13.718564033508300781 16.001131057739257812 21.896276473999023438 28.170598983764648438 32.002124786376953125 35.33702850341796875 38.573638916015625 38.126476287841796875 34.519161224365234375 33.5908966064453125 34.5989532470703125 33.333469390869140625 31.708057403564453125 31.677410125732421875 28.584733963012695312 19.034687042236328125 13.965335845947265625 14.595449447631835938 16.787523269653320312 16.57293701171875 16.937047958374023438 19.763885498046875 20.35544586181640625 18.443317413330078125 12.318681716918945312 5.5713176727294921875 3.4742753505706787109 6.1661977767944335938 11.346345901489257812 13.672740936279296875 13.774227142333984375 11.851210594177246094 12.438853263854980469 14.6628265380859375 15.788238525390625 17.519168853759765625 18.8792266845703125 20.654314041137695312 23.0000457763671875 23.760675430297851562 21.936908721923828125 11.769097328186035156 15.250431060791015625 24.704034805297851562 26.415105819702148438 23.609285354614257812 16.796504974365234375 9.5365629196166992188 14.389245033264160156 18.749689102172851562 17.663698196411132812 14.014806747436523438 5.4658269882202148438 14.653407096862792969 22.429452896118164062 21.554233551025390625 16.807834625244140625 14.596634864807128906 16.734552383422851562 19.421758651733398438 19.247798919677734375 16.750791549682617188 14.256209373474121094 12.563541412353515625 12.10907745361328125 11.880341529846191406 11.554454803466796875 11.430910110473632812 11.255049705505371094 11.096400260925292969 9.1541471481323242188 6.8328828811645507812 8.8779745101928710938 14.262085914611816406 16.5346832275390625 17.69171905517578125 16.671413421630859375 10.068381309509277344 4.8058996200561523438 4.7940773963928222656 5.2762866020202636719 17.328554153442382812 29.414896011352539062 31.136831283569335938 30.823766708374023438 29.05197906494140625 24.51214599609375 18.830474853515625 14.846159934997558594 11.334690093994140625 8.6849184036254882812 17.927824020385742188 15.685894012451171875 2.2383718490600585938 11.015644073486328125 12.456818580627441406 11.988610267639160156 10.128779411315917969 7.5220112800598144531 12.735983848571777344 17.770998001098632812 18.809556961059570312 20.943614959716796875 23.310741424560546875 22.568738937377929688 20.074893951416015625 16.686801910400390625 13.748461723327636719 13.253129959106445312 13.626156806945800781 14.363930702209472656 -9999 
-9999 25.299150466918945312 29.218639373779296875 30.249317169189453125 30.501621246337890625 31.025663375854492188 32.480060577392578125 34.045238494873046875 33.66825103759765625 32.440280914306640625 27.86266326904296875 25.692880630493164062 29.225805282592773438 30.858135223388671875 32.2620086669921875 30.892553329467773438 27.669620513916015625 27.21358489990234375 25.737653732299804688 24.624820709228515625 24.718473434448242188 25.099008560180664062 26.65838623046875 27.643764495849609375 27.167079925537109375 29.206377029418945312 29.792284011840820312 28.350982666015625 24.405145645141601562 19.810651779174804688 18.332056045532226562 18.175294876098632812 16.039228439331054688 14.70313262939453125 15.836530685424804688 17.31243133544921875 17.222749710083007812 16.813627243041992188 18.255655288696289062 19.75252532958984375 18.482570648193359375 17.392183303833007812 16.417154312133789062 14.72840118408203125 15.211751937866210938 20.2847442626953125 25.81772613525390625 21.445261001586914062 5.5587115287780761719 14.603253364562988281 25.906524658203125 22.817068099975585938 16.153842926025390625 14.78546142578125 17.155656814575195312 18.09682464599609375 15.994897842407226562 14.114972114562988281 12.908228874206542969 12.457174301147460938 13.406939506530761719 15.611012458801269531 15.972048759460449219 14.214169502258300781 14.801370620727539062 20.699108123779296875 28.186191558837890625 33.042652130126953125 36.1505279541015625 39.085277557373046875 38.91864776611328125 34.736568450927734375 32.9808197021484375 33.862522125244140625 30.904497146606445312 26.514520645141601562 29.850633621215820312 34.1385498046875 30.428655624389648438 19.227102279663085938 12.35762786865234375 15.385570526123046875 18.389802932739257812 18.295408248901367188 20.17498779296875 22.343122482299804688 19.30771636962890625 9.454547882080078125 4.7759675979614257812 6.1191263198852539062 7.6868829727172851562 11.682027816772460938 15.00279998779296875 15.671522140502929688 14.592373847961425781 13.852070808410644531 14.495187759399414062 15.626556396484375 17.770982742309570312 20.346078872680664062 22.4546356201171875 23.47647857666015625 22.598791122436523438 21.823431015014648438 14.731598854064941406 11.723505020141601562 21.958507537841796875 27.01220703125 27.585901260375976562 22.89154052734375 14.611466407775878906 17.319156646728515625 22.551311492919921875 20.617223739624023438 11.559429168701171875 8.5578937530517578125 19.693529129028320312 24.010791778564453125 20.948068618774414062 15.239544868469238281 13.399200439453125 16.200441360473632812 18.63948822021484375 17.855327606201171875 15.596841812133789062 13.627060890197753906 12.718665122985839844 13.163350105285644531 13.508256912231445312 11.690318107604980469 10.162509918212890625 9.8103704452514648438 10.609678268432617188 9.0847597122192382812 9.0068693161010742188 13.961825370788574219 18.233045578002929688 17.463655471801757812 16.729177474975585938 14.360611915588378906 6.8082666397094726562 3.3848667144775390625 4.5395650863647460938 4.6337528228759765625 7.6566858291625976562 18.660234451293945312 25.425451278686523438 30.739892959594726562 32.508701324462890625 29.914850234985351562 22.577249526977539062 16.7190399169921875 15.049920082092285156 14.184920310974121094 14.358857154846191406 14.217100143432617188 1.4015619754791259766 8.0210237503051757812 7.7243332862854003906 5.3757634162902832031 5.267353057861328125 8.7249460220336914062 16.836153030395507812 20.864490509033203125 17.801366806030273438 17.409673690795898438 19.240955352783203125 17.683286666870117188 16.05617523193359375 15.002348899841308594 14.214104652404785156 13.681738853454589844 13.325847625732421875 14.311441421508789062 -9999 
-9999 29.016096115112304688 29.952777862548828125 29.720691680908203125 28.5883331298828125 27.93353271484375 30.545274734497070312 32.084453582763671875 29.472898483276367188 26.521541595458984375 26.75095367431640625 30.383413314819335938 31.128656387329101562 30.78034210205078125 32.2302093505859375 29.9066009521484375 29.9531097412109375 30.686937332153320312 28.05016326904296875 23.3277740478515625 20.490404129028320312 20.6242218017578125 24.273061752319335938 25.731052398681640625 23.523128509521484375 22.3859405517578125 23.301202774047851562 25.153551101684570312 22.26865386962890625 16.423696517944335938 15.114779472351074219 16.0162200927734375 14.251757621765136719 12.431913375854492188 13.700954437255859375 15.37813568115234375 15.029071807861328125 17.283203125 21.944339752197265625 22.026947021484375 19.025592803955078125 18.196855545043945312 17.296651840209960938 15.15331268310546875 16.718439102172851562 23.451740264892578125 26.342985153198242188 16.410482406616210938 3.2924664020538330078 20.17168426513671875 25.474191665649414062 19.94463348388671875 14.289467811584472656 15.614963531494140625 19.103822708129882812 18.211378097534179688 14.449238777160644531 13.085725784301757812 12.511612892150878906 11.430379867553710938 12.543343544006347656 14.67821502685546875 14.831337928771972656 13.031553268432617188 13.331919670104980469 19.695644378662109375 28.827724456787109375 33.772579193115234375 35.604106903076171875 37.7395172119140625 38.347492218017578125 35.782230377197265625 32.964267730712890625 30.871349334716796875 27.16812896728515625 27.729869842529296875 32.410427093505859375 37.066226959228515625 37.111339569091796875 29.032953262329101562 17.677928924560546875 15.149229049682617188 18.928541183471679688 19.877626419067382812 20.554964065551757812 23.120769500732421875 19.634410858154296875 8.5242443084716796875 6.6383767127990722656 9.4487466812133789062 11.445034027099609375 12.859090805053710938 13.977376937866210938 12.821241378784179688 11.111657142639160156 10.939900398254394531 11.215667724609375 12.546022415161132812 15.760309219360351562 19.778879165649414062 21.95880889892578125 21.262828826904296875 19.94516754150390625 21.0826416015625 17.63034820556640625 11.932783126831054688 20.052614212036132812 25.905790328979492188 28.497303009033203125 27.152423858642578125 23.418651580810546875 24.121908187866210938 25.8582763671875 18.960346221923828125 6.4572119712829589844 14.194063186645507812 19.329896926879882812 23.098659515380859375 21.684591293334960938 15.237039566040039062 13.169083595275878906 16.77098846435546875 17.685863494873046875 16.095439910888671875 15.502013206481933594 15.01725006103515625 13.384037971496582031 13.339275360107421875 13.796238899230957031 10.888759613037109375 8.2235155105590820312 7.3179035186767578125 8.926914215087890625 8.199459075927734375 10.304925918579101562 16.510271072387695312 17.964017868041992188 14.981925010681152344 13.284246444702148438 10.713056564331054688 3.9765849113464355469 3.6505265235900878906 4.9383249282836914062 4.6461400985717773438 2.4607553482055664062 6.6645612716674804688 11.352998733520507812 15.331226348876953125 20.904491424560546875 26.204654693603515625 26.581495285034179688 23.763586044311523438 22.694040298461914062 22.28351593017578125 16.992101669311523438 8.0878629684448242188 2.8846423625946044922 8.6722459793090820312 7.17810821533203125 3.7219460010528564453 3.1599705219268798828 8.2406110763549804688 17.764080047607421875 22.869436264038085938 19.35832977294921875 16.881658554077148438 17.901943206787109375 15.953991889953613281 14.142088890075683594 14.566182136535644531 14.601103782653808594 13.528067588806152344 14.810727119445800781 18.6140594482421875 -9999 
-9999 29.568593978881835938 28.282014846801757812 27.377664566040039062 25.160303115844726562 23.257345199584960938 25.5261993408203125 27.896654129028320312 29.110607147216796875 29.754802703857421875 28.528079986572265625 26.967281341552734375 28.205381393432617188 29.803104400634765625 30.272525787353515625 30.8503570556640625 30.561130523681640625 30.148990631103515625 28.585033416748046875 23.999864578247070312 18.698741912841796875 16.679233551025390625 19.843252182006835938 21.817186355590820312 18.229085922241210938 14.975812911987304688 17.217340469360351562 21.748195648193359375 21.624189376831054688 15.984921455383300781 12.872275352478027344 13.571872711181640625 13.189236640930175781 10.2678375244140625 10.048070907592773438 14.126199722290039062 16.670734405517578125 19.18665313720703125 23.48307037353515625 23.17427825927734375 20.1175079345703125 19.325849533081054688 18.006702423095703125 16.6506805419921875 19.570268630981445312 25.065858840942382812 24.147333145141601562 10.015720367431640625 10.548837661743164062 21.797452926635742188 22.52375030517578125 17.8542938232421875 14.15024566650390625 16.804742813110351562 19.569576263427734375 16.7065582275390625 11.570137977600097656 10.233808517456054688 11.376420021057128906 11.393393516540527344 11.949475288391113281 13.782101631164550781 14.387239456176757812 12.639979362487792969 13.008440971374511719 19.364200592041015625 28.742374420166015625 32.91751861572265625 34.10422515869140625 36.338649749755859375 37.33217620849609375 36.50299835205078125 34.354076385498046875 32.47959136962890625 31.199434280395507812 30.665386199951171875 32.147762298583984375 36.124019622802734375 37.306667327880859375 31.531827926635742188 21.392129898071289062 15.995013236999511719 18.6667938232421875 21.308446884155273438 20.328229904174804688 20.305522918701171875 18.429676055908203125 10.201106071472167969 7.0615582466125488281 10.037455558776855469 12.985582351684570312 13.892648696899414062 14.574533462524414062 12.11871337890625 8.6755619049072265625 8.6083402633666992188 8.7316999435424804688 9.7274303436279296875 12.488636970520019531 17.86644744873046875 22.139265060424804688 22.114070892333984375 21.240972518920898438 23.0808868408203125 22.319530487060546875 16.686567306518554688 17.616991043090820312 23.502641677856445312 27.869014739990234375 28.414155960083007812 27.456567764282226562 26.855043411254882812 24.095754623413085938 11.316920280456542969 12.628024101257324219 17.1823272705078125 16.46502685546875 19.27074432373046875 22.677333831787109375 18.921667098999023438 15.389940261840820312 17.992984771728515625 17.26725006103515625 14.465902328491210938 14.011035919189453125 13.389845848083496094 11.111028671264648438 10.674432754516601562 12.111217498779296875 8.5590085983276367188 6.2603282928466796875 6.158050537109375 8.7811880111694335938 9.3006544113159179688 11.981548309326171875 16.003046035766601562 13.915051460266113281 10.065668106079101562 8.2329988479614257812 5.9229421615600585938 2.0083134174346923828 0.57803243398666381836 3.868534088134765625 2.9562566280364990234 1.1358182430267333984 3.0838119983673095703 5.4551229476928710938 4.3205251693725585938 7.940204620361328125 15.491366386413574219 22.308929443359375 23.464262008666992188 22.1359100341796875 19.755144119262695312 14.438333511352539062 6.7033948898315429688 10.28436279296875 13.325586318969726562 12.447940826416015625 11.252955436706542969 10.598331451416015625 9.48052215576171875 13.782619476318359375 20.511190414428710938 20.556652069091796875 17.654245376586914062 16.741739273071289062 14.363183975219726562 12.324742317199707031 13.788371086120605469 14.697950363159179688 14.574681282043457031 19.178844451904296875 22.340190887451171875 -9999 
-9999 24.706708908081054688 21.255041122436523438 20.932588577270507812 20.322351455688476562 19.439853668212890625 22.918989181518554688 27.510454177856445312 29.6844024658203125 28.076717376708984375 24.789163589477539062 25.634731292724609375 26.99945831298828125 25.733673095703125 26.986783981323242188 28.165891647338867188 28.13767242431640625 27.566633224487304688 26.792388916015625 24.709550857543945312 20.115560531616210938 13.93115997314453125 13.636251449584960938 16.351018905639648438 14.620179176330566406 12.648798942565917969 13.505391120910644531 18.530843734741210938 21.11566925048828125 16.626361846923828125 11.609423637390136719 10.7503662109375 11.527523994445800781 9.498233795166015625 6.6852979660034179688 11.288258552551269531 18.368255615234375 21.916515350341796875 24.578649520874023438 24.181941986083984375 21.98395538330078125 21.226863861083984375 19.475851058959960938 19.177021026611328125 22.47040557861328125 24.850627899169921875 20.1219940185546875 3.5908801555633544922 14.943368911743164062 21.392477035522460938 20.42792510986328125 17.041486740112304688 15.093309402465820312 17.43178558349609375 17.698667526245117188 14.374402999877929688 10.428393363952636719 9.456363677978515625 10.867231369018554688 11.598803520202636719 12.054414749145507812 12.869494438171386719 13.634140968322753906 13.434309959411621094 14.997959136962890625 20.779193878173828125 27.940029144287109375 30.949857711791992188 31.824621200561523438 34.13185882568359375 34.40105438232421875 32.913188934326171875 31.329036712646484375 28.629251480102539062 24.428102493286132812 23.228525161743164062 28.901613235473632812 35.20912933349609375 37.6186370849609375 32.927066802978515625 24.385530471801757812 19.007024765014648438 19.222408294677734375 21.377162933349609375 18.974267959594726562 15.775909423828125 15.139275550842285156 11.404646873474121094 9.3505926132202148438 12.499359130859375 13.698840141296386719 14.873600959777832031 17.18115234375 14.965578079223632812 10.790432929992675781 10.874248504638671875 11.164987564086914062 10.861800193786621094 10.886066436767578125 14.332139015197753906 19.517492294311523438 21.606870651245117188 21.944898605346679688 24.706552505493164062 26.603715896606445312 22.44411468505859375 15.248509407043457031 19.907186508178710938 26.071676254272460938 27.621379852294921875 26.829813003540039062 24.019105911254882812 15.719788551330566406 10.643657684326171875 20.514986038208007812 20.171009063720703125 16.833219528198242188 15.260061264038085938 19.1412811279296875 20.58333587646484375 18.265672683715820312 19.006473541259765625 18.066501617431640625 15.417412757873535156 13.457386016845703125 9.530742645263671875 8.2686910629272460938 7.7957973480224609375 10.908468246459960938 7.3861460685729980469 5.69738006591796875 6.7696633338928222656 9.88619232177734375 10.453248977661132812 11.508005142211914062 12.263859748840332031 9.5013303756713867188 7.5392050743103027344 5.3254594802856445312 3.7403481006622314453 2.9999232292175292969 2.8969867229461669922 4.5592446327209472656 2.8754231929779052734 1.7110466957092285156 4.3032164573669433594 4.2420620918273925781 2.4876708984375 2.2484641075134277344 4.0067014694213867188 7.6096868515014648438 10.077505111694335938 9.3056230545043945312 10.720308303833007812 15.052321434020996094 14.034237861633300781 12.898718833923339844 13.378904342651367188 14.126750946044921875 15.284874916076660156 15.943963050842285156 14.993680000305175781 13.730342864990234375 17.284902572631835938 19.155635833740234375 16.896511077880859375 14.746989250183105469 12.466291427612304688 11.757430076599121094 13.603310585021972656 15.09857940673828125 16.35128021240234375 18.422212600708007812 16.996585845947265625 -9999 
-9999 16.033964157104492188 14.419505119323730469 18.804994583129882812 23.773324966430664062 27.344776153564453125 28.840791702270507812 28.173677444458007812 26.919836044311523438 25.147222518920898438 25.20298004150390625 26.558513641357421875 24.885332107543945312 23.31790924072265625 23.567800521850585938 25.546472549438476562 25.984140396118164062 23.940374374389648438 22.663204193115234375 23.3507080078125 22.711965560913085938 16.500457763671875 16.669836044311523438 21.971273422241210938 22.310993194580078125 19.544198989868164062 17.174617767333984375 17.522686004638671875 19.369354248046875 16.877141952514648438 11.891241073608398438 9.6214761734008789062 10.267910957336425781 10.220432281494140625 5.6126990318298339844 5.3721628189086914062 15.4356689453125 23.585344314575195312 26.879602432250976562 26.415349960327148438 24.253192901611328125 22.99063873291015625 21.647975921630859375 22.255380630493164062 24.012075424194335938 22.878650665283203125 15.55135345458984375 2.0918116569519042969 17.649530410766601562 21.042181015014648438 19.211820602416992188 15.682016372680664062 14.580685615539550781 16.274145126342773438 15.553109169006347656 13.953130722045898438 12.252292633056640625 11.523746490478515625 12.106042861938476562 13.397144317626953125 14.650612831115722656 14.981478691101074219 15.495267868041992188 16.577119827270507812 18.74469757080078125 23.627981185913085938 29.432294845581054688 31.855806350708007812 31.111986160278320312 31.960214614868164062 31.629947662353515625 27.692226409912109375 24.788862228393554688 22.963239669799804688 21.848474502563476562 24.580486297607421875 30.361604690551757812 35.484920501708984375 37.8598480224609375 34.65123748779296875 27.442228317260742188 21.97069549560546875 19.68518829345703125 18.978895187377929688 15.945562362670898438 11.804309844970703125 10.960338592529296875 10.719683647155761719 12.813939094543457031 15.892450332641601562 15.202113151550292969 15.49062347412109375 19.21688079833984375 18.357076644897460938 14.628721237182617188 15.256678581237792969 15.742091178894042969 14.783796310424804688 13.967452049255371094 15.020969390869140625 18.471670150756835938 22.042184829711914062 23.319095611572265625 26.085468292236328125 29.27271270751953125 26.063793182373046875 15.192458152770996094 13.21154022216796875 16.70159149169921875 17.308528900146484375 16.611236572265625 11.549058914184570312 9.5639142990112304688 21.051179885864257812 25.634740829467773438 22.056745529174804688 17.717281341552734375 15.427587509155273438 15.676583290100097656 18.264308929443359375 18.881162643432617188 19.293170928955078125 18.9185333251953125 17.050571441650390625 14.383597373962402344 6.32230377197265625 5.3834714889526367188 6.1071324348449707031 10.738941192626953125 7.8650927543640136719 5.7902398109436035156 6.6808919906616210938 8.96190643310546875 8.5687780380249023438 8.078685760498046875 7.8365025520324707031 8.1644220352172851562 8.6992969512939453125 6.4517455101013183594 3.8608384132385253906 2.2549328804016113281 2.9935328960418701172 5.3670287132263183594 4.692119598388671875 3.9604582786560058594 5.2537360191345214844 3.7723827362060546875 3.3946382999420166016 2.445583343505859375 0.75724101066589355469 1.4640250205993652344 3.1662507057189941406 5.2166743278503417969 11.305835723876953125 15.974470138549804688 15.195070266723632812 15.0190277099609375 13.242911338806152344 8.8773021697998046875 6.2206716537475585938 6.9084248542785644531 9.6527414321899414062 11.596254348754882812 14.589211463928222656 15.86435699462890625 14.157014846801757812 11.84908294677734375 11.061420440673828125 12.152781486511230469 13.537135124206542969 15.062757492065429688 15.828145027160644531 13.366250038146972656 12.336604118347167969 -9999 
-9999 13.419682502746582031 15.063017845153808594 21.518373489379882812 27.922922134399414062 30.37579345703125 29.655599594116210938 27.736684799194335938 26.731443405151367188 26.124380111694335938 26.004070281982421875 26.387393951416015625 25.456449508666992188 23.58351898193359375 24.018108367919921875 27.399456024169921875 26.876453399658203125 23.841777801513671875 23.096311569213867188 24.979215621948242188 26.4235992431640625 23.185571670532226562 23.637804031372070312 27.06975555419921875 26.035848617553710938 22.515615463256835938 20.007036209106445312 18.57050323486328125 19.401996612548828125 19.263845443725585938 15.590823173522949219 12.64691162109375 12.116392135620117188 12.678682327270507812 9.194061279296875 6.3311829566955566406 8.8499116897583007812 20.159725189208984375 27.345930099487304688 29.464099884033203125 27.51163482666015625 24.312269210815429688 22.66434478759765625 23.75299072265625 23.720548629760742188 20.60449981689453125 12.139934539794921875 6.5876021385192871094 20.429010391235351562 20.648586273193359375 16.345125198364257812 13.581844329833984375 13.94449615478515625 14.961872100830078125 14.053449630737304688 14.037508964538574219 14.163312911987304688 13.43328094482421875 12.87456512451171875 14.112104415893554688 14.835230827331542969 13.712045669555664062 13.730416297912597656 14.860745429992675781 17.146036148071289062 23.200471878051757812 29.282459259033203125 30.092449188232421875 27.545032501220703125 28.041658401489257812 29.490598678588867188 26.736080169677734375 24.027866363525390625 23.987060546875 24.13167572021484375 26.190420150756835938 30.721410751342773438 34.8347625732421875 37.079685211181640625 36.428619384765625 31.539957046508789062 24.035060882568359375 18.015026092529296875 14.829183578491210938 12.166186332702636719 8.7112436294555664062 7.5169005393981933594 9.036956787109375 14.317907333374023438 17.528547286987304688 16.151050567626953125 15.428751945495605469 19.063859939575195312 19.159513473510742188 16.232309341430664062 17.849653244018554688 18.783916473388671875 18.274667739868164062 16.943841934204101562 15.353635787963867188 15.738146781921386719 20.330648422241210938 23.795309066772460938 27.153890609741210938 30.588741302490234375 27.372711181640625 12.432132720947265625 10.17592620849609375 13.911350250244140625 12.18121337890625 12.780914306640625 16.045223236083984375 21.634191513061523438 26.12302398681640625 25.973804473876953125 21.18102264404296875 16.431467056274414062 13.744923591613769531 12.656068801879882812 14.516816139221191406 17.034074783325195312 18.363901138305664062 18.830617904663085938 18.1674957275390625 15.96450042724609375 6.5929398536682128906 2.1499001979827880859 4.1276392936706542969 9.6409444808959960938 6.6376414299011230469 2.6025774478912353516 3.9130332469940185547 5.7229971885681152344 5.3367714881896972656 6.1713314056396484375 6.7783575057983398438 8.04886627197265625 9.2336626052856445312 7.4213376045227050781 5.0184807777404785156 3.6390161514282226562 4.7874402999877929688 7.5234303474426269531 6.3962907791137695312 4.26880645751953125 4.3288779258728027344 2.3985972404479980469 2.5381255149841308594 2.8966875076293945312 3.2488958835601806641 3.9567601680755615234 5.1063318252563476562 7.352169036865234375 12.990444183349609375 16.795719146728515625 15.026455879211425781 15.841801643371582031 16.302898406982421875 14.287592887878417969 13.594820976257324219 10.872577667236328125 6.5636396408081054688 7.7038106918334960938 9.6515359878540039062 10.828022956848144531 11.318799972534179688 10.318837165832519531 10.746029853820800781 11.759255409240722656 11.957834243774414062 13.113253593444824219 13.161945343017578125 10.258505821228027344 13.402923583984375 -9999 
-9999 18.285673141479492188 25.376245498657226562 29.279125213623046875 29.0814666748046875 28.469690322875976562 30.13286590576171875 29.8730010986328125 28.384717941284179688 27.440027236938476562 27.169538497924804688 26.75746917724609375 24.865360260009765625 24.013135910034179688 26.765401840209960938 30.142124176025390625 28.08440399169921875 24.884614944458007812 25.806871414184570312 27.673833847045898438 29.136365890502929688 27.532918930053710938 26.109159469604492188 26.796918869018554688 24.873437881469726562 21.252445220947265625 19.744524002075195312 20.1090240478515625 21.6534271240234375 21.839662551879882812 18.95258331298828125 16.438657760620117188 15.623388290405273438 15.89636993408203125 13.98900604248046875 13.259984970092773438 11.784471511840820312 14.364855766296386719 23.650323867797851562 30.550739288330078125 30.4085693359375 25.942319869995117188 23.193042755126953125 23.925184249877929688 24.347517013549804688 20.876298904418945312 10.29590606689453125 9.4418392181396484375 22.511461257934570312 19.8197479248046875 13.728791236877441406 12.724397659301757812 14.230230331420898438 15.134387969970703125 13.830244064331054688 12.866356849670410156 14.176450729370117188 14.965177536010742188 13.833857536315917969 14.315918922424316406 15.077530860900878906 14.237822532653808594 13.528851509094238281 14.506528854370117188 17.83420562744140625 24.83562469482421875 28.94290924072265625 26.787984848022460938 25.457645416259765625 26.337512969970703125 27.001251220703125 26.3106689453125 25.616117477416992188 26.319431304931640625 27.000049591064453125 29.048961639404296875 32.573223114013671875 35.442127227783203125 37.44046783447265625 38.7666473388671875 36.9005126953125 29.529815673828125 19.318912506103515625 12.366960525512695312 9.3395185470581054688 6.3680148124694824219 5.5788664817810058594 9.0998773574829101562 15.5734405517578125 17.465333938598632812 15.345266342163085938 14.441367149353027344 17.856655120849609375 18.288003921508789062 17.3724822998046875 20.67429351806640625 21.673128128051757812 20.837677001953125 18.051824569702148438 14.992833137512207031 14.543182373046875 18.72265625 23.631464004516601562 28.486658096313476562 31.9065093994140625 27.716827392578125 8.9822378158569335938 17.664018630981445312 22.7536468505859375 22.814893722534179688 25.353860855102539062 25.782327651977539062 25.575407028198242188 25.032623291015625 23.727405548095703125 20.255578994750976562 15.763058662414550781 11.980193138122558594 9.491245269775390625 11.943634986877441406 15.602046012878417969 17.09510040283203125 17.45452880859375 16.984533309936523438 16.103038787841796875 9.1357021331787109375 0.53629064559936523438 2.4686779975891113281 8.916530609130859375 7.5178937911987304688 5.1153731346130371094 5.5468358993530273438 5.3432106971740722656 6.3961696624755859375 8.8181867599487304688 9.1358518600463867188 9.03577423095703125 9.9093799591064453125 8.9394664764404296875 6.6513838768005371094 6.0091733932495117188 7.9139862060546875 9.9624042510986328125 7.0307893753051757812 4.1620235443115234375 3.275211334228515625 1.5499067306518554688 1.6209700107574462891 3.1500134468078613281 5.9535779953002929688 8.8044385910034179688 10.303030967712402344 11.784272193908691406 15.887225151062011719 19.669801712036132812 16.046199798583984375 13.740721702575683594 13.370027542114257812 11.962640762329101562 13.545172691345214844 15.923464775085449219 13.519396781921386719 8.6461048126220703125 6.5190219879150390625 9.1109876632690429688 11.647443771362304688 11.338017463684082031 10.977503776550292969 11.069698333740234375 10.330313682556152344 11.432328224182128906 11.294198989868164062 13.489819526672363281 17.04198455810546875 -9999 
-9999 28.949031829833984375 31.325857162475585938 28.212224960327148438 25.387403488159179688 28.431928634643554688 31.315624237060546875 30.647935867309570312 29.168304443359375 27.554380416870117188 26.051549911499023438 25.0582427978515625 22.83321380615234375 23.514379501342773438 29.668359756469726562 33.215972900390625 29.307691574096679688 26.171216964721679688 28.135936737060546875 29.844682693481445312 30.493227005004882812 28.420757293701171875 25.434705734252929688 24.443281173706054688 22.137094497680664062 18.25811767578125 16.972080230712890625 19.20919036865234375 20.550403594970703125 19.5100555419921875 17.627153396606445312 16.0161895751953125 15.921442031860351562 16.345708847045898438 15.00128936767578125 14.521816253662109375 14.677275657653808594 12.255740165710449219 17.734619140625 28.698577880859375 30.844768524169921875 27.219823837280273438 24.150777816772460938 23.575910568237304688 24.938779830932617188 22.210500717163085938 9.4390735626220703125 11.283715248107910156 22.648248672485351562 19.00649261474609375 13.771027565002441406 13.753991127014160156 15.369435310363769531 17.810779571533203125 19.25310516357421875 18.588605880737304688 18.630413055419921875 20.639856338500976562 19.804510116577148438 18.485822677612304688 17.982189178466796875 17.546377182006835938 16.818450927734375 17.700990676879882812 21.828121185302734375 29.277339935302734375 31.193347930908203125 26.933492660522460938 28.48961639404296875 31.634243011474609375 29.358737945556640625 24.86536407470703125 22.980401992797851562 23.220006942749023438 23.919506072998046875 26.56658172607421875 28.84847259521484375 30.6218414306640625 34.16289520263671875 37.934551239013671875 38.8340911865234375 34.54451751708984375 23.687669754028320312 12.655610084533691406 7.9459919929504394531 5.5103435516357421875 6.7754225730895996094 12.666812896728515625 18.35205078125 17.959930419921875 15.000313758850097656 14.380742073059082031 17.857822418212890625 18.750341415405273438 20.842176437377929688 25.895013809204101562 26.145641326904296875 23.773157119750976562 19.320837020874023438 16.486513137817382812 19.434186935424804688 22.513034820556640625 24.485507965087890625 29.24300384521484375 32.974140167236328125 27.761753082275390625 7.8808817863464355469 23.537494659423828125 29.189258575439453125 24.715978622436523438 21.869688034057617188 23.405542373657226562 24.432338714599609375 23.565706253051757812 22.453847885131835938 19.704641342163085938 15.024236679077148438 10.944132804870605469 9.2582960128784179688 12.172199249267578125 15.724492073059082031 16.611865997314453125 16.141710281372070312 14.097596168518066406 14.019578933715820312 10.803653717041015625 2.5100798606872558594 2.49860382080078125 7.8684444427490234375 9.3908910751342773438 8.9662694931030273438 9.3924427032470703125 8.1523294448852539062 8.7843418121337890625 10.168924331665039062 11.261859893798828125 10.536562919616699219 10.259563446044921875 10.482743263244628906 9.4686574935913085938 9.8215799331665039062 11.717681884765625 11.585157394409179688 5.8032355308532714844 3.3499934673309326172 0.96068572998046875 0.62258237600326538086 1.5362530946731567383 5.5904097557067871094 9.0379657745361328125 10.857108116149902344 11.621374130249023438 12.092328071594238281 15.783324241638183594 21.369485855102539062 18.447969436645507812 12.782858848571777344 9.8857326507568359375 7.8481965065002441406 8.907848358154296875 14.075633049011230469 15.707628250122070312 11.444559097290039062 8.6805677413940429688 9.9222583770751953125 12.010982513427734375 12.248386383056640625 11.76232147216796875 11.715974807739257812 11.80178070068359375 12.088120460510253906 11.201195716857910156 17.790491104125976562 21.55596160888671875 -9999 
-9999 29.426259994506835938 22.690725326538085938 17.872943878173828125 19.164684295654296875 26.094837188720703125 29.444118499755859375 28.348825454711914062 26.65741729736328125 24.385431289672851562 22.762578964233398438 22.576091766357421875 20.874164581298828125 22.504457473754882812 30.4763641357421875 34.522064208984375 31.084537506103515625 28.699657440185546875 29.787933349609375 30.51834869384765625 30.354244232177734375 27.57451629638671875 24.577983856201171875 23.253025054931640625 20.771612167358398438 16.991924285888671875 14.772686958312988281 14.751743316650390625 15.3354949951171875 15.304671287536621094 15.250215530395507812 14.031244277954101562 13.840280532836914062 14.605196952819824219 13.17815399169921875 12.015925407409667969 13.009991645812988281 12.665228843688964844 15.105910301208496094 26.94031524658203125 30.267251968383789062 27.557403564453125 24.45844268798828125 23.0423736572265625 24.829380035400390625 22.872095108032226562 8.7921009063720703125 12.172769546508789062 21.709423065185546875 19.058872222900390625 15.56066131591796875 15.2482757568359375 16.505846023559570312 21.3194427490234375 25.312770843505859375 23.789058685302734375 21.981325149536132812 22.163234710693359375 22.7363739013671875 22.014278411865234375 20.430185317993164062 18.521356582641601562 18.976388931274414062 20.435888290405273438 23.514904022216796875 30.74205780029296875 32.086582183837890625 28.691806793212890625 33.222080230712890625 37.41957855224609375 35.849147796630859375 34.252429962158203125 33.480770111083984375 33.732440948486328125 34.387477874755859375 34.54425048828125 33.71617889404296875 31.639942169189453125 31.347955703735351562 33.64693450927734375 35.827266693115234375 35.235263824462890625 26.335538864135742188 13.351963043212890625 6.7868676185607910156 5.8813295364379882812 10.664391517639160156 17.063272476196289062 20.297313690185546875 18.524076461791992188 15.7615509033203125 15.392033576965332031 18.615573883056640625 21.185689926147460938 24.259222030639648438 29.100069046020507812 28.67555999755859375 27.296827316284179688 22.88115692138671875 18.881914138793945312 24.78456878662109375 28.188089370727539062 28.702793121337890625 30.42197418212890625 32.182605743408203125 26.319139480590820312 6.9416270256042480469 26.492288589477539062 33.078784942626953125 28.615461349487304688 19.768733978271484375 18.187372207641601562 20.509099960327148438 20.953365325927734375 19.57578277587890625 16.376710891723632812 12.820468902587890625 10.402189254760742188 10.642849922180175781 12.713427543640136719 15.124094963073730469 15.51674652099609375 14.352045059204101562 11.316160202026367188 11.116436004638671875 10.270546913146972656 4.4764189720153808594 4.1183061599731445312 6.3251972198486328125 9.3790063858032226562 10.346296310424804688 11.153187751770019531 9.9599218368530273438 10.317669868469238281 10.881039619445800781 13.110086441040039062 11.811787605285644531 9.4069356918334960938 9.8929567337036132812 11.32335662841796875 13.50164031982421875 14.48645782470703125 9.8422641754150390625 2.4428386688232421875 5.6816816329956054688 4.2890782356262207031 4.5103783607482910156 5.134738922119140625 8.9155483245849609375 9.5098323822021484375 7.6247911453247070312 6.5008959770202636719 7.1706295013427734375 15.622348785400390625 23.394376754760742188 21.171710968017578125 13.394486427307128906 8.8542947769165039062 7.1250061988830566406 6.3946142196655273438 10.344846725463867188 13.607425689697265625 10.779398918151855469 8.2256784439086914062 8.760517120361328125 10.52539825439453125 11.594465255737304688 12.09961700439453125 13.051686286926269531 13.448998451232910156 11.624149322509765625 13.076921463012695312 21.326723098754882812 24.55687713623046875 -9999 
-9999 17.9300537109375 14.654607772827148438 16.157238006591796875 19.790431976318359375 25.07378387451171875 27.425081253051757812 28.413095474243164062 29.1546630859375 27.3156280517578125 24.447305679321289062 23.401538848876953125 22.588109970092773438 24.395204544067382812 29.653438568115234375 32.475345611572265625 31.3113555908203125 30.696809768676757812 30.387563705444335938 30.024911880493164062 30.346448898315429688 27.648162841796875 23.897310256958007812 21.838495254516601562 19.928640365600585938 17.971904754638671875 17.121334075927734375 15.56746673583984375 13.477190017700195312 11.303514480590820312 11.158589363098144531 11.496662139892578125 11.137091636657714844 11.984215736389160156 10.983599662780761719 10.186347007751464844 11.08939361572265625 12.329985618591308594 14.457014083862304688 24.296459197998046875 28.427196502685546875 26.761926651000976562 24.07314300537109375 22.418561935424804688 24.362695693969726562 22.900884628295898438 8.8731584548950195312 11.177652359008789062 20.651519775390625 20.595600128173828125 18.176898956298828125 16.895437240600585938 18.61053466796875 24.93373870849609375 29.049356460571289062 26.545934677124023438 24.181928634643554688 23.771337509155273438 25.136899948120117188 24.979156494140625 23.573728561401367188 20.77301025390625 20.274198532104492188 21.510379791259765625 23.342174530029296875 29.607357025146484375 31.772136688232421875 28.87366485595703125 32.320587158203125 35.932628631591796875 34.065158843994140625 33.2031402587890625 35.105571746826171875 37.03946685791015625 38.000873565673828125 37.647693634033203125 38.09239959716796875 38.16144561767578125 37.351207733154296875 35.74858856201171875 33.97725677490234375 32.140956878662109375 24.533342361450195312 12.715160369873046875 5.5920634269714355469 8.07811737060546875 14.93671417236328125 19.362897872924804688 20.6544342041015625 19.244844436645507812 16.676671981811523438 16.599515914916992188 20.120622634887695312 24.651580810546875 26.887454986572265625 29.992364883422851562 27.735595703125 28.975748062133789062 27.212924957275390625 22.913394927978515625 28.532861709594726562 30.729608535766601562 31.26813507080078125 32.216083526611328125 31.2761993408203125 23.803644180297851562 9.7463788986206054688 27.548564910888671875 34.123172760009765625 31.97125244140625 23.311626434326171875 17.1831207275390625 16.18828582763671875 15.197350502014160156 13.465728759765625 12.094449996948242188 12.279805183410644531 12.240581512451171875 12.628216743469238281 13.986600875854492188 15.46665191650390625 15.309820175170898438 13.688262939453125 10.734469413757324219 9.0132656097412109375 6.75693511962890625 4.021236419677734375 5.8597111701965332031 6.554088592529296875 8.3998041152954101562 10.036244392395019531 11.491296768188476562 10.802895545959472656 11.139523506164550781 12.046580314636230469 15.573187828063964844 14.408324241638183594 10.831781387329101562 10.734858512878417969 12.068300247192382812 14.311305046081542969 14.876244544982910156 7.9479475021362304688 6.2809019088745117188 8.4124317169189453125 5.8193025588989257812 5.8823795318603515625 10.267614364624023438 11.337677001953125 7.0507755279541015625 3.5493907928466796875 3.1359548568725585938 4.37374114990234375 18.409360885620117188 27.21988677978515625 23.697040557861328125 14.262298583984375 8.7951002120971679688 6.40103912353515625 5.2619338035583496094 7.1364450454711914062 10.270949363708496094 9.18202972412109375 7.0078673362731933594 7.9460501670837402344 10.041034698486328125 11.628660202026367188 12.548070907592773438 13.228565216064453125 11.570700645446777344 9.3821363449096679688 15.07088470458984375 22.802381515502929688 24.84952545166015625 -9999 
-9999 8.9177198410034179688 13.112290382385253906 19.104345321655273438 24.470048904418945312 27.606836318969726562 29.776552200317382812 32.694545745849609375 33.873722076416015625 32.185882568359375 30.405426025390625 30.836034774780273438 31.28365325927734375 31.943750381469726562 32.52909088134765625 32.14076995849609375 31.618177413940429688 31.600070953369140625 29.855991363525390625 28.46579742431640625 30.435003280639648438 29.301126480102539062 25.09613800048828125 21.67658233642578125 18.92352294921875 17.704647064208984375 18.086719512939453125 16.58935546875 12.199369430541992188 9.2359571456909179688 10.8607177734375 13.332307815551757812 13.065470695495605469 11.157624244689941406 10.001493453979492188 10.377252578735351562 10.7470855712890625 11.161638259887695312 12.773956298828125 19.633663177490234375 25.841218948364257812 26.551486968994140625 24.180295944213867188 21.712450027465820312 23.1951751708984375 22.661808013916015625 10.344861030578613281 8.2710351943969726562 19.328023910522460938 22.643266677856445312 21.212017059326171875 19.687173843383789062 23.357273101806640625 29.863010406494140625 32.036502838134765625 29.681732177734375 25.158514022827148438 23.984647750854492188 25.33367919921875 26.875597000122070312 25.508226394653320312 25.138887405395507812 22.411396026611328125 21.966768264770507812 23.038013458251953125 27.721965789794921875 31.579858779907226562 30.066759109497070312 31.138723373413085938 34.923248291015625 35.373931884765625 34.143405914306640625 33.846355438232421875 35.698093414306640625 36.43209075927734375 35.78690338134765625 36.568584442138671875 36.544986724853515625 34.9065399169921875 32.359058380126953125 29.060865402221679688 25.293262481689453125 18.9071044921875 10.857104301452636719 5.1298699378967285156 13.027125358581542969 19.124986648559570312 20.474367141723632812 21.96563720703125 20.958322525024414062 17.011987686157226562 16.632335662841796875 20.915729522705078125 26.094308853149414062 29.08017730712890625 30.66576385498046875 26.404314041137695312 28.388380050659179688 29.018463134765625 27.7068328857421875 32.17798614501953125 32.9862060546875 32.664867401123046875 33.772678375244140625 30.773660659790039062 19.024953842163085938 12.6161651611328125 25.799755096435546875 32.01999664306640625 33.65048980712890625 29.619379043579101562 23.01454925537109375 18.22882843017578125 15.431478500366210938 12.243627548217773438 11.90166473388671875 14.629285812377929688 15.212405204772949219 14.578153610229492188 15.701344490051269531 16.880590438842773438 16.256772994995117188 14.307686805725097656 11.546403884887695312 9.0699186325073242188 4.4395422935485839844 2.530666351318359375 6.3038806915283203125 7.0792927742004394531 8.0243291854858398438 9.5804204940795898438 11.658034324645996094 11.688512802124023438 10.864220619201660156 11.863849639892578125 16.64935302734375 17.15183258056640625 13.980443954467773438 12.597408294677734375 12.333316802978515625 13.377674102783203125 13.494810104370117188 7.8900279998779296875 8.8566312789916992188 8.6890306472778320312 4.7065458297729492188 5.5835170745849609375 13.500024795532226562 12.631680488586425781 5.8389172554016113281 3.4079771041870117188 2.8425934314727783203 3.4434208869934082031 18.390672683715820312 28.398626327514648438 25.396192550659179688 14.264571189880371094 6.0576567649841308594 3.9779691696166992188 4.0223889350891113281 5.1055269241333007812 7.340496063232421875 6.7219362258911132812 6.7202930450439453125 11.149413108825683594 14.300089836120605469 15.589261054992675781 14.564583778381347656 12.189694404602050781 9.4633703231811523438 9.13002777099609375 15.187466621398925781 20.834436416625976562 23.206029891967773438 -9999 
-9999 9.50507354736328125 11.128252983093261719 18.045787811279296875 26.033023834228515625 30.146327972412109375 31.788999557495117188 33.06931304931640625 33.468624114990234375 32.0225067138671875 29.988964080810546875 31.165760040283203125 32.73851776123046875 33.89769744873046875 34.4557342529296875 34.17925262451171875 34.17368316650390625 34.2454833984375 31.708980560302734375 28.598070144653320312 30.066507339477539062 30.12769317626953125 26.289087295532226562 22.101129531860351562 18.50690460205078125 17.441921234130859375 17.63219451904296875 13.519005775451660156 8.5500917434692382812 9.9448385238647460938 11.961779594421386719 14.128088951110839844 16.142747879028320312 14.1753082275390625 10.47299957275390625 9.5651988983154296875 10.424298286437988281 10.873928070068359375 11.328600883483886719 15.941063880920410156 23.610868453979492188 26.264591217041015625 23.386098861694335938 20.136209487915039062 21.727952957153320312 23.043865203857421875 13.036080360412597656 4.9859824180603027344 18.878520965576171875 25.743288040161132812 24.257047653198242188 23.333566665649414062 30.403759002685546875 36.269824981689453125 35.506313323974609375 31.8380126953125 26.530284881591796875 21.864765167236328125 22.068807601928710938 26.022916793823242188 24.844045639038085938 25.705778121948242188 25.25724029541015625 21.888536453247070312 20.689823150634765625 24.424505233764648438 30.246129989624023438 30.252223968505859375 29.468408584594726562 33.222385406494140625 36.131626129150390625 35.060161590576171875 30.492519378662109375 26.952154159545898438 26.729997634887695312 26.627626419067382812 27.54038238525390625 27.552761077880859375 24.135881423950195312 19.953035354614257812 18.160924911499023438 16.751239776611328125 13.515279769897460938 9.1672677993774414062 6.3168020248413085938 19.50434112548828125 24.006412506103515625 22.891979217529296875 24.464962005615234375 22.685880661010742188 17.8004302978515625 16.080667495727539062 19.96681976318359375 23.187223434448242188 26.223527908325195312 28.191553115844726562 24.458744049072265625 27.055555343627929688 28.14605712890625 28.169443130493164062 33.268215179443359375 34.44449615478515625 33.57418060302734375 31.301401138305664062 20.188993453979492188 8.7264280319213867188 19.13588714599609375 22.72766876220703125 24.04975128173828125 28.1385955810546875 30.571420669555664062 28.350505828857421875 23.153537750244140625 20.496767044067382812 18.0877532958984375 16.01732635498046875 17.011640548706054688 16.352054595947265625 14.491495132446289062 14.719098091125488281 15.340077400207519531 14.63007354736328125 12.6243133544921875 10.056771278381347656 7.7867236137390136719 4.6469216346740722656 6.9814052581787109375 7.7404065132141113281 7.4613060951232910156 8.7303915023803710938 9.9896421432495117188 11.361945152282714844 10.931642532348632812 9.1816511154174804688 10.57506561279296875 15.075184822082519531 18.372314453125 17.380252838134765625 14.807160377502441406 13.584359169006347656 14.173536300659179688 12.066962242126464844 4.8555536270141601562 9.05594635009765625 6.7670717239379882812 2.9332118034362792969 5.4035491943359375 13.86827850341796875 13.699300765991210938 6.9189429283142089844 4.8524994850158691406 2.0283856391906738281 3.8872931003570556641 13.430392265319824219 25.620584487915039062 29.51839447021484375 23.233980178833007812 12.730848312377929688 5.5539679527282714844 4.223079681396484375 4.3755488395690917969 5.0378704071044921875 5.075153350830078125 12.863926887512207031 17.261981964111328125 17.534557342529296875 16.69933319091796875 13.927866935729980469 12.27779388427734375 10.555973052978515625 10.212884902954101562 14.347326278686523438 17.711652755737304688 20.108623504638671875 -9999 
-9999 16.320104598999023438 14.907077789306640625 14.9296875 21.29010009765625 29.785753250122070312 34.22310638427734375 34.70851898193359375 34.876461029052734375 34.2746124267578125 30.7844085693359375 28.880186080932617188 28.440296173095703125 29.054140090942382812 30.745069503784179688 31.952558517456054688 32.64101409912109375 33.10764312744140625 31.851673126220703125 29.754673004150390625 29.426950454711914062 28.127836227416992188 25.108789443969726562 21.664798736572265625 17.744909286499023438 16.002641677856445312 13.751497268676757812 8.5576353073120117188 8.32276153564453125 10.889866828918457031 12.844470024108886719 13.08188629150390625 16.903743743896484375 18.293867111206054688 15.629471778869628906 13.093064308166503906 11.067386627197265625 12.51758575439453125 14.37685394287109375 15.4963531494140625 18.513957977294921875 22.567045211791992188 23.38776397705078125 20.833927154541015625 21.5915985107421875 24.352588653564453125 16.294122695922851562 2.6909756660461425781 21.130357742309570312 29.982452392578125 26.188365936279296875 25.605546951293945312 34.5681915283203125 37.62380218505859375 33.325519561767578125 28.790281295776367188 24.34738922119140625 18.537504196166992188 17.891490936279296875 23.768938064575195312 24.243144989013671875 21.615579605102539062 23.239255905151367188 21.3830413818359375 17.0125274658203125 21.424541473388671875 29.381189346313476562 30.76042938232421875 29.119832992553710938 31.739023208618164062 35.441555023193359375 34.2837066650390625 29.179067611694335938 24.36319732666015625 22.611516952514648438 22.741832733154296875 22.847082138061523438 22.527185440063476562 19.898601531982421875 15.467572212219238281 14.205568313598632812 13.441516876220703125 11.2320556640625 7.8432207107543945312 8.655628204345703125 24.550647735595703125 27.130346298217773438 25.530517578125 27.708423614501953125 24.748136520385742188 19.799600601196289062 15.396914482116699219 17.2518157958984375 17.92694091796875 19.461782455444335938 22.549184799194335938 20.948766708374023438 24.920576095581054688 26.411252975463867188 24.18236541748046875 30.443700790405273438 32.23870086669921875 29.364225387573242188 18.853345870971679688 11.85235595703125 25.937681198120117188 29.471340179443359375 28.090810775756835938 25.034671783447265625 21.25128173828125 22.068134307861328125 24.723114013671875 22.738773345947265625 22.7057342529296875 23.269771575927734375 20.294946670532226562 18.723913192749023438 17.080699920654296875 14.253941535949707031 13.294420242309570312 13.250418663024902344 12.282743453979492188 10.328065872192382812 8.8056402206420898438 6.773090362548828125 4.9602189064025878906 9.914318084716796875 11.168152809143066406 9.4255590438842773438 9.31111907958984375 10.032352447509765625 10.626681327819824219 9.4991550445556640625 9.0023975372314453125 11.253141403198242188 12.5417022705078125 16.834039688110351562 19.468555450439453125 16.530437469482421875 14.520639419555664062 16.04895782470703125 12.478770256042480469 3.0672764778137207031 7.8574199676513671875 3.3225290775299072266 3.7427580356597900391 5.730068206787109375 12.755238533020019531 13.943943977355957031 9.37882232666015625 6.0221529006958007812 2.0166182518005371094 5.3264298439025878906 6.7169442176818847656 16.551059722900390625 27.7635650634765625 30.801849365234375 25.539670944213867188 16.1361541748046875 8.5024547576904296875 4.5567679405212402344 6.1317610740661621094 12.779438018798828125 18.935609817504882812 16.651641845703125 13.989290237426757812 13.531280517578125 12.660212516784667969 13.639988899230957031 11.987441062927246094 10.859354972839355469 13.417377471923828125 16.627780914306640625 19.412855148315429688 -9999 
-9999 19.749019622802734375 18.076501846313476562 15.53116607666015625 14.485095024108886719 22.820753097534179688 32.444080352783203125 36.151630401611328125 37.758609771728515625 38.29053497314453125 35.080623626708984375 33.42932891845703125 33.886150360107421875 32.12636566162109375 30.100193023681640625 29.380367279052734375 29.547040939331054688 30.469930648803710938 30.508714675903320312 28.486753463745117188 26.407312393188476562 24.187620162963867188 22.758235931396484375 20.275449752807617188 15.885540962219238281 12.725140571594238281 9.4737567901611328125 9.050327301025390625 9.6622791290283203125 12.467850685119628906 14.926739692687988281 15.709315299987792969 18.222436904907226562 20.868455886840820312 19.694929122924804688 16.989313125610351562 14.470002174377441406 11.3817291259765625 12.630441665649414062 14.787019729614257812 13.104677200317382812 15.1745452880859375 22.137903213500976562 21.345018386840820312 20.639883041381835938 24.798830032348632812 18.695011138916015625 3.4159197807312011719 25.320631027221679688 32.983245849609375 26.122549057006835938 25.935266494750976562 35.09076690673828125 36.721538543701171875 31.6902618408203125 26.105609893798828125 20.628559112548828125 14.511968612670898438 15.035279273986816406 21.458465576171875 23.061941146850585938 16.912420272827148438 14.539763450622558594 15.385546684265136719 12.400912284851074219 18.813879013061523438 29.796253204345703125 31.959463119506835938 29.206216812133789062 29.743429183959960938 33.5443878173828125 32.5817718505859375 26.763910293579101562 22.93276214599609375 23.4144744873046875 25.278944015502929688 23.978153228759765625 20.510591506958007812 19.480930328369140625 17.990495681762695312 15.219368934631347656 12.711595535278320312 10.57269287109375 6.1345152854919433594 12.507699966430664062 27.242084503173828125 28.880462646484375 25.970075607299804688 28.56301116943359375 25.491662979125976562 22.7833099365234375 18.415805816650390625 18.059617996215820312 17.425024032592773438 17.327451705932617188 20.12076568603515625 18.826190948486328125 22.52698516845703125 25.867906570434570312 21.441036224365234375 29.462505340576171875 30.00562286376953125 19.789110183715820312 10.566664695739746094 27.264253616333007812 32.913055419921875 30.883617401123046875 29.05159759521484375 28.819581985473632812 27.618663787841796875 24.876251220703125 23.47133636474609375 22.8425445556640625 24.05988311767578125 25.0920562744140625 22.780752182006835938 20.696743011474609375 18.070037841796875 14.5805511474609375 12.959288597106933594 12.621336936950683594 11.490283966064453125 9.501010894775390625 8.12566375732421875 5.5668392181396484375 6.6697354316711425781 12.105951309204101562 13.7111968994140625 12.173007011413574219 9.9033346176147460938 8.9416656494140625 9.5113401412963867188 8.7510137557983398438 9.609844207763671875 12.451973915100097656 11.41675567626953125 14.248613357543945312 19.0775604248046875 16.844867706298828125 14.923819541931152344 16.658403396606445312 13.175207138061523438 4.4801945686340332031 7.1587228775024414062 2.0961241722106933594 5.3302850723266601562 6.3202528953552246094 11.958894729614257812 13.003149986267089844 11.008699417114257812 6.427524566650390625 3.9488120079040527344 7.2062706947326660156 4.0749311447143554688 4.6278333663940429688 15.79474639892578125 26.728570938110351562 31.20455169677734375 28.9873199462890625 21.568460464477539062 14.784287452697753906 14.667300224304199219 17.491231918334960938 15.403203964233398438 8.3962612152099609375 8.9720287322998046875 13.0052947998046875 13.98592376708984375 14.174057960510253906 12.787617683410644531 12.412627220153808594 13.7184906005859375 17.270471572875976562 20.6553497314453125 -9999 
-9999 19.519701004028320312 18.872526168823242188 17.740446090698242188 15.822862625122070312 15.230503082275390625 22.419956207275390625 31.273708343505859375 37.701656341552734375 40.25693511962890625 37.4028167724609375 35.488277435302734375 36.8946380615234375 37.149593353271484375 35.834674835205078125 33.225780487060546875 30.537977218627929688 29.5666351318359375 28.696084976196289062 25.1584320068359375 20.872064590454101562 18.371786117553710938 17.41529083251953125 14.923243522644042969 14.184685707092285156 14.552912712097167969 11.690461158752441406 11.759616851806640625 14.507686614990234375 17.621433258056640625 19.264646530151367188 18.84412384033203125 19.717687606811523438 22.638433456420898438 21.863622665405273438 18.288753509521484375 16.43645477294921875 14.402112007141113281 10.927812576293945312 11.418484687805175781 12.156774520874023438 14.631839752197265625 20.87039947509765625 20.800455093383789062 19.071878433227539062 23.79974365234375 19.12094879150390625 5.3627972602844238281 29.794488906860351562 33.9226531982421875 24.48751068115234375 25.5467071533203125 34.337062835693359375 36.492099761962890625 32.744281768798828125 26.581020355224609375 19.690767288208007812 12.632659912109375 12.104119300842285156 17.498533248901367188 19.422916412353515625 14.979096412658691406 9.6391162872314453125 7.3074927330017089844 7.6413178443908691406 15.518096923828125 29.906307220458984375 32.54204559326171875 27.556591033935546875 25.658664703369140625 30.695375442504882812 32.169986724853515625 26.592561721801757812 21.59420013427734375 22.686315536499023438 27.258466720581054688 26.8858184814453125 20.175191879272460938 16.8624725341796875 18.308013916015625 16.785459518432617188 12.742360115051269531 10.314902305603027344 3.8870668411254882812 16.731210708618164062 28.915533065795898438 30.610067367553710938 28.649446487426757812 27.926694869995117188 23.681339263916015625 25.783391952514648438 26.522687911987304688 28.724071502685546875 27.483852386474609375 23.164043426513671875 21.80690765380859375 21.53936004638671875 20.299295425415039062 25.660810470581054688 20.81427001953125 29.644321441650390625 26.416753768920898438 9.0664997100830078125 23.436859130859375 32.05255889892578125 32.04381561279296875 28.354976654052734375 26.184129714965820312 26.031520843505859375 26.31098175048828125 26.242498397827148438 25.274366378784179688 24.55431365966796875 24.464303970336914062 24.64922332763671875 23.072286605834960938 20.659479141235351562 17.450428009033203125 14.025178909301757812 12.021022796630859375 11.58002471923828125 11.021576881408691406 9.2263813018798828125 6.7374262809753417969 3.9106414318084716797 9.133502960205078125 14.200720787048339844 15.307064056396484375 14.448420524597167969 11.251661300659179688 8.255977630615234375 9.1882600784301757812 9.0156583786010742188 10.320331573486328125 13.051256179809570312 12.311395645141601562 14.314404487609863281 17.996799468994140625 15.966822624206542969 14.532654762268066406 15.400842666625976562 12.962382316589355469 7.6024765968322753906 6.9712414741516113281 4.1394801139831542969 6.6028275489807128906 7.0538091659545898438 11.832055091857910156 12.246759414672851562 11.491438865661621094 5.9895653724670410156 6.2398447990417480469 7.8941755294799804688 4.7523984909057617188 3.4666934013366699219 2.9634037017822265625 12.476682662963867188 22.821184158325195312 29.995668411254882812 29.7805633544921875 25.590484619140625 21.458353042602539062 15.88138580322265625 7.527812957763671875 2.2040722370147705078 5.6287508010864257812 11.922620773315429688 14.825007438659667969 13.798633575439453125 12.704319000244140625 14.360956192016601562 15.546266555786132812 17.955053329467773438 20.569257736206054688 -9999 
-9999 16.55190277099609375 17.374872207641601562 18.98319244384765625 20.540964126586914062 20.316967010498046875 18.214017868041992188 20.279371261596679688 29.711986541748046875 36.607208251953125 36.998737335205078125 36.145923614501953125 37.1660919189453125 38.3112945556640625 38.460445404052734375 36.611675262451171875 33.65293121337890625 30.576457977294921875 26.283254623413085938 21.0243377685546875 16.267251968383789062 13.759613037109375 15.171877861022949219 17.293531417846679688 19.347036361694335938 19.6188507080078125 13.574804306030273438 9.6917409896850585938 13.060190200805664062 16.681680679321289062 17.853372573852539062 18.296136856079101562 21.075740814208984375 24.430833816528320312 22.79083251953125 18.402597427368164062 15.394429206848144531 13.895270347595214844 13.523922920227050781 16.891948699951171875 16.779684066772460938 16.08721160888671875 19.731046676635742188 19.55832672119140625 17.838281631469726562 21.755374908447265625 17.799013137817382812 7.7929434776306152344 32.580852508544921875 32.977077484130859375 22.574781417846679688 25.852499008178710938 33.538814544677734375 35.9799041748046875 33.18657684326171875 26.457971572875976562 18.701961517333984375 11.342299461364746094 8.7050180435180664062 12.412201881408691406 16.275358200073242188 15.23114776611328125 11.126539230346679688 3.5291135311126708984 4.7832798957824707031 12.068284034729003906 28.762739181518554688 32.839176177978515625 26.723907470703125 22.294397354125976562 27.164060592651367188 32.358562469482421875 29.080867767333984375 22.36028289794921875 21.943326950073242188 27.96826934814453125 30.409292221069335938 23.814741134643554688 16.739284515380859375 17.826425552368164062 17.875698089599609375 12.776175498962402344 9.5640411376953125 2.2656388282775878906 18.659955978393554688 30.156999588012695312 31.322265625 30.059701919555664062 28.702268600463867188 23.031732559204101562 27.057157516479492188 32.336517333984375 35.65125274658203125 34.852855682373046875 31.293622970581054688 24.907991409301757812 22.736818313598632812 17.98610687255859375 24.18550872802734375 20.984699249267578125 27.803110122680664062 20.18370819091796875 14.886157989501953125 28.492395401000976562 30.5087127685546875 30.127933502197265625 28.01093292236328125 27.53934478759765625 26.087284088134765625 22.08687591552734375 20.226465225219726562 20.225343704223632812 20.943851470947265625 20.920007705688476562 21.660245895385742188 19.932661056518554688 17.339033126831054688 16.397710800170898438 14.641940116882324219 10.720475196838378906 9.0585994720458984375 8.9401683807373046875 6.596561431884765625 4.0708141326904296875 4.1419014930725097656 11.135693550109863281 15.888707160949707031 16.763538360595703125 16.096330642700195312 12.537982940673828125 7.6865782737731933594 9.0035314559936523438 9.5041494369506835938 11.535645484924316406 14.032307624816894531 14.122807502746582031 15.384213447570800781 17.273202896118164062 15.362956047058105469 13.018630027770996094 12.648157119750976562 11.382351875305175781 9.1397724151611328125 7.1959700584411621094 6.3646407127380371094 8.243221282958984375 8.7681446075439453125 11.875016212463378906 12.401402473449707031 12.109491348266601562 4.9704928398132324219 6.0704455375671386719 7.1803870201110839844 4.80474090576171875 4.0723071098327636719 3.9066257476806640625 2.3879082202911376953 8.2710008621215820312 17.296146392822265625 21.737180709838867188 22.893495559692382812 20.54209136962890625 13.893802642822265625 8.0174226760864257812 5.1127834320068359375 5.161426544189453125 9.82843017578125 13.820362091064453125 12.755109786987304688 11.660129547119140625 14.607892036437988281 17.493680953979492188 19.503145217895507812 20.473253250122070312 -9999 
-9999 13.330434799194335938 14.171759605407714844 17.304494857788085938 21.03741455078125 23.618618011474609375 23.702005386352539062 22.67356109619140625 25.098857879638671875 30.0537109375 33.77317047119140625 36.05931854248046875 37.85710906982421875 39.242504119873046875 40.079654693603515625 38.658504486083984375 34.135929107666015625 28.429134368896484375 23.558725357055664062 22.4866180419921875 24.40796661376953125 26.418752670288085938 26.435213088989257812 23.915689468383789062 21.772050857543945312 22.462703704833984375 17.671068191528320312 7.0292439460754394531 3.9168534278869628906 6.6848721504211425781 13.879915237426757812 16.125453948974609375 19.948278427124023438 24.395097732543945312 23.781656265258789062 19.231441497802734375 14.924974441528320312 13.590716361999511719 14.743731498718261719 19.31280517578125 20.816972732543945312 16.939096450805664062 16.389574050903320312 17.705158233642578125 17.256496429443359375 19.238187789916992188 15.279742240905761719 9.8768405914306640625 33.579982757568359375 32.572460174560546875 23.9625091552734375 27.913372039794921875 32.36418914794921875 33.635101318359375 32.57453155517578125 27.07517242431640625 18.406751632690429688 10.072414398193359375 5.9282002449035644531 8.4859609603881835938 14.92352294921875 16.362186431884765625 12.800067901611328125 5.3496947288513183594 2.4419956207275390625 8.9524564743041992188 26.360124588012695312 32.164836883544921875 26.6768646240234375 21.254732131958007812 23.66497802734375 31.153717041015625 31.6618194580078125 25.202484130859375 22.451465606689453125 27.381017684936523438 32.3405303955078125 29.537603378295898438 21.8956756591796875 20.118255615234375 19.353792190551757812 12.402679443359375 8.0731658935546875 3.1518943309783935547 18.208456039428710938 31.339826583862304688 32.2169342041015625 29.971134185791015625 29.155630111694335938 23.816310882568359375 23.578973770141601562 31.648611068725585938 34.97544097900390625 34.197658538818359375 32.508029937744140625 27.163843154907226562 21.589910507202148438 17.736898422241210938 21.782827377319335938 22.374155044555664062 25.033941268920898438 17.107671737670898438 20.432317733764648438 30.983346939086914062 31.768579483032226562 32.097736358642578125 31.78005218505859375 33.039501190185546875 31.389888763427734375 21.774885177612304688 12.076489448547363281 13.171484947204589844 15.928828239440917969 15.064001083374023438 17.408689498901367188 16.296808242797851562 13.980443000793457031 15.784231185913085938 17.002643585205078125 13.506035804748535156 10.009598731994628906 7.9860768318176269531 1.9443377256393432617 3.5554444789886474609 6.4334168434143066406 12.217725753784179688 16.99806976318359375 18.228364944458007812 17.372432708740234375 13.457270622253417969 7.4155969619750976562 8.5267963409423828125 9.399738311767578125 12.45104217529296875 15.464676856994628906 15.638846397399902344 15.271033287048339844 17.287488937377929688 15.712992668151855469 10.476047515869140625 9.85042572021484375 10.166246414184570312 9.0212039947509765625 7.3180646896362304688 7.4528994560241699219 9.5767269134521484375 11.108023643493652344 12.370748519897460938 13.344098091125488281 12.845105171203613281 5.361843109130859375 4.2682957649230957031 7.4631505012512207031 6.3040499687194824219 2.88397216796875 3.3889360427856445312 2.7516191005706787109 3.9500443935394287109 7.9615120887756347656 8.2106904983520507812 11.306406974792480469 13.946841239929199219 13.81429290771484375 12.566318511962890625 9.2104635238647460938 6.4827871322631835938 9.409679412841796875 12.413585662841796875 11.137712478637695312 10.278683662414550781 13.536646842956542969 17.711772918701171875 20.614702224731445312 21.960714340209960938 -9999 
-9999 6.9227280616760253906 8.1151103973388671875 12.040299415588378906 16.507116317749023438 20.510955810546875 24.18416595458984375 26.474531173706054688 27.814479827880859375 29.433307647705078125 31.96795654296875 35.882839202880859375 38.335178375244140625 39.29685211181640625 40.75566864013671875 37.9733734130859375 29.994279861450195312 25.97966766357421875 29.240915298461914062 33.3252716064453125 34.232532501220703125 31.864330291748046875 28.034597396850585938 23.9098663330078125 22.561880111694335938 25.314579010009765625 23.76666259765625 13.347914695739746094 3.7081589698791503906 8.36721038818359375 13.975605010986328125 15.396345138549804688 17.2860565185546875 21.007608413696289062 23.469766616821289062 21.087337493896484375 16.551641464233398438 16.019037246704101562 18.47991180419921875 20.8681488037109375 20.562007904052734375 17.231916427612304688 14.901556015014648438 16.372129440307617188 17.284372329711914062 18.0570831298828125 13.423331260681152344 11.063860893249511719 33.61931610107421875 33.5879364013671875 27.615449905395507812 29.636627197265625 30.121479034423828125 29.68473052978515625 31.054857254028320312 28.553030014038085938 19.152942657470703125 9.4683389663696289062 4.5151190757751464844 5.7244052886962890625 13.336323738098144531 17.082691192626953125 14.150613784790039062 8.0338506698608398438 1.8912330865859985352 6.7323026657104492188 23.303821563720703125 30.466007232666015625 26.0714569091796875 21.356830596923828125 21.4245758056640625 28.858736038208007812 33.483028411865234375 30.1187744140625 25.53179168701171875 26.36219024658203125 30.946092605590820312 31.603427886962890625 26.764417648315429688 24.093248367309570312 21.085033416748046875 11.779479026794433594 6.6472692489624023438 5.8530011177062988281 18.964548110961914062 31.9361572265625 32.6883392333984375 29.313915252685546875 28.527759552001953125 26.329317092895507812 18.909589767456054688 22.415609359741210938 28.666238784790039062 30.589639663696289062 31.6068878173828125 30.534158706665039062 25.31807708740234375 21.131612777709960938 21.353296279907226562 24.19220733642578125 24.581766128540039062 17.623447418212890625 20.704364776611328125 30.75299835205078125 31.080324172973632812 30.540988922119140625 31.381109237670898438 34.33792877197265625 34.59279632568359375 25.986474990844726562 12.254191398620605469 12.313029289245605469 14.760638236999511719 10.80242919921875 13.139311790466308594 14.422160148620605469 13.586312294006347656 15.291205406188964844 16.939260482788085938 15.881910324096679688 13.573473930358886719 10.132559776306152344 3.6011664867401123047 5.2435679435729980469 8.4141149520874023438 12.769223213195800781 17.995098114013671875 19.84407806396484375 18.457523345947265625 14.067183494567871094 7.4658026695251464844 8.61890411376953125 10.28899383544921875 13.790399551391601562 16.680040359497070312 16.468715667724609375 14.838351249694824219 17.560182571411132812 15.633389472961425781 8.102764129638671875 7.923618316650390625 9.0170602798461914062 8.367534637451171875 7.5454220771789550781 7.853534698486328125 10.160964012145996094 12.935665130615234375 13.95546722412109375 14.737191200256347656 12.890974044799804688 8.02618408203125 6.5281128883361816406 9.6842012405395507812 7.6139068603515625 3.0100483894348144531 2.5517122745513916016 2.0697066783905029297 3.1074206829071044922 4.8442273139953613281 3.3462314605712890625 5.8789334297180175781 10.8288726806640625 13.761319160461425781 14.894917488098144531 12.796354293823242188 9.5971965789794921875 11.326254844665527344 12.690712928771972656 10.210108757019042969 9.7068815231323242188 14.044878005981445312 18.701227188110351562 21.18637847900390625 23.6370697021484375 -9999 
-9999 16.291683197021484375 17.466894149780273438 18.886905670166015625 20.539361953735351562 20.319240570068359375 19.737283706665039062 23.522335052490234375 28.01779937744140625 31.985454559326171875 34.9789276123046875 38.351078033447265625 39.584072113037109375 38.456844329833984375 36.99362945556640625 30.679079055786132812 28.062662124633789062 33.6925201416015625 36.90018463134765625 36.174510955810546875 32.30338287353515625 27.538097381591796875 24.28263092041015625 21.751276016235351562 22.28853607177734375 26.0168609619140625 26.58506011962890625 19.8096466064453125 11.8442230224609375 10.241194725036621094 12.428963661193847656 14.780542373657226562 15.300820350646972656 16.31041717529296875 20.55071258544921875 21.881622314453125 18.848575592041015625 17.611494064331054688 20.603466033935546875 23.1393890380859375 21.445003509521484375 17.95981597900390625 14.684325218200683594 14.384531974792480469 18.346658706665039062 21.226644515991210938 14.596497535705566406 10.591773033142089844 32.73004913330078125 34.97991180419921875 31.182394027709960938 30.213092803955078125 27.741960525512695312 26.438592910766601562 29.835279464721679688 29.721553802490234375 19.478002548217773438 8.9148120880126953125 3.9048645496368408203 4.002712249755859375 11.229559898376464844 17.208919525146484375 15.892590522766113281 10.72144317626953125 4.0496568679809570312 5.0341000556945800781 19.739881515502929688 28.055139541625976562 24.640249252319335938 21.917371749877929688 21.911252975463867188 26.45069122314453125 32.085414886474609375 32.288806915283203125 28.966363906860351562 26.888881683349609375 28.94855499267578125 30.4856414794921875 29.04657745361328125 27.614248275756835938 22.292547225952148438 11.408605575561523438 6.24709320068359375 8.4989490509033203125 21.8525390625 33.464954376220703125 33.81512451171875 29.740949630737304688 26.708431243896484375 25.140020370483398438 22.2376708984375 22.049142837524414062 23.5532989501953125 21.88580322265625 26.581287384033203125 31.894647598266601562 31.26363372802734375 28.284296035766601562 26.11251068115234375 25.463932037353515625 21.740106582641601562 13.239377975463867188 19.492650985717773438 30.933225631713867188 32.704082489013671875 30.794403076171875 30.3484039306640625 33.739032745361328125 34.704555511474609375 25.931089401245117188 11.833780288696289062 13.393054962158203125 16.341856002807617188 9.6740894317626953125 10.590671539306640625 15.011620521545410156 16.757722854614257812 17.394367218017578125 16.707971572875976562 15.68450927734375 14.363119125366210938 11.434529304504394531 7.0331783294677734375 6.0695757865905761719 9.44366455078125 13.309868812561035156 19.1360321044921875 21.069131851196289062 18.532438278198242188 13.688305854797363281 6.3709197044372558594 8.4220333099365234375 11.515435218811035156 15.5606689453125 17.723846435546875 16.950572967529296875 14.780803680419921875 16.57283782958984375 14.672806739807128906 9.6274156570434570312 7.8268074989318847656 7.5362396240234375 8.1991443634033203125 8.6069307327270507812 8.68637847900390625 10.336944580078125 13.731304168701171875 15.845949172973632812 15.488762855529785156 12.122990608215332031 11.452303886413574219 12.852960586547851562 13.903700828552246094 8.830615997314453125 5.5329298973083496094 3.9790289402008056641 2.5665256977081298828 1.9701294898986816406 2.6912329196929931641 2.8619678020477294922 3.7996644973754882812 8.008266448974609375 12.104280471801757812 14.664464950561523438 14.598374366760253906 11.911638259887695312 12.696368217468261719 13.688452720642089844 10.7903289794921875 10.479196548461914062 15.589916229248046875 20.558429718017578125 22.23834991455078125 24.377305984497070312 -9999 
-9999 25.25600433349609375 26.775905609130859375 28.623027801513671875 30.434076309204101562 30.577070236206054688 26.19953155517578125 21.158212661743164062 25.038547515869140625 31.233448028564453125 34.517070770263671875 36.4342803955078125 34.732311248779296875 29.684171676635742188 26.824773788452148438 28.377498626708984375 33.369922637939453125 35.742458343505859375 34.822292327880859375 32.690715789794921875 31.326267242431640625 27.827236175537109375 23.258798599243164062 21.744588851928710938 22.26720428466796875 25.69356536865234375 27.748371124267578125 23.8864288330078125 17.013837814331054688 12.390375137329101562 11.219513893127441406 13.87041473388671875 15.060232162475585938 13.756052017211914062 16.377445220947265625 20.655406951904296875 21.0595703125 19.881345748901367188 21.13211822509765625 23.5828094482421875 23.324686050415039062 19.636722564697265625 15.519256591796875 12.940163612365722656 16.323238372802734375 21.953281402587890625 15.769331932067871094 9.5006818771362304688 31.192724227905273438 35.743518829345703125 34.13915252685546875 30.669841766357421875 26.31783294677734375 24.841524124145507812 29.752302169799804688 30.641368865966796875 18.979278564453125 7.8383193016052246094 3.5638520717620849609 3.4372723102569580078 9.0276355743408203125 16.318464279174804688 17.130634307861328125 13.228124618530273438 6.8834676742553710938 4.2252249717712402344 16.150930404663085938 25.496030807495117188 22.784444808959960938 22.12172698974609375 24.015354156494140625 26.251895904541015625 29.762636184692382812 31.834768295288085938 31.4645538330078125 29.327089309692382812 29.282045364379882812 28.660654067993164062 28.344629287719726562 29.61141204833984375 23.93087005615234375 12.201854705810546875 7.31949615478515625 10.859628677368164062 21.44437408447265625 32.239162445068359375 33.301792144775390625 31.133790969848632812 30.05286407470703125 28.420423507690429688 25.970424652099609375 23.638240814208984375 25.197198867797851562 24.602874755859375 20.638082504272460938 28.196231842041015625 30.76319122314453125 29.278795242309570312 25.74657440185546875 18.82373809814453125 9.7274036407470703125 14.5948333740234375 25.191349029541015625 32.275623321533203125 34.692607879638671875 33.0437164306640625 31.510438919067382812 33.116809844970703125 32.416355133056640625 22.112592697143554688 9.7021284103393554688 14.129397392272949219 20.281278610229492188 18.378917694091796875 16.27392578125 16.50812530517578125 18.232517242431640625 19.871417999267578125 18.645635604858398438 15.8860321044921875 12.616912841796875 10.975193023681640625 9.630153656005859375 6.5467691421508789062 9.4470357894897460938 13.888722419738769531 20.106660842895507812 21.734846115112304688 18.440126419067382812 13.197784423828125 5.7996854782104492188 8.0031461715698242188 11.984124183654785156 17.08935546875 19.168165206909179688 17.579408645629882812 14.295863151550292969 13.972112655639648438 13.4141998291015625 12.822286605834960938 10.536197662353515625 7.9463143348693847656 9.291965484619140625 10.147234916687011719 9.7733736038208007812 10.558399200439453125 14.052933692932128906 17.19007110595703125 15.252231597900390625 12.930809974670410156 15.767591476440429688 17.14569091796875 15.049745559692382812 10.851034164428710938 8.6696233749389648438 6.1260972023010253906 3.8555169105529785156 0.61961776018142700195 1.7028909921646118164 3.1663520336151123047 2.5012960433959960938 4.9795808792114257812 9.2698307037353515625 12.924462318420410156 15.889105796813964844 15.64005279541015625 14.505360603332519531 14.305790901184082031 12.435984611511230469 12.485172271728515625 16.55870819091796875 21.423334121704101562 23.070989608764648438 24.397249221801757812 -9999 
-9999 4.6166715621948242188 9.3340091705322265625 19.424488067626953125 26.660589218139648438 30.380380630493164062 31.5620269775390625 30.189142227172851562 30.245281219482421875 30.729625701904296875 29.398355484008789062 26.51984405517578125 22.1928863525390625 25.366415023803710938 32.691257476806640625 35.7742156982421875 35.182590484619140625 32.62770843505859375 29.43427276611328125 29.364557266235351562 30.512578964233398438 26.5276031494140625 22.646236419677734375 22.375165939331054688 22.752742767333984375 25.765247344970703125 29.537687301635742188 28.681585311889648438 22.165315628051757812 14.580628395080566406 9.4897441864013671875 10.874868392944335938 14.806168556213378906 13.433396339416503906 12.586005210876464844 17.442308425903320312 21.059896469116210938 22.146520614624023438 22.70383453369140625 23.325956344604492188 24.398447036743164062 21.38036346435546875 16.4914398193359375 14.085681915283203125 16.64238739013671875 21.396821975708007812 15.216282844543457031 10.057123184204101562 29.96063995361328125 34.73923492431640625 35.53812408447265625 31.318662643432617188 25.439054489135742188 23.942707061767578125 29.746442794799804688 31.749849319458007812 19.475210189819335938 6.7969489097595214844 3.8470969200134277344 4.298877716064453125 8.05571746826171875 15.298270225524902344 17.460126876831054688 14.98540496826171875 10.333805084228515625 7.6859488487243652344 14.774584770202636719 24.072017669677734375 22.73822784423828125 22.083370208740234375 25.167234420776367188 28.554822921752929688 30.3140411376953125 31.970706939697265625 33.0255584716796875 31.680021286010742188 30.60205841064453125 27.701229095458984375 25.922182083129882812 28.506862640380859375 25.733465194702148438 15.641472816467285156 11.489451408386230469 15.34720611572265625 20.489683151245117188 28.325677871704101562 32.587413787841796875 34.345691680908203125 33.137332916259765625 29.956094741821289062 30.2286834716796875 29.858119964599609375 28.882444381713867188 29.3009796142578125 23.454504013061523438 21.108572006225585938 20.088565826416015625 15.760693550109863281 12.899977684020996094 16.409994125366210938 23.99750518798828125 29.067987442016601562 31.438701629638671875 32.63561248779296875 33.711132049560546875 33.541973114013671875 31.912134170532226562 29.962810516357421875 25.7441864013671875 16.697340011596679688 12.980143547058105469 17.745439529418945312 24.278738021850585938 25.951154708862304688 22.455181121826171875 18.70470428466796875 17.703777313232421875 20.519685745239257812 21.209352493286132812 17.50887298583984375 12.289577484130859375 11.954509735107421875 12.883553504943847656 9.4171667098999023438 9.3719320297241210938 14.608063697814941406 21.038494110107421875 22.6596221923828125 19.543703079223632812 13.314734458923339844 6.8542952537536621094 8.3533353805541992188 12.261752128601074219 18.368387222290039062 21.010847091674804688 18.543212890625 13.6035919189453125 11.51451873779296875 11.505380630493164062 13.49361419677734375 13.123260498046875 11.255147933959960938 12.0009918212890625 12.096109390258789062 10.792988777160644531 10.639683723449707031 14.160597801208496094 17.035612106323242188 16.022090911865234375 18.2720184326171875 20.77895355224609375 19.358379364013671875 15.331018447875976562 13.013524055480957031 11.816737174987792969 9.2038707733154296875 5.5838894844055175781 0.74588155746459960938 0.59887200593948364258 1.4541425704956054688 1.1847779750823974609 4.076263427734375 7.0408759117126464844 10.594221115112304688 15.928579330444335938 18.636678695678710938 16.758800506591796875 14.751992225646972656 14.266559600830078125 15.200125694274902344 17.756341934204101562 21.566194534301757812 23.321887969970703125 24.376285552978515625 -9999 
-9999 22.651819229125976562 23.772157669067382812 25.52919769287109375 25.933279037475585938 26.287799835205078125 28.596265792846679688 30.80042266845703125 32.77678680419921875 31.59344482421875 27.072202682495117188 24.38932037353515625 30.492307662963867188 37.1187286376953125 39.382015228271484375 37.90491485595703125 33.567798614501953125 28.9926605224609375 28.759716033935546875 28.831811904907226562 26.816516876220703125 24.906463623046875 25.305837631225585938 25.260875701904296875 25.288433074951171875 26.508916854858398438 30.327083587646484375 31.590297698974609375 27.051971435546875 17.857847213745117188 8.7629499435424804688 7.9203162193298339844 13.232267379760742188 13.176721572875976562 9.7955503463745117188 13.411149978637695312 18.78456878662109375 22.340160369873046875 24.7469940185546875 24.381280899047851562 24.779520034790039062 22.376262664794921875 16.840093612670898438 14.798251152038574219 17.297199249267578125 20.7791595458984375 14.225263595581054688 11.153189659118652344 29.081899642944335938 31.85387420654296875 34.74304962158203125 32.6691131591796875 26.1121368408203125 24.152225494384765625 29.049272537231445312 33.3207550048828125 23.845685958862304688 8.085498809814453125 4.3680129051208496094 5.17931365966796875 7.7411260604858398438 14.086491584777832031 17.456766128540039062 16.62979888916015625 14.782327651977539062 15.388253211975097656 18.88182830810546875 25.256069183349609375 26.1012115478515625 25.353425979614257812 27.179912567138671875 31.368595123291015625 32.990856170654296875 33.44498443603515625 33.609588623046875 32.885227203369140625 31.499073028564453125 27.818922042846679688 24.4175872802734375 25.941530227661132812 26.72406005859375 20.6035919189453125 19.513467788696289062 22.966602325439453125 24.773967742919921875 26.22247314453125 29.724935531616210938 35.805145263671875 36.611515045166015625 31.407171249389648438 29.1653594970703125 29.734434127807617188 30.835058212280273438 31.221767425537109375 23.632284164428710938 11.947886466979980469 15.704762458801269531 20.585216522216796875 24.250913619995117188 28.542455673217773438 32.31829071044921875 32.82796478271484375 32.728733062744140625 32.661991119384765625 32.677303314208984375 32.310802459716796875 29.903621673583984375 23.332950592041015625 18.065938949584960938 18.589864730834960938 20.966846466064453125 23.669284820556640625 26.26691436767578125 27.441423416137695312 26.813974380493164062 23.061004638671875 18.84210968017578125 20.5233154296875 22.29781341552734375 18.231790542602539062 11.980253219604492188 13.16934967041015625 15.978791236877441406 14.8250274658203125 12.264472007751464844 15.621479988098144531 22.267984390258789062 24.521587371826171875 21.056171417236328125 12.925426483154296875 7.7175664901733398438 8.8034296035766601562 12.194025039672851562 19.0171966552734375 22.358861923217773438 19.540439605712890625 13.873356819152832031 12.383450508117675781 13.529343605041503906 15.424475669860839844 16.058637619018554688 16.530405044555664062 15.866585731506347656 15.051398277282714844 12.997066497802734375 12.4826202392578125 14.794887542724609375 16.268413543701171875 18.000535964965820312 20.860536575317382812 19.536169052124023438 16.095060348510742188 12.782106399536132812 11.812222480773925781 12.893937110900878906 11.571532249450683594 7.2375140190124511719 3.4077394008636474609 6.1583313941955566406 8.6650724411010742188 9.485118865966796875 9.8042173385620117188 9.8396921157836914062 10.684966087341308594 15.432562828063964844 19.170965194702148438 18.03267669677734375 15.89080047607421875 16.619663238525390625 18.175279617309570312 19.797243118286132812 22.510538101196289062 23.821620941162109375 24.859834671020507812 -9999 
-9999 22.960832595825195312 26.872066497802734375 30.0119171142578125 29.450902938842773438 28.225772857666015625 28.128055572509765625 26.932886123657226562 27.47135162353515625 27.704402923583984375 27.93718719482421875 33.064849853515625 38.253753662109375 39.5388031005859375 39.4734649658203125 38.028560638427734375 33.202850341796875 32.01541900634765625 31.809864044189453125 26.249324798583984375 26.544843673706054688 28.892011642456054688 27.996030807495117188 27.257602691650390625 27.959856033325195312 28.78043365478515625 31.079423904418945312 32.1388702392578125 29.579376220703125 21.733005523681640625 10.954113960266113281 8.076892852783203125 11.524271011352539062 12.901986122131347656 9.7764329910278320312 11.713897705078125 16.753377914428710938 21.059417724609375 25.454107284545898438 25.540819168090820312 24.431230545043945312 22.37554168701171875 18.049625396728515625 16.481092453002929688 17.210161209106445312 19.709178924560546875 14.373628616333007812 10.466426849365234375 28.378631591796875 28.953571319580078125 31.453123092651367188 33.6893310546875 29.762542724609375 26.82904052734375 29.23303985595703125 34.831241607666015625 30.59041595458984375 13.943510055541992188 6.406780242919921875 6.4473710060119628906 7.7132401466369628906 11.161250114440917969 15.557353019714355469 17.407987594604492188 17.65756988525390625 20.754590988159179688 23.296792984008789062 26.77722930908203125 28.068300247192382812 27.692361831665039062 29.246091842651367188 34.058807373046875 36.049007415771484375 35.156024932861328125 33.70074462890625 33.246044158935546875 31.227588653564453125 27.628461837768554688 24.277486801147460938 24.871492385864257812 26.9963836669921875 24.072706222534179688 27.098743438720703125 29.144708633422851562 29.40459442138671875 29.828044891357421875 29.976818084716796875 34.648220062255859375 36.916179656982421875 33.5800933837890625 30.864233016967773438 29.424163818359375 29.377796173095703125 27.892856597900390625 14.919348716735839844 17.201992034912109375 27.623935699462890625 31.352479934692382812 32.22054290771484375 31.808868408203125 31.833408355712890625 31.934642791748046875 29.557252883911132812 27.538385391235351562 27.446397781372070312 26.261308670043945312 21.422735214233398438 16.193424224853515625 20.779052734375 25.311563491821289062 27.537242889404296875 28.356210708618164062 26.835590362548828125 27.32688140869140625 28.705694198608398438 26.0923004150390625 21.874708175659179688 21.004680633544921875 22.108522415161132812 17.857561111450195312 10.124323844909667969 12.851773262023925781 17.141513824462890625 19.548124313354492188 18.05333709716796875 17.690076828002929688 23.356937408447265625 26.432886123657226562 22.0457916259765625 13.036566734313964844 9.9174633026123046875 10.4730682373046875 13.0931854248046875 19.111362457275390625 22.42745208740234375 20.356393814086914062 16.29174041748046875 16.303453445434570312 18.092123031616210938 20.020181655883789062 20.703378677368164062 20.118913650512695312 17.943834304809570312 16.373159408569335938 14.060105323791503906 14.323307037353515625 15.556156158447265625 15.381876945495605469 15.742098808288574219 14.579689979553222656 10.955526351928710938 9.9169673919677734375 8.7993078231811523438 10.041293144226074219 11.737706184387207031 10.458963394165039062 8.6472034454345703125 12.493318557739257812 17.24959564208984375 19.04824066162109375 19.76815032958984375 19.805316925048828125 19.182012557983398438 18.36180877685546875 18.740091323852539062 18.676380157470703125 17.956132888793945312 17.908519744873046875 19.3889923095703125 20.960474014282226562 22.183202743530273438 24.204418182373046875 25.216119766235351562 25.67560577392578125 -9999 
-9999 13.205596923828125 17.660070419311523438 20.040973663330078125 19.625841140747070312 20.971361160278320312 22.490953445434570312 19.49308013916015625 17.411729812622070312 22.003782272338867188 31.141038894653320312 37.538494110107421875 38.936279296875 38.363529205322265625 37.24321746826171875 36.407825469970703125 36.774692535400390625 36.875789642333984375 30.325536727905273438 27.965007781982421875 32.403163909912109375 31.605743408203125 28.1028900146484375 27.274745941162109375 29.32328033447265625 31.414669036865234375 31.94155120849609375 31.437755584716796875 30.055690765380859375 25.021371841430664062 15.248918533325195312 9.87879180908203125 11.400995254516601562 13.522639274597167969 12.4531097412109375 12.764675140380859375 15.342814445495605469 19.549945831298828125 25.493337631225585938 26.445096969604492188 23.859876632690429688 21.58306121826171875 19.174234390258789062 17.179552078247070312 15.390860557556152344 19.255979537963867188 16.218921661376953125 8.388763427734375 27.839794158935546875 27.144855499267578125 25.100946426391601562 30.979764938354492188 33.083484649658203125 31.225084304809570312 31.286312103271484375 35.23065185546875 35.473224639892578125 22.771188735961914062 10.362370491027832031 8.857646942138671875 9.9876527786254882812 9.6393671035766601562 13.09432220458984375 16.499324798583984375 17.190080642700195312 20.557191848754882812 22.879486083984375 25.201229095458984375 25.632246017456054688 25.872545242309570312 29.95767974853515625 35.9829559326171875 37.57134246826171875 35.97534942626953125 33.910602569580078125 33.44213104248046875 30.528684616088867188 27.06354522705078125 24.160696029663085938 24.2325592041015625 26.432600021362304688 26.305231094360351562 31.18151092529296875 30.731019973754882812 29.874267578125 31.975427627563476562 32.163860321044921875 33.9244537353515625 36.73006439208984375 34.70497894287109375 32.1776885986328125 31.811437606811523438 29.557641983032226562 18.959180831909179688 13.819642066955566406 27.911283493041992188 32.21124267578125 33.128238677978515625 30.212160110473632812 26.027584075927734375 24.971118927001953125 25.319593429565429688 19.889080047607421875 16.711038589477539062 21.360340118408203125 22.4201507568359375 19.53729248046875 22.774221420288085938 28.23868560791015625 30.7019500732421875 31.03815460205078125 28.533071517944335938 26.44533538818359375 28.874668121337890625 28.953355789184570312 26.84471893310546875 24.441350936889648438 21.42600250244140625 20.290258407592773438 16.632497787475585938 9.2279176712036132812 12.572225570678710938 15.936525344848632812 19.966562271118164062 20.674032211303710938 19.678106307983398438 23.08322906494140625 26.083103179931640625 21.955881118774414062 13.885708808898925781 13.426622390747070312 13.811089515686035156 15.693627357482910156 19.345058441162109375 21.528978347778320312 20.96167755126953125 20.020334243774414062 20.574499130249023438 21.134988784790039062 22.0208587646484375 21.638782501220703125 19.220287322998046875 17.42563629150390625 15.392559051513671875 12.829663276672363281 13.946843147277832031 14.840296745300292969 13.203022003173828125 9.7952175140380859375 6.3266248703002929688 9.4805650711059570312 11.510274887084960938 11.642260551452636719 11.208247184753417969 8.37317657470703125 6.7979731559753417969 13.83556365966796875 19.914947509765625 21.51837921142578125 21.098337173461914062 21.992092132568359375 22.679395675659179688 23.055635452270507812 24.874721527099609375 26.068365097045898438 23.170011520385742188 19.096286773681640625 19.155437469482421875 21.01215362548828125 21.978723526000976562 22.919078826904296875 24.51627349853515625 25.39585113525390625 25.7899169921875 -9999 
-9999 9.1806812286376953125 12.915797233581542969 12.336012840270996094 11.9411163330078125 16.122037887573242188 18.191913604736328125 14.176054000854492188 18.074693679809570312 29.006273269653320312 36.044757843017578125 37.5094451904296875 35.782360076904296875 32.7398834228515625 31.038299560546875 35.662509918212890625 39.202587127685546875 37.513744354248046875 31.04586029052734375 33.512538909912109375 34.35195159912109375 33.119495391845703125 31.057186126708984375 29.410846710205078125 30.74414825439453125 32.781314849853515625 31.874217987060546875 30.161382675170898438 29.810850143432617188 27.756114959716796875 20.845193862915039062 13.223613739013671875 12.660162925720214844 14.676912307739257812 14.63492584228515625 14.45729827880859375 16.161981582641601562 20.487699508666992188 26.534160614013671875 27.048526763916015625 22.45243072509765625 19.159626007080078125 17.530157089233398438 16.061948776245117188 16.246906280517578125 21.64730072021484375 18.6067962646484375 6.1502604484558105469 27.085321426391601562 26.017393112182617188 17.649267196655273438 22.397848129272460938 30.007991790771484375 32.47675323486328125 33.3361663818359375 34.28243255615234375 35.97743988037109375 28.920351028442382812 15.041917800903320312 11.536062240600585938 12.628229141235351562 11.627455711364746094 14.451277732849121094 17.762182235717773438 17.812921524047851562 18.705127716064453125 19.114566802978515625 21.584016799926757812 22.237115859985351562 23.926214218139648438 30.979650497436523438 37.057765960693359375 37.485927581787109375 35.702911376953125 33.87924957275390625 33.780704498291015625 31.972642898559570312 28.777599334716796875 25.218980789184570312 24.051485061645507812 25.55295562744140625 29.213314056396484375 33.382415771484375 31.006044387817382812 29.881954193115234375 33.138469696044921875 32.4612579345703125 31.827974319458007812 35.9447784423828125 36.321964263916015625 32.880126953125 32.37982177734375 29.511835098266601562 11.034196853637695312 22.59593963623046875 31.913625717163085938 31.842622756958007812 29.888942718505859375 24.832736968994140625 17.677825927734375 17.392175674438476562 21.604618072509765625 23.614812850952148438 27.54193115234375 31.288974761962890625 30.823057174682617188 28.757856369018554688 30.178501129150390625 31.920259475708007812 32.78256988525390625 30.577085494995117188 24.540727615356445312 25.373670578002929688 28.366161346435546875 28.25247955322265625 27.893526077270507812 27.253801345825195312 21.965250015258789062 16.729421615600585938 13.719664573669433594 12.6918182373046875 15.99007415771484375 16.49163818359375 17.578533172607421875 18.932559967041015625 20.280124664306640625 23.003683090209960938 24.455518722534179688 22.48455047607421875 15.863501548767089844 15.859652519226074219 16.317766189575195312 17.660634994506835938 19.0295257568359375 19.430814743041992188 19.649847030639648438 21.012359619140625 22.1525421142578125 21.877811431884765625 20.866191864013671875 18.119792938232421875 15.545191764831542969 16.230274200439453125 12.6601104736328125 9.7608156204223632812 11.177466392517089844 12.062763214111328125 10.343545913696289062 6.121929168701171875 6.3854165077209472656 11.155282020568847656 14.225277900695800781 14.158928871154785156 9.3449459075927734375 2.0591404438018798828 11.554721832275390625 17.17115020751953125 17.213254928588867188 14.854647636413574219 13.465825080871582031 14.755529403686523438 16.088666915893554688 17.315050125122070312 21.41768646240234375 25.939104080200195312 26.194194793701171875 21.859521865844726562 18.545576095581054688 20.083635330200195312 19.925449371337890625 21.3821563720703125 23.453830718994140625 24.121885299682617188 24.485563278198242188 -9999 
-9999 15.931248664855957031 14.416057586669921875 12.621994972229003906 16.885562896728515625 22.897058486938476562 24.78937530517578125 26.484363555908203125 32.3945770263671875 34.11449432373046875 30.706447601318359375 24.7590484619140625 18.20568084716796875 17.16326904296875 25.104055404663085938 32.785888671875 37.2334442138671875 37.057643890380859375 36.34888458251953125 37.31838226318359375 35.987758636474609375 36.60321807861328125 35.578369140625 32.451995849609375 32.17018890380859375 33.081760406494140625 31.51483154296875 30.02083587646484375 30.48857879638671875 29.8893585205078125 25.582235336303710938 18.241498947143554688 14.039481163024902344 13.91500091552734375 14.3123321533203125 14.823874473571777344 16.741792678833007812 21.1912078857421875 23.233673095703125 20.926572799682617188 19.756895065307617188 20.028673171997070312 19.637269973754882812 18.063140869140625 19.00643157958984375 24.614717483520507812 19.3101654052734375 5.7955536842346191406 26.312469482421875 25.148370742797851562 13.267713546752929688 12.810633659362792969 20.636259078979492188 27.47653961181640625 32.904327392578125 33.794712066650390625 34.431476593017578125 31.045894622802734375 19.925798416137695312 14.584536552429199219 14.086029052734375 14.034966468811035156 16.692720413208007812 19.011423110961914062 18.689754486083984375 17.497028350830078125 15.665076255798339844 18.167652130126953125 19.768604278564453125 23.285932540893554688 31.637193679809570312 36.754199981689453125 36.228668212890625 34.4770355224609375 33.361095428466796875 34.182621002197265625 34.852588653564453125 32.980712890625 28.156841278076171875 24.688249588012695312 26.212818145751953125 31.932691574096679688 33.6107330322265625 31.410421371459960938 31.527744293212890625 34.60018157958984375 32.19791412353515625 29.357549667358398438 33.0517730712890625 35.8881072998046875 32.54900360107421875 31.8146514892578125 26.987577438354492188 8.9612112045288085938 26.884477615356445312 31.38701629638671875 29.24114990234375 29.42733001708984375 31.975032806396484375 32.623966217041015625 32.68657684326171875 33.061985015869140625 32.2152252197265625 31.862277984619140625 33.6787109375 33.10474395751953125 32.97577667236328125 33.375965118408203125 32.73516082763671875 30.258054733276367188 24.450761795043945312 22.863161087036132812 27.070415496826171875 26.855136871337890625 27.092580795288085938 28.684247970581054688 28.4509735107421875 21.752058029174804688 12.531458854675292969 11.483123779296875 18.220510482788085938 21.737001419067382812 20.228517532348632812 18.031385421752929688 18.287660598754882812 21.929285049438476562 25.190660476684570312 25.054777145385742188 24.227342605590820312 18.764425277709960938 15.706608772277832031 16.887308120727539062 17.884271621704101562 18.413175582885742188 17.312335968017578125 17.615797042846679688 19.344928741455078125 19.607707977294921875 18.820384979248046875 16.766794204711914062 14.143962860107421875 16.9608917236328125 17.16306304931640625 9.4348707199096679688 4.9891028404235839844 7.208698272705078125 9.4159860610961914062 10.741865158081054688 10.344779014587402344 11.18023681640625 14.969221115112304688 18.193220138549804688 15.078619003295898438 4.1379947662353515625 9.9139509201049804688 16.463644027709960938 13.975286483764648438 9.0617475509643554688 6.2827024459838867188 6.7022104263305664062 8.4082689285278320312 9.4742078781127929688 11.054441452026367188 16.509105682373046875 22.017061233520507812 21.69605255126953125 22.378040313720703125 19.648881912231445312 18.246120452880859375 16.510824203491210938 18.996007919311523438 22.981037139892578125 24.455173492431640625 25.20856475830078125 -9999 
-9999 27.460237503051757812 24.100969314575195312 21.629734039306640625 22.281343460083007812 26.26166534423828125 29.803173065185546875 33.13907623291015625 31.018583297729492188 21.181467056274414062 9.7580366134643554688 7.6568245887756347656 15.549886703491210938 20.851011276245117188 20.92758941650390625 22.707105636596679688 30.54830169677734375 34.578372955322265625 37.710742950439453125 36.419467926025390625 38.364124298095703125 40.658725738525390625 38.295963287353515625 33.6996612548828125 33.098049163818359375 33.7928466796875 31.329107284545898438 29.272462844848632812 30.246763229370117188 30.663402557373046875 27.2041168212890625 20.647279739379882812 16.047435760498046875 14.383381843566894531 15.332788467407226562 16.227840423583984375 16.890962600708007812 18.786922454833984375 15.220607757568359375 16.933427810668945312 21.917327880859375 22.49414825439453125 21.598554611206054688 21.188035964965820312 23.68170166015625 27.46466827392578125 19.674198150634765625 4.9448428153991699219 24.421417236328125 24.734048843383789062 13.4033966064453125 9.0866794586181640625 13.565806388854980469 20.6006622314453125 29.08074951171875 33.0468902587890625 33.326122283935546875 30.810110092163085938 23.507358551025390625 17.390018463134765625 14.462094306945800781 14.814219474792480469 16.358135223388671875 17.225118637084960938 16.419342041015625 14.602399826049804688 13.32000732421875 16.5703582763671875 19.188800811767578125 22.842210769653320312 30.484798431396484375 35.156543731689453125 34.295085906982421875 32.84122467041015625 33.5429840087890625 35.584808349609375 36.836002349853515625 35.8409423828125 31.047361373901367188 26.188547134399414062 27.790136337280273438 30.800725936889648438 30.520643234252929688 30.4539947509765625 33.19800567626953125 35.5453643798828125 32.2555999755859375 29.124073028564453125 30.158304214477539062 33.931121826171875 33.18465423583984375 31.549356460571289062 22.527561187744140625 13.99506378173828125 27.843454360961914062 26.272672653198242188 26.062765121459960938 31.529966354370117188 35.498626708984375 36.2594451904296875 36.184444427490234375 36.024448394775390625 33.685863494873046875 31.542924880981445312 32.22367095947265625 31.351091384887695312 31.637041091918945312 31.4279327392578125 28.55487060546875 23.122732162475585938 24.836069107055664062 30.501201629638671875 30.889852523803710938 27.396116256713867188 26.35430145263671875 26.85701751708984375 26.34551239013671875 20.807857513427734375 10.19379425048828125 10.830164909362792969 18.831188201904296875 22.544198989868164062 21.884477615356445312 20.796888351440429688 21.549077987670898438 25.372955322265625 27.4877777099609375 26.878278732299804688 25.479816436767578125 18.811082839965820312 14.543546676635742188 16.61580657958984375 16.18689727783203125 17.466642379760742188 16.807989120483398438 16.64025115966796875 15.623833656311035156 12.952395439147949219 13.161826133728027344 15.881458282470703125 20.6439361572265625 24.254198074340820312 20.1073760986328125 11.317251205444335938 7.5739998817443847656 9.2045526504516601562 11.987696647644042969 14.348849296569824219 15.1552276611328125 15.9577178955078125 19.207366943359375 20.009822845458984375 12.617089271545410156 6.8903641700744628906 16.820264816284179688 15.774715423583984375 8.4299001693725585938 4.9638156890869140625 3.3362803459167480469 6.2453222274780273438 8.0133991241455078125 7.4627814292907714844 9.3066492080688476562 16.173784255981445312 22.538839340209960938 20.150651931762695312 20.701997756958007812 24.079410552978515625 22.668035507202148438 18.756307601928710938 17.33502197265625 21.479932785034179688 24.517541885375976562 25.911668777465820312 -9999 
-9999 29.2062835693359375 28.588764190673828125 26.660884857177734375 25.0871124267578125 26.515522003173828125 27.978490829467773438 24.086698532104492188 14.228402137756347656 14.33190155029296875 17.49432373046875 19.359308242797851562 19.777566909790039062 16.903690338134765625 11.617960929870605469 12.199148178100585938 22.642581939697265625 32.000400543212890625 34.98974609375 35.07701873779296875 41.6122283935546875 43.805431365966796875 40.578334808349609375 34.34130096435546875 32.063358306884765625 33.486236572265625 31.996007919311523438 29.394632339477539062 29.046308517456054688 28.478366851806640625 25.044101715087890625 22.610960006713867188 21.73084259033203125 20.641981124877929688 21.795166015625 23.704524993896484375 22.811189651489257812 19.268453598022460938 15.574225425720214844 16.41762542724609375 20.251684188842773438 23.104303359985351562 25.745233535766601562 27.7686614990234375 29.973419189453125 30.935100555419921875 22.46504974365234375 0.90266919136047363281 21.042278289794921875 26.083477020263671875 17.198331832885742188 9.7657032012939453125 10.955537796020507812 16.087961196899414062 23.25092315673828125 29.369098663330078125 31.94210052490234375 30.4211883544921875 25.70824432373046875 18.738010406494140625 13.273602485656738281 14.336810111999511719 15.233817100524902344 15.774256706237792969 14.586496353149414062 12.355170249938964844 13.189332008361816406 18.468601226806640625 21.005918502807617188 22.05474090576171875 27.739654541015625 32.254802703857421875 32.612918853759765625 33.25553131103515625 35.10926055908203125 36.7893829345703125 37.405033111572265625 35.822734832763671875 31.0887451171875 28.379022598266601562 29.552570343017578125 29.292768478393554688 30.130334854125976562 31.949975967407226562 35.443927764892578125 36.491458892822265625 33.273334503173828125 31.076091766357421875 30.585918426513671875 32.173732757568359375 34.692348480224609375 31.763425827026367188 16.501695632934570312 20.980833053588867188 26.350099563598632812 20.9050750732421875 24.397914886474609375 29.542741775512695312 32.447193145751953125 33.45778656005859375 33.984683990478515625 34.427234649658203125 33.82541656494140625 33.39121246337890625 32.771358489990234375 30.728036880493164062 28.601161956787109375 25.333881378173828125 19.89295196533203125 24.0967559814453125 31.879453659057617188 33.1712493896484375 30.066921234130859375 25.8885345458984375 24.141887664794921875 22.656553268432617188 22.5757293701171875 21.31256866455078125 12.311635017395019531 13.89553070068359375 21.063734054565429688 22.341554641723632812 21.948001861572265625 24.20697784423828125 27.416919708251953125 29.7149505615234375 29.209096908569335938 27.13329315185546875 24.012006759643554688 15.876433372497558594 16.1898345947265625 16.134523391723632812 13.587389945983886719 14.971433639526367188 14.913473129272460938 12.490922927856445312 8.7034397125244140625 11.357735633850097656 18.587963104248046875 24.132534027099609375 27.434009552001953125 26.593526840209960938 18.57169342041015625 10.522986412048339844 8.7857770919799804688 11.129475593566894531 14.396927833557128906 16.852769851684570312 18.068937301635742188 18.104976654052734375 19.442066192626953125 17.654371261596679688 9.1749505996704101562 13.853432655334472656 20.37866973876953125 14.291288375854492188 4.3833675384521484375 4.7866215705871582031 4.1629967689514160156 6.2454710006713867188 8.0748109817504882812 8.084308624267578125 10.672670364379882812 17.790224075317382812 23.63179779052734375 22.676532745361328125 20.148813247680664062 24.382694244384765625 27.421049118041992188 26.379556655883789062 23.222896575927734375 22.49196624755859375 24.968366622924804688 26.328416824340820312 -9999 
-9999 27.331468582153320312 27.721784591674804688 26.707052230834960938 25.82764434814453125 24.0462799072265625 18.143323898315429688 15.489376068115234375 23.117528915405273438 24.09857940673828125 18.777704238891601562 13.448784828186035156 9.9568586349487304688 8.3828973770141601562 10.822154045104980469 17.884584426879882812 27.674833297729492188 33.146240234375 30.70829010009765625 34.998844146728515625 42.89437103271484375 46.26798248291015625 45.096614837646484375 38.982936859130859375 33.3411102294921875 32.42441558837890625 31.015157699584960938 28.403116226196289062 26.766414642333984375 24.651567459106445312 22.59653472900390625 21.640367507934570312 19.153661727905273438 14.900590896606445312 16.268228530883789062 21.3944854736328125 21.048292160034179688 19.939266204833984375 22.826196670532226562 24.245862960815429688 26.44669342041015625 29.050565719604492188 30.477437973022460938 32.225276947021484375 34.968082427978515625 34.258106231689453125 27.317808151245117188 10.78495025634765625 14.421017646789550781 26.881183624267578125 21.550136566162109375 12.045386314392089844 10.273960113525390625 14.324044227600097656 19.054412841796875 23.229846954345703125 28.0963134765625 29.5415496826171875 27.192232131958007812 19.402257919311523438 12.889235496520996094 14.864349365234375 14.787336349487304688 14.67406463623046875 13.761783599853515625 11.643177986145019531 13.480151176452636719 20.2189483642578125 22.943906784057617188 22.251705169677734375 25.056009292602539062 28.360273361206054688 30.320978164672851562 33.217548370361328125 35.36458587646484375 37.192138671875 38.375354766845703125 34.8187408447265625 28.8971710205078125 30.74877166748046875 31.747249603271484375 31.143751144409179688 34.132404327392578125 36.06555938720703125 38.29042816162109375 38.013416290283203125 34.584224700927734375 32.47420501708984375 32.738128662109375 33.4055328369140625 35.368499755859375 30.351375579833984375 13.170290946960449219 23.793706893920898438 25.476003646850585938 25.033220291137695312 25.966064453125 26.046884536743164062 27.2968597412109375 29.016027450561523438 30.682992935180664062 31.348039627075195312 32.689502716064453125 34.58519744873046875 34.76910400390625 32.714603424072265625 27.863033294677734375 19.859117507934570312 18.111377716064453125 28.041248321533203125 32.19683837890625 32.075687408447265625 31.186433792114257812 30.0105438232421875 28.550283432006835938 25.491931915283203125 24.5828857421875 24.230051040649414062 16.63095855712890625 19.132566452026367188 24.8029327392578125 24.119260787963867188 23.602071762084960938 27.5624847412109375 31.379688262939453125 31.711816787719726562 29.075710296630859375 25.052001953125 19.569082260131835938 14.090486526489257812 18.689697265625 15.590872764587402344 11.565221786499023438 12.061595916748046875 11.532032012939453125 12.254441261291503906 18.413656234741210938 23.634395599365234375 26.383989334106445312 27.531993865966796875 27.15608978271484375 23.219448089599609375 14.207566261291503906 8.0428056716918945312 7.0347428321838378906 10.257837295532226562 15.055515289306640625 17.599124908447265625 18.476238250732421875 17.910251617431640625 18.189336776733398438 15.34513092041015625 9.160198211669921875 17.959743499755859375 22.824151992797851562 16.429784774780273438 5.9018874168395996094 3.2909860610961914062 4.1778326034545898438 5.4495382308959960938 8.2800235748291015625 9.4328908920288085938 11.862394332885742188 17.527004241943359375 22.194108963012695312 21.701120376586914062 18.717884063720703125 17.459564208984375 21.254911422729492188 25.656707763671875 27.660228729248046875 27.74849700927734375 28.5202178955078125 27.538545608520507812 -9999 
-9999 24.893148422241210938 24.474313735961914062 23.250738143920898438 21.390336990356445312 18.255840301513671875 19.673229217529296875 26.36603546142578125 27.280515670776367188 20.378587722778320312 9.9314098358154296875 4.6029453277587890625 10.806338310241699219 17.494791030883789062 24.041896820068359375 31.140630722045898438 35.172992706298828125 33.0525970458984375 31.691194534301757812 38.442974090576171875 43.56894683837890625 48.357257843017578125 48.791107177734375 41.86966705322265625 32.739147186279296875 29.67678070068359375 29.965946197509765625 29.986940383911132812 28.09920501708984375 23.96729278564453125 20.313930511474609375 19.280637741088867188 17.176015853881835938 14.705236434936523438 15.549225807189941406 17.4755096435546875 18.842166900634765625 21.303747177124023438 25.686542510986328125 29.709865570068359375 30.977436065673828125 30.1817626953125 30.160007476806640625 32.66259765625 36.74890899658203125 35.988037109375 31.390279769897460938 21.073352813720703125 4.6838822364807128906 23.68059539794921875 24.050283432006835938 15.520741462707519531 11.428789138793945312 14.203962326049804688 18.249309539794921875 19.31076812744140625 23.1446533203125 27.5635986328125 27.6347198486328125 20.136392593383789062 14.24868011474609375 16.165985107421875 14.610527992248535156 13.220610618591308594 11.886115074157714844 9.9948396682739257812 12.224199295043945312 18.493188858032226562 22.445587158203125 23.064889907836914062 24.834951400756835938 26.356962203979492188 27.396968841552734375 30.113504409790039062 33.664585113525390625 37.774646759033203125 39.233264923095703125 33.972789764404296875 30.079561233520507812 32.689983367919921875 32.12532806396484375 31.804216384887695312 36.577190399169921875 38.241649627685546875 39.038661956787109375 37.993160247802734375 35.354736328125 33.707149505615234375 34.3853912353515625 35.682689666748046875 35.276905059814453125 26.966970443725585938 15.584959983825683594 23.30463409423828125 26.417629241943359375 27.853563308715820312 26.544713973999023438 25.550603866577148438 26.0200958251953125 27.658807754516601562 29.843641281127929688 29.9861602783203125 30.327600479125976562 31.698963165283203125 32.503025054931640625 31.53565216064453125 28.12630462646484375 23.629804611206054688 22.76220703125 27.475229263305664062 31.588064193725585938 33.389957427978515625 33.757747650146484375 34.036380767822265625 34.6641387939453125 32.84474945068359375 29.612293243408203125 25.794345855712890625 19.127294540405273438 23.000911712646484375 26.2289581298828125 24.9132232666015625 25.172758102416992188 28.289773941040039062 30.16526031494140625 28.442968368530273438 23.793392181396484375 16.657037734985351562 9.1847438812255859375 11.607667922973632812 17.652906417846679688 14.722390174865722656 9.91263580322265625 10.089703559875488281 14.514462471008300781 21.04380035400390625 24.891759872436523438 24.563081741333007812 23.255064010620117188 22.959047317504882812 21.841373443603515625 17.270009994506835938 10.040342330932617188 4.4286642074584960938 4.4660592079162597656 9.8465423583984375 16.242160797119140625 17.614236831665039062 17.517307281494140625 16.93848419189453125 16.48104095458984375 12.7327423095703125 8.2711572647094726562 18.659715652465820312 25.127384185791015625 21.799896240234375 14.006527900695800781 5.3919386863708496094 2.0628859996795654297 4.4060521125793457031 9.19757080078125 10.423395156860351562 11.011765480041503906 14.353315353393554688 19.613557815551757812 22.4945526123046875 23.065277099609375 21.836660385131835938 17.93868255615234375 15.408089637756347656 18.218259811401367188 22.800329208374023438 25.625310897827148438 24.46884918212890625 -9999 
-9999 24.033098220825195312 22.755159378051757812 19.9904937744140625 20.316339492797851562 24.385219573974609375 26.574270248413085938 26.441232681274414062 22.5593719482421875 14.201258659362792969 8.1732721328735351562 14.049768447875976562 21.202791213989257812 28.566003799438476562 35.05467987060546875 38.51712799072265625 36.333019256591796875 29.94315338134765625 33.555591583251953125 40.45084381103515625 44.599117279052734375 49.777191162109375 49.763210296630859375 41.524570465087890625 34.34145355224609375 33.719554901123046875 33.29169464111328125 31.990795135498046875 29.122770309448242188 25.38208770751953125 21.82996368408203125 17.570415496826171875 17.73545074462890625 21.052707672119140625 22.694286346435546875 23.578508377075195312 23.713880538940429688 21.594453811645507812 22.694787979125976562 26.815729141235351562 29.113683700561523438 28.807851791381835938 30.321443557739257812 33.09244537353515625 37.267284393310546875 36.84627532958984375 32.52201080322265625 25.959287643432617188 6.9764828681945800781 17.180849075317382812 24.423833847045898438 20.087743759155273438 16.093431472778320312 16.883634567260742188 19.886974334716796875 19.126466751098632812 20.376102447509765625 25.188726425170898438 27.395599365234375 21.462350845336914062 15.060644149780273438 16.412273406982421875 14.038482666015625 12.883818626403808594 11.589253425598144531 10.405971527099609375 11.528594017028808594 16.122278213500976562 20.563619613647460938 23.211277008056640625 25.628509521484375 25.765497207641601562 25.550035476684570312 27.171449661254882812 32.444118499755859375 38.40476226806640625 38.10372161865234375 33.94525909423828125 34.50345611572265625 35.015735626220703125 33.38238525390625 32.36932373046875 37.377429962158203125 38.4508514404296875 38.124324798583984375 37.323040008544921875 36.630641937255859375 36.230327606201171875 35.719066619873046875 35.038005828857421875 30.365589141845703125 19.283138275146484375 13.191326141357421875 16.487766265869140625 15.35941314697265625 12.906811714172363281 11.510995864868164062 14.066178321838378906 17.341554641723632812 18.691328048706054688 21.285802841186523438 23.636518478393554688 25.486692428588867188 26.563129425048828125 27.204164505004882812 28.793886184692382812 30.504735946655273438 30.86426544189453125 29.737928390502929688 30.938190460205078125 33.612659454345703125 35.277126312255859375 34.9319915771484375 33.38199615478515625 33.3709869384765625 33.974185943603515625 32.459316253662109375 25.277070999145507812 20.316167831420898438 25.453125 27.501251220703125 26.357412338256835938 26.3384857177734375 26.291673660278320312 23.901578903198242188 17.72008514404296875 9.6379909515380859375 9.3475008010864257812 14.984200477600097656 14.75116729736328125 12.654467582702636719 12.042827606201171875 10.578540802001953125 15.362820625305175781 21.348499298095703125 23.45709228515625 22.483341217041015625 20.690250396728515625 18.976375579833984375 18.988012313842773438 17.658689498901367188 13.1132354736328125 8.70497894287109375 2.2280991077423095703 3.4210460186004638672 11.804656982421875 18.386518478393554688 18.17443084716796875 16.97972869873046875 16.111652374267578125 14.479043006896972656 9.7902383804321289062 5.7864770889282226562 14.816748619079589844 25.750579833984375 29.539920806884765625 26.686832427978515625 19.53957366943359375 14.956678390502929688 13.79650115966796875 15.567447662353515625 15.063937187194824219 12.462759017944335938 12.187580108642578125 14.969929695129394531 18.8371124267578125 21.7535400390625 24.320734024047851562 24.061685562133789062 20.397060394287109375 15.964316368103027344 14.106243133544921875 16.093908309936523438 16.781694412231445312 -9999 
-9999 29.8804473876953125 25.055875778198242188 22.504976272583007812 25.368741989135742188 28.453161239624023438 27.28789520263671875 23.211015701293945312 20.336650848388671875 18.378068923950195312 19.060960769653320312 23.860727310180664062 29.4409332275390625 35.0342864990234375 38.563602447509765625 37.910945892333984375 30.6979827880859375 26.291778564453125 33.903568267822265625 39.3519439697265625 44.167949676513671875 49.324337005615234375 47.65301513671875 38.651134490966796875 34.152759552001953125 35.613948822021484375 37.241245269775390625 36.069583892822265625 30.749040603637695312 22.399566650390625 20.495489120483398438 27.19635009765625 31.991708755493164062 32.92485809326171875 30.8127288818359375 27.521463394165039062 25.138807296752929688 21.0770263671875 18.42385101318359375 19.305799484252929688 24.134874343872070312 27.622545242309570312 29.121263504028320312 32.1764068603515625 37.541759490966796875 38.5236968994140625 32.64154052734375 28.255279541015625 16.4053192138671875 10.385748863220214844 22.928461074829101562 21.842023849487304688 18.4751434326171875 19.578649520874023438 22.61780548095703125 20.644021987915039062 20.031194686889648438 23.898357391357421875 26.54558563232421875 20.36446380615234375 14.432428359985351562 16.296571731567382812 13.827114105224609375 13.640254020690917969 13.364500045776367188 11.833484649658203125 11.150691032409667969 15.651120185852050781 19.972797393798828125 22.187519073486328125 24.267810821533203125 24.048303604125976562 24.11518096923828125 26.147298812866210938 32.9113311767578125 38.242687225341796875 36.0500335693359375 35.186962127685546875 37.159954071044921875 37.013416290283203125 36.383602142333984375 33.6483612060546875 36.02365875244140625 37.759471893310546875 37.099384307861328125 35.62493133544921875 33.147937774658203125 30.356487274169921875 25.33099365234375 17.148937225341796875 5.0414328575134277344 6.0890841484069824219 12.458530426025390625 16.301210403442382812 18.97066497802734375 20.791563034057617188 19.979274749755859375 15.566183090209960938 10.605610847473144531 11.120069503784179688 12.561209678649902344 11.027050971984863281 11.195216178894042969 13.942461967468261719 17.921945571899414062 24.403856277465820312 29.996110916137695312 32.922710418701171875 32.675807952880859375 31.70719146728515625 32.493457794189453125 34.289363861083984375 34.691883087158203125 32.497066497802734375 31.070682525634765625 33.213825225830078125 32.517589569091796875 24.372816085815429688 22.20257568359375 27.591106414794921875 29.628931045532226562 28.685167312622070312 26.919698715209960938 23.281360626220703125 14.975362777709960938 10.891443252563476562 18.0636444091796875 24.01317596435546875 25.0322265625 20.283639907836914062 12.923256874084472656 9.8656940460205078125 15.720335006713867188 21.328220367431640625 22.979639053344726562 20.88605499267578125 18.346315383911132812 18.042043685913085938 18.436389923095703125 19.31943511962890625 16.566333770751953125 11.2203826904296875 8.6519632339477539062 3.3933057785034179688 4.6328277587890625 14.054899215698242188 19.329538345336914062 18.212162017822265625 15.661477088928222656 14.281796455383300781 12.589177131652832031 8.1209230422973632812 4.9681577682495117188 8.6116619110107421875 19.008146286010742188 28.470516204833984375 31.634838104248046875 27.822679519653320312 23.7457427978515625 22.199506759643554688 22.490312576293945312 21.680240631103515625 18.373331069946289062 14.332178115844726562 13.750226020812988281 16.750345230102539062 18.816267013549804688 20.055805206298828125 20.986141204833984375 21.725206375122070312 21.274457931518554688 19.905206680297851562 20.079381942749023438 20.184906005859375 -9999 
-9999 31.651884078979492188 27.020811080932617188 25.919729232788085938 27.351194381713867188 29.362993240356445312 29.298894882202148438 25.989694595336914062 24.775386810302734375 26.388370513916015625 27.355863571166992188 28.50963592529296875 31.561067581176757812 34.440845489501953125 33.534595489501953125 25.703771591186523438 18.7021942138671875 29.229383468627929688 36.50926971435546875 39.5225372314453125 43.637172698974609375 46.57312774658203125 42.460102081298828125 35.988101959228515625 33.994293212890625 37.63623809814453125 41.7887725830078125 38.152576446533203125 24.913396835327148438 25.206235885620117188 34.765350341796875 38.07894134521484375 36.42729949951171875 34.024036407470703125 31.527853012084960938 28.027940750122070312 25.043483734130859375 21.006456375122070312 14.648781776428222656 13.70510101318359375 19.603359222412109375 27.905870437622070312 27.646272659301757812 29.229467391967773438 36.28510284423828125 39.03252410888671875 31.906324386596679688 28.77291107177734375 25.09774017333984375 4.7553353309631347656 16.83774566650390625 21.188228607177734375 17.919239044189453125 19.765642166137695312 24.231828689575195312 22.468944549560546875 20.279376983642578125 22.696176528930664062 24.874696731567382812 17.71321868896484375 15.408376693725585938 15.027762413024902344 12.776866912841796875 12.884637832641601562 12.525364875793457031 9.911815643310546875 9.833782196044921875 15.157053947448730469 19.186929702758789062 20.052381515502929688 21.599138259887695312 22.469806671142578125 22.849761962890625 25.399065017700195312 32.704746246337890625 37.345188140869140625 36.02245330810546875 36.8279571533203125 38.044891357421875 37.921543121337890625 38.026157379150390625 34.9106597900390625 33.7375030517578125 37.3964691162109375 32.873867034912109375 23.70595550537109375 13.833578109741210938 9.0555696487426757812 14.709980964660644531 26.063154220581054688 32.5135955810546875 33.23204803466796875 33.86181640625 34.692905426025390625 34.0352935791015625 32.912517547607421875 31.61232757568359375 29.891672134399414062 27.167724609375 27.49674224853515625 28.376466751098632812 27.21466827392578125 23.985589981079101562 18.3563995361328125 10.743829727172851562 8.3426923751831054688 17.673685073852539062 25.592548370361328125 28.557065963745117188 28.419063568115234375 29.43181610107421875 31.701702117919921875 32.972614288330078125 32.471088409423828125 32.419528961181640625 33.4898681640625 31.642261505126953125 25.968015670776367188 25.644622802734375 30.7905731201171875 31.84502410888671875 29.5364837646484375 25.777591705322265625 18.62688446044921875 9.1304779052734375 20.660985946655273438 28.53717041015625 29.862520217895507812 26.388093948364257812 21.08869171142578125 17.10724639892578125 9.1739969253540039062 17.055627822875976562 22.365736007690429688 21.2295989990234375 17.945295333862304688 14.678598403930664062 14.609116554260253906 17.725793838500976562 20.120847702026367188 16.297016143798828125 10.525140762329101562 9.06755828857421875 5.7280244827270507812 6.8174052238464355469 14.168787956237792969 18.577983856201171875 17.2399139404296875 12.753795623779296875 11.331233978271484375 11.061629295349121094 7.4273166656494140625 5.0931386947631835938 5.4733648300170898438 7.0606689453125 15.538140296936035156 23.770296096801757812 23.45462799072265625 19.11701202392578125 17.759954452514648438 20.3852996826171875 21.840658187866210938 20.265106201171875 16.06786346435546875 14.83251190185546875 17.45645904541015625 17.879274368286132812 16.038209915161132812 15.780398368835449219 17.281019210815429688 17.955059051513671875 17.78530120849609375 18.952724456787109375 20.158254623413085938 -9999 
-9999 33.729877471923828125 30.88828277587890625 28.156908035278320312 27.572557449340820312 28.414350509643554688 29.98996734619140625 29.987957000732421875 28.857534408569335938 29.647188186645507812 31.183284759521484375 30.620115280151367188 30.302019119262695312 29.835268020629882812 20.144964218139648438 9.6178073883056640625 24.794092178344726562 33.468997955322265625 36.17436981201171875 38.15401458740234375 41.932582855224609375 42.2520294189453125 37.857089996337890625 35.952716827392578125 38.103931427001953125 40.178974151611328125 41.029083251953125 31.729600906372070312 30.590938568115234375 39.767330169677734375 41.260715484619140625 39.137836456298828125 37.13143157958984375 34.948001861572265625 32.633098602294921875 29.78939056396484375 26.431543350219726562 22.656620025634765625 14.603119850158691406 11.707427978515625 16.527095794677734375 29.936941146850585938 30.471221923828125 30.371850967407226562 35.830440521240234375 36.535106658935546875 28.924320220947265625 26.1231536865234375 28.56623077392578125 21.444166183471679688 3.6825609207153320312 16.145734786987304688 17.373266220092773438 17.589059829711914062 22.060695648193359375 22.31612396240234375 20.402273178100585938 21.229150772094726562 21.264589309692382812 17.01271820068359375 16.875888824462890625 11.395470619201660156 14.342123985290527344 14.251667022705078125 10.835750579833984375 7.0359354019165039062 11.12368011474609375 14.345091819763183594 18.52147674560546875 18.680938720703125 19.155160903930664062 21.248989105224609375 21.922838211059570312 23.5107574462890625 28.983781814575195312 35.0732421875 36.996612548828125 37.29959869384765625 37.935588836669921875 38.52149200439453125 38.6855926513671875 37.036174774169921875 34.11521148681640625 34.85921478271484375 17.5664520263671875 14.352617263793945312 28.260267257690429688 32.497669219970703125 35.28775787353515625 39.19577789306640625 40.634754180908203125 40.631893157958984375 40.646820068359375 39.698101043701171875 37.054103851318359375 35.053638458251953125 33.18982696533203125 31.632799148559570312 28.311452865600585938 29.1383209228515625 32.45877838134765625 34.394680023193359375 34.184783935546875 31.075347900390625 26.248477935791015625 20.3378448486328125 12.405106544494628906 11.350554466247558594 20.602983474731445312 24.898164749145507812 26.84748077392578125 28.950025558471679688 30.80926513671875 32.520488739013671875 34.227619171142578125 34.306606292724609375 32.964374542236328125 30.249744415283203125 29.16123199462890625 32.869426727294921875 31.844812393188476562 26.983417510986328125 19.415307998657226562 9.2110280990600585938 16.7949981689453125 29.75832366943359375 34.13437652587890625 31.964365005493164062 24.34322357177734375 19.091604232788085938 19.663713455200195312 12.044182777404785156 13.767729759216308594 21.619869232177734375 20.938333511352539062 16.741216659545898438 12.2944183349609375 12.524781227111816406 17.551891326904296875 20.62342071533203125 15.979959487915039062 10.25946044921875 9.5567722320556640625 7.5697073936462402344 8.3209991455078125 13.573180198669433594 18.01959228515625 16.620222091674804688 10.922524452209472656 10.236772537231445312 11.266266822814941406 8.704196929931640625 6.5693082809448242188 5.9215598106384277344 2.9663825035095214844 4.2119531631469726562 13.301127433776855469 14.840497016906738281 11.963443756103515625 15.273512840270996094 21.152612686157226562 23.781919479370117188 21.47602081298828125 16.751043319702148438 16.149410247802734375 18.875225067138671875 18.7479095458984375 15.63771820068359375 15.960175514221191406 18.978109359741210938 19.57806396484375 18.996366500854492188 19.445377349853515625 19.95708465576171875 -9999 
-9999 34.8454742431640625 36.857425689697265625 32.39490509033203125 28.739803314208984375 28.393453598022460938 29.705667495727539062 30.83864593505859375 29.712734222412109375 28.717998504638671875 30.827640533447265625 31.796356201171875 29.569688796997070312 21.458356857299804688 4.5032372474670410156 26.238277435302734375 35.1731109619140625 37.182552337646484375 35.872222900390625 35.810062408447265625 38.619060516357421875 38.023590087890625 36.87470245361328125 41.67694091796875 42.6771240234375 37.20965576171875 30.776363372802734375 31.244586944580078125 39.024318695068359375 40.0462646484375 37.9179229736328125 35.588886260986328125 35.81739044189453125 34.596889495849609375 33.205295562744140625 32.403514862060546875 30.380329132080078125 26.30770111083984375 18.596849441528320312 11.289490699768066406 13.700344085693359375 30.931112289428710938 34.89104461669921875 33.76581573486328125 35.49643707275390625 32.019969940185546875 25.231756210327148438 23.851324081420898438 25.035318374633789062 25.428121566772460938 17.515384674072265625 4.5377130508422851562 15.643252372741699219 16.88935089111328125 20.101068496704101562 24.47369384765625 22.828065872192382812 18.5699310302734375 16.91886138916015625 17.859294891357421875 16.097320556640625 13.161996841430664062 17.025281906127929688 16.62652587890625 15.607462882995605469 16.586221694946289062 18.565374374389648438 17.190443038940429688 20.41893768310546875 20.51741790771484375 19.224109649658203125 20.622722625732421875 23.570730209350585938 24.519952774047851562 26.66712188720703125 32.6846771240234375 37.0994720458984375 37.6713409423828125 37.348690032958984375 36.997905731201171875 36.517177581787109375 35.366306304931640625 31.324937820434570312 21.860692977905273438 12.124612808227539062 33.91399383544921875 37.77771759033203125 35.35514068603515625 33.36517333984375 34.125213623046875 34.55074310302734375 38.206142425537109375 40.60942840576171875 39.63829803466796875 37.241374969482421875 34.91363525390625 31.690481185913085938 30.295927047729492188 25.329519271850585938 24.455471038818359375 30.8530120849609375 33.215023040771484375 33.955654144287109375 32.881256103515625 30.518243789672851562 28.390522003173828125 26.433389663696289062 19.739595413208007812 8.4700574874877929688 16.7073211669921875 25.11873626708984375 27.765043258666992188 28.7971038818359375 31.204938888549804688 34.36817169189453125 34.857879638671875 34.46802520751953125 33.465206146240234375 31.60501861572265625 32.34061431884765625 26.574316024780273438 16.054859161376953125 8.6368513107299804688 17.788236618041992188 28.4131011962890625 34.5836181640625 35.0931396484375 30.693145751953125 19.965633392333984375 14.884667396545410156 19.235448837280273438 15.529333114624023438 9.8862104415893554688 18.594713211059570312 19.879838943481445312 16.172822952270507812 12.825962066650390625 13.395447731018066406 18.252233505249023438 20.9723358154296875 16.071870803833007812 10.501852989196777344 9.8590412139892578125 8.5098657608032226562 9.0507287979125976562 13.126358985900878906 17.313037872314453125 16.275575637817382812 11.224268913269042969 11.004984855651855469 12.305486679077148438 10.833728790283203125 8.5861120223999023438 6.7736644744873046875 5.2519121170043945312 4.9997630119323730469 11.271951675415039062 13.307736396789550781 13.340909957885742188 17.653425216674804688 22.482669830322265625 24.5412445068359375 21.524112701416015625 17.014865875244140625 17.32563018798828125 20.04095458984375 19.308580398559570312 15.424896240234375 16.096494674682617188 19.636932373046875 19.0270233154296875 17.905649185180664062 19.199010848999023438 19.060319900512695312 -9999 
-9999 23.249174118041992188 36.591732025146484375 36.0559234619140625 30.622255325317382812 30.494974136352539062 31.084285736083984375 30.139562606811523438 29.865770339965820312 30.869829177856445312 32.39208221435546875 31.699880599975585938 25.7859649658203125 11.340214729309082031 25.157947540283203125 35.651988983154296875 37.766490936279296875 37.16892242431640625 34.938175201416015625 34.60616302490234375 36.6826171875 36.9011077880859375 38.581295013427734375 43.357990264892578125 39.6268157958984375 27.231130599975585938 31.72100830078125 38.522266387939453125 38.334400177001953125 36.620189666748046875 35.334331512451171875 35.166706085205078125 35.1046142578125 32.405704498291015625 31.489427566528320312 32.628391265869140625 33.388057708740234375 30.043485641479492188 23.558759689331054688 15.133329391479492188 13.89635467529296875 30.4469146728515625 37.704792022705078125 36.259632110595703125 35.08010101318359375 29.331827163696289062 22.479030609130859375 22.299745559692382812 21.604036331176757812 19.576885223388671875 19.47632598876953125 8.3232965469360351562 11.943981170654296875 18.58563995361328125 20.683971405029296875 26.63062286376953125 26.218318939208984375 19.448377609252929688 17.988679885864257812 20.804111480712890625 20.05849456787109375 20.2249603271484375 21.222723007202148438 24.036497116088867188 26.70317840576171875 27.53745269775390625 25.654018402099609375 22.656015396118164062 23.861673355102539062 24.409040451049804688 23.067657470703125 23.64215850830078125 27.7182159423828125 29.908443450927734375 30.590379714965820312 32.63494873046875 34.6574249267578125 33.4084625244140625 27.485189437866210938 20.218706130981445312 18.963312149047851562 16.966501235961914062 7.5749011039733886719 10.418888092041015625 34.255794525146484375 40.111118316650390625 36.315860748291015625 33.1901092529296875 32.067474365234375 33.26462554931640625 34.077274322509765625 36.375812530517578125 39.20996856689453125 38.95380401611328125 37.21149444580078125 33.767360687255859375 29.372898101806640625 28.94609832763671875 24.095966339111328125 20.518003463745117188 30.585241317749023438 30.648309707641601562 31.1087799072265625 33.59857177734375 33.76293182373046875 32.914554595947265625 32.43521881103515625 31.03505706787109375 24.074665069580078125 8.6988286972045898438 16.819265365600585938 25.690521240234375 27.8505706787109375 29.293842315673828125 32.788890838623046875 34.310832977294921875 34.31451416015625 33.805347442626953125 31.853982925415039062 27.691385269165039062 14.119952201843261719 12.186676025390625 21.66107940673828125 27.8880157470703125 32.306880950927734375 34.287952423095703125 32.989902496337890625 27.9254913330078125 16.72186279296875 12.527154922485351562 17.871217727661132812 18.221950531005859375 12.858064651489257812 14.834338188171386719 16.6116180419921875 13.57492828369140625 11.999677658081054688 14.109578132629394531 18.785243988037109375 21.343196868896484375 16.89594268798828125 11.276643753051757812 10.033037185668945312 9.2085313796997070312 9.9355297088623046875 12.961529731750488281 15.9367523193359375 15.395578384399414062 12.032375335693359375 11.956331253051757812 13.242547035217285156 12.995849609375 10.892381668090820312 8.3102293014526367188 7.01721954345703125 9.2183732986450195312 16.07622528076171875 20.0499420166015625 21.745523452758789062 23.908555984497070312 25.349735260009765625 24.1071624755859375 20.410106658935546875 17.367008209228515625 17.700799942016601562 19.322437286376953125 18.02167510986328125 14.881426811218261719 16.606946945190429688 20.076107025146484375 18.74365234375 17.868364334106445312 19.46669769287109375 18.177278518676757812 -9999 
-9999 5.6075682640075683594 24.832345962524414062 36.16396331787109375 35.261348724365234375 33.232318878173828125 32.421421051025390625 31.526441574096679688 33.69335174560546875 35.45462799072265625 33.8858642578125 28.803491592407226562 22.016782760620117188 27.353044509887695312 32.579708099365234375 31.842639923095703125 31.821489334106445312 30.535013198852539062 26.764255523681640625 26.316005706787109375 29.97470855712890625 34.412113189697265625 39.14520263671875 40.457706451416015625 31.987766265869140625 32.50678253173828125 38.65042877197265625 37.86588287353515625 35.83443450927734375 35.236263275146484375 34.67911529541015625 37.65117645263671875 37.458591461181640625 32.55108642578125 29.63616180419921875 29.709575653076171875 32.013553619384765625 30.731048583984375 25.703948974609375 18.940221786499023438 15.644190788269042969 28.2093048095703125 38.43198394775390625 38.62715911865234375 35.5552520751953125 29.455121994018554688 22.278425216674804688 20.364252090454101562 20.489772796630859375 18.884967803955078125 20.374034881591796875 15.026736259460449219 9.3545217514038085938 18.81085968017578125 21.22704315185546875 26.050586700439453125 26.928638458251953125 23.722105026245117188 25.778186798095703125 26.74072265625 26.956632614135742188 27.537487030029296875 26.547037124633789062 27.548370361328125 29.2422637939453125 28.915752410888671875 26.11154937744140625 23.857311248779296875 24.228246688842773438 25.20070648193359375 25.014192581176757812 24.822870254516601562 27.099241256713867188 28.714796066284179688 26.884355545043945312 22.346113204956054688 17.210918426513671875 14.928327560424804688 17.3466033935546875 25.886615753173828125 29.159648895263671875 26.986141204833984375 26.767656326293945312 33.4795684814453125 42.509410858154296875 40.68167877197265625 33.123126983642578125 31.643770217895507812 32.546722412109375 35.3644256591796875 38.142749786376953125 38.2143707275390625 37.8712005615234375 36.986385345458984375 36.523082733154296875 33.960437774658203125 30.147518157958984375 29.8636932373046875 25.687902450561523438 19.899698257446289062 31.24924468994140625 31.565832138061523438 28.243650436401367188 32.5377197265625 34.66717529296875 35.73468017578125 35.666332244873046875 34.212528228759765625 31.719537734985351562 23.175689697265625 8.6143331527709960938 15.017026901245117188 23.5805816650390625 25.73766326904296875 27.923969268798828125 29.585584640502929688 30.191921234130859375 29.7309112548828125 25.814760208129882812 16.5545806884765625 16.122243881225585938 26.0627288818359375 28.967914581298828125 29.382452011108398438 31.169427871704101562 32.582912445068359375 30.93405914306640625 25.282489776611328125 14.402588844299316406 11.453595161437988281 16.30596160888671875 20.226476669311523438 19.821035385131835938 17.587739944458007812 15.161771774291992188 10.301332473754882812 9.0435094833374023438 13.017460823059082031 18.10715484619140625 20.892948150634765625 17.378519058227539062 12.006264686584472656 10.269390106201171875 9.7668466567993164062 10.777041435241699219 12.837129592895507812 14.559160232543945312 14.511508941650390625 12.721722602844238281 12.825540542602539062 14.01398468017578125 14.665515899658203125 13.200136184692382812 10.630127906799316406 9.4385004043579101562 13.445828437805175781 22.384449005126953125 27.716344833374023438 28.721649169921875 28.21292877197265625 25.59638214111328125 21.001110076904296875 17.312227249145507812 16.2040252685546875 16.475551605224609375 17.089330673217773438 16.605472564697265625 15.9456787109375 18.66791534423828125 21.242074966430664062 19.150274276733398438 18.02820587158203125 18.549749374389648438 16.548501968383789062 -9999 
-9999 20.975543975830078125 3.0546748638153076172 26.909795761108398438 36.226268768310546875 35.8178558349609375 34.978359222412109375 36.452381134033203125 37.947662353515625 35.61767578125 30.893877029418945312 25.264627456665039062 30.433032989501953125 33.90393829345703125 29.888660430908203125 30.058917999267578125 32.404376983642578125 30.239032745361328125 29.470960617065429688 33.17645263671875 36.827999114990234375 41.376728057861328125 44.06443023681640625 36.239246368408203125 30.121576309204101562 39.91892242431640625 40.70801544189453125 38.449802398681640625 36.714420318603515625 34.836177825927734375 33.094818115234375 38.0636444091796875 38.949676513671875 34.876056671142578125 31.568384170532226562 30.513605117797851562 31.867704391479492188 30.779949188232421875 26.075489044189453125 20.901079177856445312 16.686740875244140625 23.47534942626953125 35.760654449462890625 39.98128509521484375 37.294769287109375 32.018924713134765625 25.736385345458984375 20.490633010864257812 18.985315322875976562 21.191410064697265625 23.522111892700195312 17.103298187255859375 6.6194486618041992188 15.462934494018554688 19.674997329711914062 22.9929046630859375 22.64597320556640625 23.189069747924804688 24.304370880126953125 22.333423614501953125 23.498926162719726562 26.457202911376953125 26.1012420654296875 23.999603271484375 21.408203125 18.09439849853515625 15.668222427368164062 16.073118209838867188 17.89571380615234375 18.2403717041015625 15.455308914184570312 11.948639869689941406 11.721936225891113281 13.196536064147949219 13.928913116455078125 18.145656585693359375 27.424230575561523438 35.57425689697265625 39.1908721923828125 40.3449554443359375 39.7788848876953125 37.149261474609375 34.390712738037109375 37.562267303466796875 42.2758331298828125 38.44188690185546875 29.392425537109375 27.881221771240234375 32.6617431640625 35.382740020751953125 38.793910980224609375 38.9790496826171875 38.253650665283203125 37.4697418212890625 37.14650726318359375 35.532878875732421875 33.27001953125 32.369380950927734375 28.55738067626953125 20.737453460693359375 30.970914840698242188 34.111156463623046875 28.260021209716796875 30.551509857177734375 34.248584747314453125 35.0512237548828125 34.520915985107421875 34.179656982421875 32.314022064208984375 27.088491439819335938 19.286725997924804688 7.3055253028869628906 13.013690948486328125 18.60381317138671875 18.878383636474609375 17.950151443481445312 16.134660720825195312 14.291286468505859375 11.484311103820800781 14.936941146850585938 26.11939239501953125 30.757184982299804688 29.452310562133789062 27.97853851318359375 29.586217880249023438 31.482580184936523438 29.793809890747070312 23.562427520751953125 13.360041618347167969 11.0210113525390625 14.6615142822265625 20.560674667358398438 23.3861083984375 21.50965118408203125 17.228738784790039062 11.206837654113769531 7.2384734153747558594 11.161513328552246094 16.403207778930664062 19.159395217895507812 16.81972503662109375 12.364774703979492188 10.514356613159179688 10.03501129150390625 11.122467994689941406 12.125936508178710938 13.040048599243164062 13.466591835021972656 12.781458854675292969 13.089201927185058594 14.085129737854003906 14.960172653198242188 14.065095901489257812 12.43852996826171875 11.818522453308105469 14.06369781494140625 21.932750701904296875 25.612283706665039062 22.953857421875 20.217082977294921875 16.343553543090820312 13.09488677978515625 12.231047630310058594 13.417160987854003906 14.863529205322265625 15.160651206970214844 16.106893539428710938 17.94675445556640625 21.322574615478515625 22.757633209228515625 19.335235595703125 17.223819732666015625 16.447698593139648438 14.533499717712402344 -9999 
-9999 29.748287200927734375 21.144330978393554688 6.9171504974365234375 21.50592803955078125 31.309446334838867188 36.508159637451171875 41.02603912353515625 42.006023406982421875 40.069812774658203125 34.394992828369140625 31.508413314819335938 37.296939849853515625 34.139434814453125 32.667308807373046875 35.71578216552734375 36.793300628662109375 34.30483245849609375 34.869922637939453125 35.9131622314453125 37.574108123779296875 44.89798736572265625 44.73212432861328125 29.137788772583007812 36.16010284423828125 42.3335113525390625 41.750995635986328125 40.48545074462890625 38.18868255615234375 34.6590423583984375 32.86519622802734375 37.720733642578125 38.712890625 36.80199432373046875 33.581211090087890625 31.6495513916015625 33.28249359130859375 33.75208282470703125 30.095041275024414062 24.514520645141601562 19.25775146484375 19.912107467651367188 30.577136993408203125 38.692287445068359375 38.25920867919921875 34.271270751953125 29.043201446533203125 22.435602188110351562 18.117706298828125 20.990131378173828125 25.041204452514648438 18.745975494384765625 3.177459716796875 11.634333610534667969 18.222566604614257812 19.71927642822265625 13.41696929931640625 4.4786705970764160156 6.685016632080078125 12.806506156921386719 10.924604415893554688 4.8301959037780761719 10.282001495361328125 9.6428012847900390625 7.7447457313537597656 8.9797420501708984375 10.944005966186523438 11.29572296142578125 12.26708984375 15.161341667175292969 19.179628372192382812 22.737674713134765625 25.012098312377929688 28.195783615112304688 32.72624969482421875 36.762271881103515625 40.03582763671875 42.35858154296875 41.38040924072265625 39.41371917724609375 38.078125 35.70250701904296875 33.08490753173828125 35.82331085205078125 39.878978729248046875 36.6647491455078125 29.320819854736328125 25.808614730834960938 31.44940948486328125 35.079677581787109375 34.42945098876953125 33.719989776611328125 35.6256256103515625 37.44306182861328125 37.0701751708984375 35.744720458984375 34.837677001953125 33.719799041748046875 30.950145721435546875 22.339662551879882812 30.145679473876953125 35.178981781005859375 29.685701370239257812 28.122488021850585938 32.586421966552734375 32.4884033203125 31.00508880615234375 32.83788299560546875 31.939958572387695312 26.838825225830078125 22.902353286743164062 17.425228118896484375 8.14875030517578125 14.164369583129882812 17.835592269897460938 18.707050323486328125 17.662319183349609375 17.3336334228515625 20.271890640258789062 25.752315521240234375 30.493152618408203125 31.3922271728515625 30.500339508056640625 29.883203506469726562 30.631277084350585938 30.445314407348632812 27.554304122924804688 21.097524642944335938 11.528245925903320312 10.832804679870605469 14.330727577209472656 18.474149703979492188 21.294706344604492188 21.0259246826171875 18.08306121826171875 14.184119224548339844 10.505016326904296875 10.437994003295898438 13.355792999267578125 16.200288772583007812 15.366990089416503906 12.325670242309570312 10.786900520324707031 10.38701629638671875 11.32537841796875 11.058285713195800781 11.124629020690917969 11.838344573974609375 11.859776496887207031 12.319334030151367188 13.277525901794433594 13.976366043090820312 12.826272010803222656 12.234354972839355469 12.55512237548828125 11.421253204345703125 16.164045333862304688 22.407558441162109375 20.333309173583984375 14.415365219116210938 9.6635723114013671875 8.8226213455200195312 9.2292127609252929688 11.143631935119628906 14.042077064514160156 14.525681495666503906 16.67052459716796875 20.829681396484375 23.911334991455078125 23.397760391235351562 19.08606719970703125 16.734716415405273438 15.028097152709960938 13.392706871032714844 -9999 
-9999 32.786251068115234375 30.040447235107421875 20.574634552001953125 1.9708806276321411133 12.695011138916015625 21.902496337890625 27.007474899291992188 29.219392776489257812 31.286113739013671875 32.418254852294921875 36.349761962890625 39.459026336669921875 37.021099090576171875 36.25592041015625 38.845706939697265625 38.671932220458984375 35.5753936767578125 32.37743377685546875 34.116329193115234375 40.506572723388671875 45.690128326416015625 38.631359100341796875 29.680744171142578125 41.21808624267578125 40.963230133056640625 39.73877716064453125 39.9912567138671875 38.3338165283203125 34.409404754638671875 33.7474212646484375 37.534366607666015625 37.702472686767578125 37.370403289794921875 34.3215484619140625 30.017421722412109375 31.09738922119140625 34.20642852783203125 33.750518798828125 28.977930068969726562 22.791172027587890625 19.8656463623046875 26.9264068603515625 36.53478240966796875 37.9883575439453125 34.513317108154296875 30.099248886108398438 24.076581954956054688 18.722105026245117188 19.801311492919921875 23.627199172973632812 20.93817138671875 7.2076597213745117188 9.7103853225708007812 18.5886993408203125 21.363412857055664062 19.00728607177734375 20.840646743774414062 28.23210906982421875 33.222515106201171875 34.202716827392578125 31.741540908813476562 25.55730438232421875 25.816816329956054688 26.090465545654296875 25.000097274780273438 25.390867233276367188 27.978292465209960938 31.75820159912109375 33.668857574462890625 33.4785308837890625 32.370052337646484375 31.460344314575195312 33.916713714599609375 37.93941497802734375 39.930919647216796875 40.956516265869140625 41.45767974853515625 39.15364837646484375 36.76334381103515625 35.603271484375 33.514492034912109375 32.628814697265625 32.88251495361328125 37.760875701904296875 36.489528656005859375 32.472042083740234375 30.353992462158203125 29.432695388793945312 34.030467987060546875 33.7382354736328125 33.3532257080078125 34.077434539794921875 32.787609100341796875 33.491851806640625 35.464550018310546875 35.28476715087890625 33.547489166259765625 31.926595687866210938 23.921009063720703125 28.299207687377929688 34.737590789794921875 32.02916717529296875 28.736204147338867188 30.46318817138671875 30.399797439575195312 29.858367919921875 31.494516372680664062 31.339860916137695312 28.154125213623046875 25.297901153564453125 23.172510147094726562 15.200803756713867188 8.1446218490600585938 18.334417343139648438 22.753582000732421875 21.116598129272460938 20.432788848876953125 25.394227981567382812 30.34749603271484375 31.672334671020507812 30.974323272705078125 31.338165283203125 31.242837905883789062 29.633802413940429688 25.461072921752929688 20.927936553955078125 16.542203903198242188 6.8418297767639160156 6.9149351119995117188 12.07508087158203125 11.967066764831542969 12.275309562683105469 14.758611679077148438 16.862123489379882812 17.663379669189453125 16.906156539916992188 15.239132881164550781 13.374341011047363281 12.598877906799316406 11.361540794372558594 11.051610946655273438 10.888274192810058594 10.499211311340332031 11.265162467956542969 9.944408416748046875 9.1119356155395507812 9.9638051986694335938 10.447394371032714844 11.328111648559570312 12.728138923645019531 13.200423240661621094 11.46871185302734375 11.200557708740234375 11.837353706359863281 9.9619092941284179688 8.9636487960815429688 16.73781585693359375 22.127576828002929688 20.8638763427734375 14.777506828308105469 10.059276580810546875 8.352680206298828125 10.171994209289550781 14.6102752685546875 15.876338005065917969 18.289739608764648438 23.42707061767578125 25.715608596801757812 23.203245162963867188 18.443508148193359375 16.245035171508789062 14.142933845520019531 13.093241691589355469 -9999 
-9999 33.3045196533203125 31.825115203857421875 25.721771240234375 16.053644180297851562 8.8195629119873046875 7.6230912208557128906 5.9659237861633300781 2.9678235054016113281 8.87311553955078125 20.508983612060546875 29.324453353881835938 33.060840606689453125 33.429080963134765625 34.9932708740234375 38.404628753662109375 37.11290740966796875 32.9066925048828125 33.028362274169921875 38.53389739990234375 43.258090972900390625 40.976062774658203125 30.6707763671875 37.1402587890625 42.205425262451171875 38.731555938720703125 38.19676971435546875 38.765895843505859375 36.944805145263671875 34.325176239013671875 34.808757781982421875 37.358798980712890625 36.4031982421875 36.917423248291015625 36.16464996337890625 31.926977157592773438 30.65888214111328125 32.807861328125 33.91394805908203125 31.802165985107421875 26.713420867919921875 22.182430267333984375 26.088815689086914062 34.86159515380859375 37.15219879150390625 34.067104339599609375 29.716833114624023438 23.9761810302734375 19.346792221069335938 19.803121566772460938 21.017759323120117188 20.111341476440429688 10.600439071655273438 8.6218318939208984375 20.4945526123046875 24.537542343139648438 22.677770614624023438 20.93981170654296875 24.808458328247070312 27.9911041259765625 30.504407882690429688 37.669193267822265625 39.501934051513671875 36.518550872802734375 32.49919891357421875 29.279621124267578125 27.518449783325195312 27.544187545776367188 29.490627288818359375 30.649339675903320312 30.545743942260742188 29.373472213745117188 29.7837677001953125 34.7656707763671875 38.509674072265625 38.55825042724609375 38.138912200927734375 37.311244964599609375 34.970890045166015625 33.431671142578125 32.7561187744140625 30.751087188720703125 31.723052978515625 31.009777069091796875 35.75246429443359375 36.46343231201171875 33.0402069091796875 33.100494384765625 31.449522018432617188 31.689165115356445312 34.11147308349609375 35.78218841552734375 35.0603179931640625 26.326379776000976562 25.621667861938476562 34.151828765869140625 35.484630584716796875 33.339557647705078125 31.615953445434570312 24.1054534912109375 26.139148712158203125 34.770343780517578125 35.618587493896484375 31.655473709106445312 26.814420700073242188 28.887218475341796875 30.8574066162109375 30.816099166870117188 30.7207183837890625 29.15055084228515625 26.976116180419921875 26.000659942626953125 22.886644363403320312 11.694559097290039062 13.648007392883300781 23.251695632934570312 24.15666961669921875 23.17107391357421875 23.710096359252929688 24.486392974853515625 23.24306488037109375 23.041507720947265625 25.882305145263671875 26.935892105102539062 25.829570770263671875 21.2932891845703125 16.669902801513671875 15.629441261291503906 12.473151206970214844 9.9941806793212890625 10.345361709594726562 6.8331780433654785156 4.0217409133911132812 3.5069127082824707031 6.9453282356262207031 12.999415397644042969 17.1555938720703125 18.439266204833984375 17.987781524658203125 15.475597381591796875 10.042576789855957031 7.5526595115661621094 9.1586618423461914062 10.04021453857421875 11.168400764465332031 9.0901613235473632812 7.4397892951965332031 8.2301797866821289062 9.0778322219848632812 10.400209426879882812 12.127493858337402344 12.199222564697265625 10.419510841369628906 10.372139930725097656 10.461774826049804688 9.359584808349609375 6.5800976753234863281 7.74411773681640625 15.445135116577148438 22.280923843383789062 23.625543594360351562 20.09777069091796875 14.896124839782714844 13.143656730651855469 17.596860885620117188 19.4028472900390625 21.082057952880859375 25.025159835815429688 25.738430023193359375 22.393659591674804688 17.943719863891601562 15.644927978515625 13.4702301025390625 13.166892051696777344 -9999 
-9999 34.018070220947265625 31.704393386840820312 25.868143081665039062 22.288051605224609375 19.83931732177734375 18.96891021728515625 18.47528076171875 17.05548095703125 15.990572929382324219 17.266664505004882812 18.59935760498046875 20.589059829711914062 23.22260284423828125 26.67160797119140625 31.232341766357421875 32.622882843017578125 33.873897552490234375 37.060016632080078125 40.204883575439453125 41.167171478271484375 34.737712860107421875 35.28289794921875 40.731456756591796875 40.31426239013671875 36.611598968505859375 35.2051849365234375 34.12657928466796875 31.29581451416015625 29.637712478637695312 31.803730010986328125 35.61937713623046875 35.664310455322265625 36.477783203125 37.27648162841796875 35.263347625732421875 33.77220916748046875 33.950725555419921875 33.683330535888671875 32.709545135498046875 30.355264663696289062 25.285764694213867188 25.61669158935546875 32.87694549560546875 36.02906036376953125 33.946125030517578125 29.423891067504882812 23.163974761962890625 18.616914749145507812 20.016901016235351562 20.17624664306640625 18.515033721923828125 12.374402999877929688 6.546627044677734375 21.506174087524414062 25.288904190063476562 22.442646026611328125 20.344137191772460938 23.78574371337890625 26.855115890502929688 26.537504196166992188 30.204883575439453125 35.326297760009765625 33.60610198974609375 28.357789993286132812 23.804830551147460938 18.643884658813476562 14.511041641235351562 18.21016693115234375 20.206134796142578125 20.817575454711914062 22.322179794311523438 27.067659378051757812 34.0821075439453125 36.464874267578125 35.496036529541015625 34.325439453125 32.242977142333984375 31.100049972534179688 31.187601089477539062 30.281194686889648438 28.342092514038085938 29.947248458862304688 30.6636810302734375 32.50677490234375 35.42087554931640625 33.52552032470703125 31.75435638427734375 32.50214385986328125 30.226444244384765625 33.284732818603515625 35.018840789794921875 33.678653717041015625 25.458761215209960938 18.3765411376953125 31.66556549072265625 35.37526702880859375 34.077304840087890625 32.138072967529296875 24.985027313232421875 25.088281631469726562 34.91997528076171875 36.865482330322265625 30.884532928466796875 21.308717727661132812 29.373050689697265625 31.952363967895507812 31.006099700927734375 30.313383102416992188 28.888387680053710938 27.493349075317382812 26.6357269287109375 24.937582015991210938 18.773820877075195312 7.8082914352416992188 17.391819000244140625 24.899660110473632812 26.277307510375976562 26.830982208251953125 27.323963165283203125 24.681182861328125 23.81435394287109375 28.080417633056640625 31.189952850341796875 31.666791915893554688 29.655599594116210938 25.173145294189453125 22.478748321533203125 22.801610946655273438 24.002641677856445312 24.651096343994140625 22.585454940795898438 19.083162307739257812 16.49330902099609375 12.811059951782226562 7.0552296638488769531 6.1731204986572265625 10.846578598022460938 14.579408645629882812 15.326169967651367188 13.533984184265136719 10.071588516235351562 7.1196489334106445312 7.9489259719848632812 10.584735870361328125 8.225734710693359375 5.8597545623779296875 6.6653714179992675781 7.9632287025451660156 9.6053991317749023438 11.145965576171875 10.517088890075683594 9.1625795364379882812 9.4594335556030273438 9.1455059051513671875 8.7308807373046875 7.8428530693054199219 5.7311167716979980469 4.843914031982421875 12.030889511108398438 18.835920333862304688 20.660547256469726562 18.02068328857421875 17.62172698974609375 21.606670379638671875 22.267183303833007812 22.792566299438476562 25.3937530517578125 24.846002578735351562 21.5667724609375 17.561296463012695312 14.641163825988769531 12.78592681884765625 13.541363716125488281 -9999 
-9999 35.831661224365234375 31.5433502197265625 25.615110397338867188 24.6768951416015625 24.744363784790039062 25.1474761962890625 25.0677947998046875 23.510028839111328125 20.90506744384765625 16.724031448364257812 12.327432632446289062 13.239539146423339844 18.055204391479492188 23.100534439086914062 27.240812301635742188 30.850961685180664062 35.130382537841796875 38.18120574951171875 38.7958984375 35.629093170166015625 33.6817626953125 38.723663330078125 40.0634613037109375 38.2366943359375 32.949771881103515625 27.795307159423828125 27.116594314575195312 26.84854888916015625 23.822076797485351562 26.160238265991210938 32.3228607177734375 34.3083343505859375 35.998989105224609375 37.14788055419921875 36.581638336181640625 36.721530914306640625 36.826030731201171875 35.418163299560546875 33.828121185302734375 33.064380645751953125 28.670413970947265625 25.091058731079101562 29.62100982666015625 34.493129730224609375 33.678859710693359375 29.079637527465820312 22.596223831176757812 16.842807769775390625 19.054983139038085938 21.32892608642578125 19.127593994140625 13.632775306701660156 4.6856374740600585938 21.331712722778320312 23.89968109130859375 20.889726638793945312 21.307769775390625 27.226713180541992188 32.46355438232421875 30.05571746826171875 20.850908279418945312 18.76181793212890625 19.84470367431640625 18.431873321533203125 16.033329010009765625 11.578992843627929688 4.2310357093811035156 16.893688201904296875 20.728338241577148438 17.562578201293945312 18.030004501342773438 25.29476165771484375 32.13587188720703125 33.794849395751953125 33.50933837890625 31.834642410278320312 28.786848068237304688 28.11190032958984375 27.97890472412109375 26.618457794189453125 26.133586883544921875 27.670019149780273438 28.884744644165039062 29.691507339477539062 34.610065460205078125 36.322429656982421875 31.45798492431640625 29.530221939086914062 27.950456619262695312 31.294521331787109375 33.59412384033203125 32.8894805908203125 28.885774612426757812 20.4442596435546875 30.58737945556640625 36.33106231689453125 35.737548828125 33.416736602783203125 26.647230148315429688 24.289402008056640625 33.40624237060546875 35.40826416015625 29.527055740356445312 18.83150482177734375 30.0316925048828125 33.799625396728515625 32.081707000732421875 29.696054458618164062 26.721363067626953125 24.621026992797851562 23.761699676513671875 21.371738433837890625 20.2893829345703125 16.395128250122070312 7.4297738075256347656 19.691555023193359375 26.188098907470703125 27.4262237548828125 28.601423263549804688 26.83209991455078125 25.131336212158203125 28.614187240600585938 33.228546142578125 35.478759765625 35.7018585205078125 33.642162322998046875 29.8773193359375 28.3897705078125 28.764247894287109375 28.662584304809570312 27.15119171142578125 24.957324981689453125 23.584564208984375 22.1459197998046875 20.127101898193359375 16.64837646484375 11.484936714172363281 9.7585906982421875 8.6555271148681640625 8.96927642822265625 9.1646223068237304688 7.9612278938293457031 7.9397430419921875 9.8768434524536132812 6.8656549453735351562 3.3801555633544921875 4.76428985595703125 7.0365557670593261719 8.83739471435546875 9.5964174270629882812 8.6732397079467773438 8.602748870849609375 8.8692026138305664062 8.6137676239013671875 8.3290348052978515625 8.2259006500244140625 7.21222686767578125 4.4324755668640136719 5.3310995101928710938 12.290080070495605469 19.404115676879882812 22.53298187255859375 22.546304702758789062 23.0650177001953125 22.773302078247070312 23.33290863037109375 25.232358932495117188 24.22556304931640625 21.08563232421875 17.090206146240234375 13.788829803466796875 12.690992355346679688 14.346869468688964844 -9999 
-9999 35.480594635009765625 31.59674835205078125 27.688539505004882812 27.017023086547851562 27.529720306396484375 27.907098770141601562 27.6710968017578125 25.932861328125 21.624307632446289062 15.18389129638671875 10.278961181640625 10.97589874267578125 16.153772354125976562 23.192815780639648438 27.03630828857421875 29.4534912109375 33.615253448486328125 36.734012603759765625 34.77685546875 29.939426422119140625 34.5197296142578125 39.534946441650390625 40.144939422607421875 35.920246124267578125 26.577001571655273438 22.560369491577148438 26.049318313598632812 28.040689468383789062 24.683622360229492188 25.807882308959960938 30.269769668579101562 31.484750747680664062 34.30265045166015625 35.893466949462890625 35.988433837890625 37.2993927001953125 38.41808319091796875 38.527935028076171875 36.5125274658203125 34.6614532470703125 31.875728607177734375 26.149539947509765625 25.8586883544921875 31.732465744018554688 32.59368133544921875 28.060930252075195312 22.418636322021484375 15.640187263488769531 17.107208251953125 22.565921783447265625 21.50926971435546875 14.792789459228515625 4.7527751922607421875 20.96018218994140625 20.47148895263671875 17.702646255493164062 20.911830902099609375 28.304735183715820312 35.123226165771484375 34.27448272705078125 22.159481048583984375 4.7619013786315917969 5.4148335456848144531 12.1584625244140625 15.130598068237304688 16.294353485107421875 7.0028467178344726562 16.697809219360351562 21.327833175659179688 18.849519729614257812 19.966173171997070312 25.658620834350585938 31.310716629028320312 33.026920318603515625 32.085964202880859375 28.03176116943359375 24.086248397827148438 23.7425689697265625 23.972385406494140625 24.826084136962890625 25.393743515014648438 25.153654098510742188 27.136476516723632812 28.999597549438476562 33.92615509033203125 36.497936248779296875 31.21338653564453125 25.60785675048828125 25.7517547607421875 27.673677444458007812 32.4588623046875 34.122829437255859375 32.667972564697265625 25.656543731689453125 29.542074203491210938 36.537723541259765625 36.90579986572265625 34.49369049072265625 29.271572113037109375 24.661746978759765625 30.358856201171875 33.38947296142578125 29.189950942993164062 16.758356094360351562 25.289752960205078125 32.99627685546875 33.254764556884765625 28.965717315673828125 23.773618698120117188 22.487211227416992188 20.196794509887695312 18.1943206787109375 21.703939437866210938 22.9916229248046875 16.665615081787109375 7.9563140869140625 19.088008880615234375 26.0639190673828125 29.313846588134765625 27.600496292114257812 24.438571929931640625 25.687944412231445312 29.853969573974609375 33.6413726806640625 35.9999237060546875 36.557834625244140625 33.322185516357421875 29.36316680908203125 27.05682373046875 25.138271331787109375 23.476305007934570312 23.7958221435546875 24.959087371826171875 24.316629409790039062 23.637638092041015625 23.717191696166992188 20.404508590698242188 15.364465713500976562 9.2120065689086914062 2.2414441108703613281 3.8728220462799072266 6.3603467941284179688 8.8972692489624023438 10.085367202758789062 6.7270832061767578125 2.5291979312896728516 1.6926479339599609375 6.15991973876953125 8.262516021728515625 7.5560631752014160156 6.9826116561889648438 8.0262517929077148438 7.5754580497741699219 7.09589385986328125 6.0815272331237792969 5.2408609390258789062 5.0788254737854003906 3.7428600788116455078 6.0902972221374511719 12.84111785888671875 21.651250839233398438 25.909008026123046875 23.5861358642578125 22.266412734985351562 22.764850616455078125 23.845693588256835938 24.46375274658203125 22.836521148681640625 20.186899185180664062 17.00324249267578125 15.25444793701171875 15.359503746032714844 16.045877456665039062 -9999 
-9999 31.497701644897460938 30.478389739990234375 28.762388229370117188 27.888963699340820312 28.272144317626953125 28.511976242065429688 27.902545928955078125 25.509670257568359375 21.28112030029296875 16.942718505859375 13.5182037353515625 12.425844192504882812 14.717070579528808594 21.851568222045898438 27.043413162231445312 28.820772171020507812 31.352354049682617188 32.451404571533203125 27.826330184936523438 29.14086151123046875 36.898174285888671875 39.433803558349609375 36.09665679931640625 27.716352462768554688 21.857034683227539062 25.730533599853515625 29.343137741088867188 30.994983673095703125 29.515798568725585938 30.050506591796875 31.018903732299804688 30.955474853515625 33.462917327880859375 35.143184661865234375 36.289691925048828125 36.95369720458984375 37.5203094482421875 41.1004180908203125 40.21213531494140625 35.562053680419921875 34.138881683349609375 28.792863845825195312 24.522474288940429688 27.6544647216796875 29.527599334716796875 25.76317596435546875 21.92095184326171875 15.95360565185546875 15.446378707885742188 22.857721328735351562 23.540399551391601562 15.560166358947753906 6.0122594833374023438 20.297800064086914062 16.351545333862304688 14.403211593627929688 19.81935882568359375 26.506128311157226562 33.36060333251953125 34.945415496826171875 27.174238204956054688 15.651594161987304688 10.566069602966308594 10.50205230712890625 10.561559677124023438 18.457977294921875 9.8799886703491210938 13.8892974853515625 19.683969497680664062 19.829290390014648438 22.336605072021484375 25.486911773681640625 31.044767379760742188 33.5972900390625 31.338016510009765625 24.989778518676757812 18.885705947875976562 18.542093276977539062 20.828901290893554688 24.601594924926757812 26.886758804321289062 24.333147048950195312 24.446367263793945312 27.229452133178710938 30.931730270385742188 33.064983367919921875 29.572381973266601562 21.986637115478515625 23.844633102416992188 25.299528121948242188 31.122161865234375 34.758762359619140625 33.723724365234375 25.576930999755859375 25.81053924560546875 34.141460418701171875 35.629634857177734375 34.45001983642578125 32.446910858154296875 27.932165145874023438 28.266521453857421875 31.83615875244140625 28.527410507202148438 14.865858078002929688 17.517377853393554688 28.694704055786132812 34.06955718994140625 31.145694732666015625 24.647771835327148438 20.022764205932617188 15.572344779968261719 20.72165679931640625 24.61989593505859375 25.851427078247070312 24.555309295654296875 17.530961990356445312 7.53050994873046875 14.602819442749023438 24.637889862060546875 26.818868637084960938 25.344873428344726562 25.21569061279296875 26.252656936645507812 28.154863357543945312 30.467546463012695312 32.5877227783203125 31.30110931396484375 28.301172256469726562 26.37347412109375 24.084558486938476562 20.73363494873046875 20.155992507934570312 22.849309921264648438 24.508678436279296875 24.83448028564453125 26.7608184814453125 25.236797332763671875 18.843511581420898438 13.252552986145019531 8.202251434326171875 3.8219068050384521484 4.6045298576354980469 7.4926042556762695312 8.373561859130859375 5.6971750259399414062 3.9504449367523193359 1.4255980253219604492 5.1194767951965332031 7.3284258842468261719 5.8458032608032226562 4.2522644996643066406 3.5799422264099121094 4.0429677963256835938 4.3796138763427734375 2.2116744518280029297 2.1276247501373291016 3.5690712928771972656 3.7595658302307128906 9.0567493438720703125 14.964941024780273438 22.210031509399414062 25.80425262451171875 22.932647705078125 21.88881683349609375 22.94670867919921875 23.606779098510742188 22.31133270263671875 19.925489425659179688 18.830715179443359375 17.768129348754882812 16.8048553466796875 16.56487274169921875 17.394073486328125 -9999 
-9999 29.576446533203125 31.292337417602539062 29.807371139526367188 27.2469635009765625 27.596996307373046875 27.688623428344726562 26.272264480590820312 24.536687850952148438 22.097320556640625 19.94061279296875 18.142419815063476562 16.545293807983398438 15.844223976135253906 19.504140853881835938 26.134218215942382812 29.0557403564453125 28.719663619995117188 24.313711166381835938 22.42914581298828125 29.853185653686523438 33.434268951416015625 30.037998199462890625 22.698644638061523438 20.67822265625 25.732107162475585938 29.906705856323242188 32.25749969482421875 33.0303802490234375 31.960882186889648438 31.550525665283203125 30.17372894287109375 30.733249664306640625 33.522418975830078125 35.52553558349609375 37.14300537109375 36.482608795166015625 36.700740814208984375 41.9394073486328125 41.04845428466796875 35.209178924560546875 34.628536224365234375 29.906946182250976562 22.946056365966796875 22.253986358642578125 23.983594894409179688 22.836513519287109375 21.465654373168945312 17.239740371704101562 14.438605308532714844 22.034425735473632812 24.802318572998046875 16.227113723754882812 5.4035491943359375 18.520490646362304688 13.406755447387695312 12.837324142456054688 19.739908218383789062 24.51271820068359375 30.0342254638671875 31.35416412353515625 23.92804718017578125 19.96697235107421875 22.006006240844726562 20.72283935546875 5.2136054039001464844 14.272068977355957031 9.008026123046875 10.062165260314941406 18.442577362060546875 21.324426651000976562 23.126554489135742188 23.532976150512695312 29.79074859619140625 34.397792816162109375 32.688018798828125 26.013256072998046875 18.687961578369140625 17.876451492309570312 20.848203659057617188 24.301633834838867188 27.967258453369140625 25.541271209716796875 19.020414352416992188 21.164764404296875 26.361722946166992188 29.713781356811523438 28.416530609130859375 21.824144363403320312 20.530223846435546875 23.827051162719726562 28.820112228393554688 33.616863250732421875 32.850910186767578125 20.847356796264648438 19.241230010986328125 29.708110809326171875 29.717554092407226562 29.40427398681640625 31.880899429321289062 30.849836349487304688 27.652690887451171875 29.713802337646484375 27.617311477661132812 14.587491035461425781 16.182779312133789062 28.611448287963867188 36.46163177490234375 33.698719024658203125 23.771093368530273438 13.775839805603027344 16.818592071533203125 23.936756134033203125 26.541286468505859375 27.801548004150390625 27.001522064208984375 25.053791046142578125 20.189393997192382812 12.405008316040039062 10.487642288208007812 17.079046249389648438 21.246433258056640625 23.397447586059570312 23.0767364501953125 21.800416946411132812 22.838434219360351562 25.714822769165039062 26.151430130004882812 25.684722900390625 25.9744720458984375 23.987718582153320312 19.3459320068359375 16.792774200439453125 19.449762344360351562 23.455034255981445312 25.759431838989257812 29.278186798095703125 29.36620330810546875 21.914476394653320312 14.618453025817871094 11.366912841796875 7.8566937446594238281 5.7261824607849121094 7.3093967437744140625 7.030826568603515625 3.0143964290618896484 3.7193012237548828125 2.5136208534240722656 3.9250895977020263672 6.0282163619995117188 5.1310672760009765625 3.5196394920349121094 4.9488024711608886719 6.7142376899719238281 5.4423365592956542969 3.0139057636260986328 1.8002914190292358398 1.3774225711822509766 6.0870509147644042969 11.928797721862792969 16.516956329345703125 21.519565582275390625 24.100648880004882812 22.568691253662109375 22.2755584716796875 22.526922225952148438 21.860996246337890625 19.441518783569335938 17.053333282470703125 16.950136184692382812 18.074199676513671875 19.824291229248046875 20.624906539916992188 18.514497756958007812 -9999 
-9999 31.234071731567382812 32.869281768798828125 32.071033477783203125 28.487781524658203125 28.110525131225585938 27.807741165161132812 26.8336181640625 25.882654190063476562 24.627630233764648438 23.475765228271484375 21.948963165283203125 20.23006439208984375 17.53974151611328125 17.086833953857421875 23.696294784545898438 27.302350997924804688 23.595235824584960938 18.6041717529296875 23.780496597290039062 27.645679473876953125 25.202447891235351562 17.34234619140625 15.665891647338867188 22.770219802856445312 30.170343399047851562 32.11992645263671875 32.406955718994140625 32.314067840576171875 31.459442138671875 31.258474349975585938 29.180059432983398438 29.728666305541992188 32.203533172607421875 33.794788360595703125 34.9279022216796875 34.733509063720703125 36.438304901123046875 39.77618408203125 37.86700439453125 35.53702545166015625 35.74225616455078125 31.693758010864257812 24.1697998046875 18.936719894409179688 18.79830169677734375 19.936466217041015625 21.341466903686523438 18.459758758544921875 13.473379135131835938 19.8298492431640625 25.2931365966796875 18.195323944091796875 3.1620113849639892578 17.192840576171875 12.043466567993164062 11.739407539367675781 20.486524581909179688 25.043247222900390625 28.996698379516601562 28.415590286254882812 20.76166534423828125 21.6386260986328125 26.39654541015625 28.318704605102539062 19.961652755737304688 12.965084075927734375 6.5631937980651855469 9.4707174301147460938 19.147747039794921875 22.831857681274414062 21.873651504516601562 19.119531631469726562 26.661319732666015625 34.899250030517578125 35.131298065185546875 28.158580780029296875 20.86426544189453125 20.919149398803710938 23.010244369506835938 24.41705322265625 27.579957962036132812 27.25008392333984375 20.865289688110351562 18.292461395263671875 23.845256805419921875 27.703449249267578125 26.604291915893554688 22.4678955078125 20.06281280517578125 23.285089492797851562 25.730121612548828125 28.826505661010742188 30.01479339599609375 17.304555892944335938 13.134252548217773438 26.44757080078125 23.614809036254882812 23.070943832397460938 28.109056472778320312 29.777496337890625 26.148492813110351562 26.404699325561523438 25.846157073974609375 12.9081878662109375 19.553394317626953125 31.040943145751953125 36.987518310546875 33.82503509521484375 21.843664169311523438 13.199048995971679688 23.414844512939453125 27.38950347900390625 28.614149093627929688 30.074077606201171875 28.604974746704101562 26.561330795288085938 24.36577606201171875 21.74054718017578125 16.15393829345703125 7.971858978271484375 5.84583282470703125 15.498979568481445312 20.2535400390625 18.405576705932617188 18.364511489868164062 20.580968856811523438 20.599758148193359375 21.18318939208984375 23.440517425537109375 21.636526107788085938 16.813302993774414062 13.917777061462402344 15.763068199157714844 20.170820236206054688 24.765333175659179688 29.834686279296875 31.847906112670898438 26.878690719604492188 18.550230026245117188 14.239441871643066406 11.0376129150390625 7.5298790931701660156 8.2000379562377929688 7.5891222953796386719 2.6411085128784179688 3.4966671466827392578 2.8396022319793701172 3.1100182533264160156 5.7150506973266601562 7.4000673294067382812 8.5741119384765625 9.3238248825073242188 8.872119903564453125 6.0459990501403808594 3.0992558002471923828 1.548770904541015625 5.3818945884704589844 10.196268081665039062 14.373068809509277344 18.01715087890625 21.442747116088867188 22.695537567138671875 21.800809860229492188 21.597087860107421875 20.951938629150390625 19.527952194213867188 17.24713897705078125 15.691634178161621094 15.627466201782226562 16.321722030639648438 18.706708908081054688 22.897455215454101562 24.158967971801757812 -9999 
-9999 32.953487396240234375 33.49462127685546875 33.01819610595703125 30.821065902709960938 30.297109603881835938 29.8603668212890625 29.787706375122070312 29.508382797241210938 29.018886566162109375 27.449628829956054688 24.451387405395507812 21.343271255493164062 18.179254531860351562 15.081343650817871094 17.270116806030273438 20.52342987060546875 21.96596527099609375 24.438806533813476562 24.628107070922851562 21.412561416625976562 15.64208984375 12.890648841857910156 17.051794052124023438 23.730405807495117188 31.483417510986328125 32.676982879638671875 31.832399368286132812 32.458293914794921875 32.968475341796875 33.5723419189453125 32.333530426025390625 32.068206787109375 33.1534271240234375 33.97051239013671875 35.288135528564453125 36.761318206787109375 38.116954803466796875 37.534435272216796875 35.744426727294921875 37.389934539794921875 39.57578277587890625 37.798465728759765625 31.819271087646484375 22.781816482543945312 17.9311676025390625 18.828641891479492188 21.124780654907226562 18.755817413330078125 12.872197151184082031 16.721630096435546875 23.8109893798828125 21.431140899658203125 2.0362734794616699219 16.14008331298828125 11.952764511108398438 9.1402387619018554688 18.934326171875 26.3825225830078125 30.46634674072265625 29.25553131103515625 23.43589019775390625 22.06317138671875 25.14083099365234375 28.072717666625976562 25.7139892578125 17.67343902587890625 7.3517556190490722656 12.481801986694335938 20.742214202880859375 22.544872283935546875 18.854757308959960938 14.26735687255859375 21.338914871215820312 33.647552490234375 36.8544158935546875 30.0536041259765625 23.2294921875 23.959812164306640625 25.309808731079101562 25.4837493896484375 26.536115646362304688 27.276304244995117188 25.56790924072265625 22.79149627685546875 24.75420379638671875 25.40557861328125 23.385023117065429688 22.514209747314453125 22.444444656372070312 24.52194976806640625 24.375139236450195312 22.361667633056640625 23.95722198486328125 17.681966781616210938 5.8477511405944824219 23.602907180786132812 26.710046768188476562 25.810106277465820312 25.273603439331054688 25.417959213256835938 23.744550704956054688 23.508977890014648438 22.095743179321289062 9.4591550827026367188 22.5792236328125 32.437347412109375 35.51929473876953125 32.727130889892578125 21.360063552856445312 16.844152450561523438 27.35285186767578125 28.123865127563476562 28.971639633178710938 31.375946044921875 30.379194259643554688 27.886423110961914062 24.899547576904296875 23.21843719482421875 21.8120880126953125 18.751005172729492188 12.511102676391601562 5.63860321044921875 15.642358779907226562 15.727976799011230469 13.962023735046386719 15.862137794494628906 17.045362472534179688 19.683650970458984375 23.06577301025390625 20.421792984008789062 13.195496559143066406 6.6579499244689941406 6.8600783348083496094 12.629582405090332031 20.495485305786132812 27.3404541015625 31.198694229125976562 30.75983428955078125 25.701875686645507812 20.639883041381835938 16.750741958618164062 12.073426246643066406 10.447669029235839844 9.03168487548828125 4.0659637451171875 2.8088445663452148438 2.3445315361022949219 3.1990220546722412109 7.6206669807434082031 10.953682899475097656 11.390557289123535156 10.0363006591796875 8.1272487640380859375 5.592227935791015625 5.8531632423400878906 10.604575157165527344 14.265614509582519531 15.910581588745117188 17.242218017578125 19.1072845458984375 20.529108047485351562 20.133550643920898438 19.390718460083007812 19.351408004760742188 18.6524810791015625 17.375074386596679688 15.633047103881835938 15.167765617370605469 15.487459182739257812 15.500025749206542969 17.154445648193359375 21.492219924926757812 25.243627548217773438 -9999 
-9999 35.148937225341796875 35.966243743896484375 33.6051025390625 31.270404815673828125 30.860912322998046875 31.311651229858398438 32.18302154541015625 33.486083984375 33.421123504638671875 31.321117401123046875 27.163394927978515625 22.738466262817382812 19.859872817993164062 14.634828567504882812 5.4196038246154785156 12.942129135131835938 20.383512496948242188 20.399110794067382812 15.952159881591796875 10.743559837341308594 7.3546204566955566406 13.158188819885253906 18.469409942626953125 22.815364837646484375 29.120922088623046875 30.80892181396484375 30.2291259765625 31.49664306640625 32.716754913330078125 34.119808197021484375 34.102313995361328125 32.95318603515625 32.12445068359375 32.3623046875 34.5482177734375 37.26525115966796875 37.40779876708984375 36.03699493408203125 36.153003692626953125 38.108184814453125 40.374820709228515625 40.19305419921875 35.910144805908203125 27.244775772094726562 20.80937957763671875 20.227525711059570312 21.01377105712890625 17.889759063720703125 11.722059249877929688 13.894372940063476562 21.1473388671875 23.122137069702148438 9.2285480499267578125 12.849623680114746094 13.44126129150390625 6.6277050971984863281 12.758889198303222656 22.646615982055664062 29.129871368408203125 28.417184829711914062 23.449956893920898438 20.443941116333007812 21.24961090087890625 24.296403884887695312 25.740093231201171875 22.300924301147460938 16.425388336181640625 16.28205108642578125 20.493516921997070312 20.972415924072265625 17.37066650390625 13.300258636474609375 17.189294815063476562 30.448970794677734375 36.8714752197265625 32.028900146484375 25.847919464111328125 26.137599945068359375 27.551858901977539062 26.956439971923828125 25.887643814086914062 27.668729782104492188 28.874990463256835938 27.486398696899414062 26.265787124633789062 22.747041702270507812 20.896982192993164062 22.761072158813476562 25.073781967163085938 23.193756103515625 19.78824615478515625 17.93502044677734375 16.625513076782226562 15.401890754699707031 7.4942770004272460938 15.521832466125488281 24.299459457397460938 22.074655532836914062 17.548116683959960938 17.467844009399414062 19.343233108520507812 20.331241607666015625 16.369884490966796875 7.857463836669921875 23.179443359375 32.473049163818359375 33.74248504638671875 31.383289337158203125 21.616537094116210938 17.209844589233398438 27.332479476928710938 25.395671844482421875 25.474956512451171875 30.42447662353515625 30.533914566040039062 28.985853195190429688 26.817005157470703125 25.036710739135742188 23.5543365478515625 22.019033432006835938 20.437372207641601562 13.164583206176757812 9.4254961013793945312 13.15703582763671875 10.872753143310546875 12.028246879577636719 15.728224754333496094 20.917005538940429688 24.47917938232421875 22.176485061645507812 14.651523590087890625 6.1188540458679199219 3.6283156871795654297 5.8918328285217285156 13.6163482666015625 21.429040908813476562 26.900365829467773438 30.38121795654296875 30.405321121215820312 27.791959762573242188 24.452474594116210938 20.03124237060546875 16.336122512817382812 12.681063652038574219 6.763233184814453125 3.1409540176391601562 1.5016894340515136719 4.016399383544921875 9.5621547698974609375 12.847603797912597656 12.004022598266601562 9.638927459716796875 5.7003922462463378906 8.918148040771484375 15.873150825500488281 19.22403717041015625 19.957599639892578125 19.509111404418945312 18.840618133544921875 18.479913711547851562 17.794231414794921875 16.433406829833984375 16.699586868286132812 17.449764251708984375 16.937999725341796875 15.432895660400390625 14.046680450439453125 14.5234375 15.423483848571777344 15.819231033325195312 17.344274520874023438 20.794450759887695312 24.19547271728515625 -9999 
-9999 36.972568511962890625 38.34662628173828125 34.31180572509765625 31.327669143676757812 30.947721481323242188 31.46668243408203125 32.454189300537109375 34.530979156494140625 35.569042205810546875 34.91797637939453125 31.777935028076171875 27.93392181396484375 25.002660751342773438 19.621929168701171875 10.841213226318359375 6.0719866752624511719 9.100505828857421875 9.1450052261352539062 7.4013514518737792969 1.8792257308959960938 3.2397065162658691406 13.437655448913574219 20.455682754516601562 23.75698089599609375 26.54443359375 26.905590057373046875 26.416046142578125 28.683687210083007812 31.36183929443359375 33.87281036376953125 34.5613555908203125 33.38086700439453125 31.311578750610351562 30.9318695068359375 33.436248779296875 35.424190521240234375 34.28826141357421875 33.11003875732421875 34.429332733154296875 37.91239166259765625 41.164699554443359375 42.520961761474609375 39.477245330810546875 30.106388092041015625 22.540601730346679688 21.470981597900390625 21.045358657836914062 16.91040802001953125 10.642049789428710938 12.018061637878417969 18.493206024169921875 22.0711822509765625 15.571537971496582031 6.1132335662841796875 15.222307205200195312 8.5228033065795898438 8.04746246337890625 15.460498809814453125 23.456315994262695312 24.630838394165039062 22.471246719360351562 21.25534820556640625 18.77529144287109375 20.408374786376953125 23.68630218505859375 25.76213836669921875 24.585809707641601562 19.95648193359375 20.511486053466796875 21.246562957763671875 18.913755416870117188 16.341073989868164062 17.487274169921875 27.627733230590820312 35.8371734619140625 33.74611663818359375 27.791349411010742188 26.589513778686523438 28.740118026733398438 28.299955368041992188 26.01428985595703125 28.998600006103515625 31.792642593383789062 30.917425155639648438 27.924737930297851562 21.783422470092773438 19.609910964965820312 21.987049102783203125 26.09564208984375 25.093297958374023438 16.131692886352539062 11.678808212280273438 11.056884765625 11.587210655212402344 11.854969024658203125 5.4327688217163085938 10.525321006774902344 14.110231399536132812 10.005399703979492188 9.1248912811279296875 13.0330352783203125 15.171936988830566406 10.556348800659179688 9.0228099822998046875 21.164073944091796875 30.017190933227539062 31.70314788818359375 29.659349441528320312 21.421991348266601562 15.800916671752929688 26.250909805297851562 24.67529296875 20.580030441284179688 28.381687164306640625 30.523946762084960938 29.9053192138671875 29.453248977661132812 28.286417007446289062 26.1477813720703125 24.775806427001953125 25.333538055419921875 23.01357269287109375 12.158577919006347656 7.2321400642395019531 9.3966197967529296875 10.63393402099609375 14.748582839965820312 21.689287185668945312 26.09527587890625 25.303083419799804688 19.292278289794921875 9.3705844879150390625 5.9680190086364746094 5.6404790878295898438 8.293701171875 14.098280906677246094 19.1389923095703125 24.529056549072265625 28.147817611694335938 28.77698516845703125 27.672449111938476562 25.521291732788085938 23.177158355712890625 19.235486984252929688 12.268270492553710938 6.5595574378967285156 3.7092430591583251953 5.5001926422119140625 10.666537284851074219 13.891948699951171875 13.056224822998046875 9.5918245315551757812 5.1173624992370605469 16.469541549682617188 22.462682723999023438 20.441701889038085938 17.197515487670898438 16.210750579833984375 16.312974929809570312 15.795636177062988281 14.29383087158203125 13.298151016235351562 14.760686874389648438 16.519535064697265625 16.292428970336914062 14.061441421508789062 12.756329536437988281 14.249329566955566406 15.628351211547851562 16.472124099731445312 17.969430923461914062 20.992921829223632812 23.38520050048828125 -9999 
-9999 35.565883636474609375 37.631500244140625 33.47447967529296875 31.418653488159179688 31.230693817138671875 30.949140548706054688 32.059574127197265625 33.739109039306640625 35.72594451904296875 37.6412811279296875 36.63543701171875 33.380146026611328125 29.451959609985351562 27.711107254028320312 22.253116607666015625 7.4731040000915527344 3.6471469402313232422 9.7529077529907226562 11.3302764892578125 7.1498484611511230469 7.6105375289916992188 15.872395515441894531 23.000629425048828125 25.902698516845703125 26.094024658203125 24.784168243408203125 24.165119171142578125 26.419277191162109375 30.362884521484375 33.385639190673828125 33.61957550048828125 33.062938690185546875 31.455301284790039062 30.555555343627929688 32.06177520751953125 32.48265838623046875 30.501953125 29.479808807373046875 31.541063308715820312 35.86711883544921875 40.553516387939453125 44.306339263916015625 44.030757904052734375 35.50293731689453125 24.686464309692382812 21.269266128540039062 20.792394638061523438 17.906637191772460938 11.623534202575683594 10.778489112854003906 15.924908638000488281 20.973890304565429688 21.018434524536132812 4.9435458183288574219 12.656994819641113281 13.914465904235839844 10.752714157104492188 12.201368331909179688 17.136171340942382812 19.89752197265625 21.360773086547851562 22.714443206787109375 19.396467208862304688 17.986347198486328125 20.814840316772460938 26.770172119140625 28.836236953735351562 23.059185028076171875 21.270112991333007812 22.120637893676757812 20.977390289306640625 20.159488677978515625 20.1313934326171875 26.33367156982421875 34.83107757568359375 35.3337554931640625 29.34000396728515625 25.452571868896484375 27.987741470336914062 29.418973922729492188 26.981424331665039062 29.88996124267578125 33.9121246337890625 32.76900482177734375 29.682287216186523438 23.8857421875 20.059833526611328125 21.149967193603515625 23.633840560913085938 25.17882537841796875 19.676530838012695312 11.656912803649902344 8.9819087982177734375 10.248858451843261719 11.012618064880371094 5.1483097076416015625 5.9496450424194335938 11.64684295654296875 8.8694362640380859375 9.3519983291625976562 12.152977943420410156 12.008785247802734375 8.7974090576171875 12.931975364685058594 19.802722930908203125 25.921007156372070312 28.583681106567382812 26.980093002319335938 19.522747039794921875 13.338358879089355469 24.515069961547851562 26.66304779052734375 19.974306106567382812 27.136018753051757812 32.453319549560546875 32.55542755126953125 31.514719009399414062 30.046888351440429688 27.606424331665039062 25.68025970458984375 25.62876129150390625 25.727895736694335938 20.669870376586914062 8.1078195571899414062 4.0359053611755371094 9.0185699462890625 13.23833465576171875 20.842517852783203125 26.945587158203125 27.987173080444335938 24.043146133422851562 13.743659019470214844 6.8684277534484863281 6.6685547828674316406 7.0311059951782226562 9.1088190078735351562 10.395125389099121094 15.189688682556152344 20.278795242309570312 23.390399932861328125 24.86220550537109375 25.312982559204101562 25.686351776123046875 24.07393646240234375 18.037588119506835938 10.597683906555175781 6.6465401649475097656 7.5844783782958984375 11.661046028137207031 14.811771392822265625 15.510686874389648438 11.269048690795898438 7.1645436286926269531 21.960874557495117188 25.638650894165039062 18.536100387573242188 11.181818008422851562 8.9096221923828125 10.378245353698730469 10.924248695373535156 9.8854007720947265625 10.687666893005371094 13.842473030090332031 16.029409408569335938 15.630862236022949219 13.411005973815917969 12.569680213928222656 14.457482337951660156 16.032823562622070312 16.96010589599609375 18.569366455078125 21.922515869140625 24.062871932983398438 -9999 
-9999 31.793649673461914062 34.263660430908203125 32.37598419189453125 31.60772705078125 31.335653305053710938 31.156620025634765625 33.725677490234375 35.0916595458984375 36.586345672607421875 39.33417510986328125 39.56795501708984375 34.857624053955078125 28.602346420288085938 30.551343917846679688 26.906890869140625 11.084328651428222656 5.7669687271118164062 14.360047340393066406 17.37984466552734375 12.547642707824707031 11.474856376647949219 17.4574127197265625 23.712362289428710938 26.120889663696289062 25.286678314208984375 23.666303634643554688 22.975139617919921875 23.926540374755859375 28.47537994384765625 32.05925750732421875 32.148876190185546875 32.07064056396484375 31.63233184814453125 31.286821365356445312 31.672849655151367188 31.136470794677734375 29.470966339111328125 28.398054122924804688 28.775981903076171875 31.846330642700195312 37.6786651611328125 43.4967803955078125 46.53443145751953125 41.864337921142578125 30.685756683349609375 23.593532562255859375 22.08695220947265625 21.345212936401367188 14.965439796447753906 9.5219821929931640625 11.941571235656738281 18.474588394165039062 23.924966812133789062 17.583644866943359375 2.9959750175476074219 14.583937644958496094 16.539487838745117188 15.068620681762695312 15.325616836547851562 18.045846939086914062 20.96129608154296875 23.37746429443359375 21.407598495483398438 18.259220123291015625 19.410984039306640625 26.025396347045898438 29.288616180419921875 24.696985244750976562 22.44451904296875 22.858533859252929688 21.880067825317382812 22.318216323852539062 22.990964889526367188 26.773143768310546875 34.5790557861328125 36.780918121337890625 30.215747833251953125 23.186304092407226562 25.2517852783203125 30.02204132080078125 29.6871185302734375 30.88140106201171875 34.694683074951171875 33.247768402099609375 31.025165557861328125 27.9658050537109375 22.658349990844726562 20.959386825561523438 20.4170989990234375 21.225736618041992188 21.292394638061523438 17.439989089965820312 13.554294586181640625 11.987764358520507812 9.7843961715698242188 3.9084353446960449219 4.0590538978576660156 9.552581787109375 12.605654716491699219 14.768199920654296875 16.069793701171875 13.704127311706542969 12.444927215576171875 17.1035003662109375 20.583648681640625 23.318691253662109375 25.935543060302734375 24.683841705322265625 16.848684310913085938 11.396694183349609375 23.6717987060546875 29.168928146362304688 23.935703277587890625 26.286893844604492188 33.86885833740234375 34.5960540771484375 31.755237579345703125 29.325994491577148438 26.57755279541015625 24.620441436767578125 24.127765655517578125 24.37747955322265625 24.359914779663085938 18.618221282958984375 6.391918182373046875 4.0967288017272949219 10.559061050415039062 18.709035873413085938 26.500471115112304688 29.876131057739257812 28.2269287109375 19.181505203247070312 9.8328657150268554688 10.313305854797363281 10.6116485595703125 9.5855169296264648438 7.2308068275451660156 9.388397216796875 13.245364189147949219 16.133752822875976562 18.500364303588867188 20.0657958984375 22.170499801635742188 23.02303314208984375 19.586412429809570312 13.449503898620605469 9.5812244415283203125 9.8667860031127929688 12.898264884948730469 15.870949745178222656 17.699960708618164062 12.979632377624511719 5.9015927314758300781 23.29521942138671875 28.812786102294921875 20.715642929077148438 11.406854629516601562 8.7057514190673828125 9.9510364532470703125 9.4630002975463867188 7.1626801490783691406 9.6208677291870117188 14.19853973388671875 15.491443634033203125 14.63201904296875 13.621435165405273438 13.336918830871582031 14.49444580078125 15.949639320373535156 17.127996444702148438 18.910276412963867188 22.243238449096679688 23.74709320068359375 -9999 
-9999 31.300687789916992188 30.05669403076171875 30.474544525146484375 31.509868621826171875 31.66481781005859375 32.586582183837890625 35.309967041015625 36.7544403076171875 37.664585113525390625 39.043178558349609375 39.282566070556640625 38.4169464111328125 34.08583831787109375 30.816137313842773438 24.428167343139648438 12.019132614135742188 16.4777984619140625 24.883975982666015625 25.974077224731445312 21.576776504516601562 19.373960494995117188 18.723461151123046875 23.634424209594726562 25.85575103759765625 25.5310211181640625 24.798702239990234375 23.184820175170898438 21.857511520385742188 25.0611114501953125 28.66638946533203125 30.400110244750976562 31.654199600219726562 31.947845458984375 32.174396514892578125 32.536724090576171875 32.015186309814453125 30.558084487915039062 28.709850311279296875 27.207391738891601562 28.509744644165039062 33.659637451171875 40.413818359375 45.38739776611328125 44.16095733642578125 36.22412872314453125 26.973356246948242188 22.71881866455078125 23.502162933349609375 18.657535552978515625 10.311360359191894531 7.3523364067077636719 10.572950363159179688 21.189754486083984375 26.50063323974609375 17.59932708740234375 1.9720722436904907227 14.379067420959472656 18.157415390014648438 18.257410049438476562 20.286478042602539062 22.759052276611328125 24.257371902465820312 23.128587722778320312 20.16722869873046875 19.864549636840820312 24.476230621337890625 26.912761688232421875 23.865392684936523438 22.47261810302734375 22.424627304077148438 21.371295928955078125 22.904865264892578125 25.60356903076171875 28.760835647583007812 35.41527557373046875 38.075511932373046875 30.6757659912109375 21.205556869506835938 21.081653594970703125 28.363864898681640625 32.597606658935546875 32.9146881103515625 34.377288818359375 32.780017852783203125 31.554140090942382812 31.748624801635742188 26.566675186157226562 20.74234771728515625 17.90655517578125 16.871049880981445312 18.64154815673828125 19.827913284301757812 18.010013580322265625 15.093823432922363281 11.44364166259765625 6.1393675804138183594 7.9698801040649414062 15.101408004760742188 21.32708740234375 23.652927398681640625 21.621471405029296875 16.64705657958984375 16.397882461547851562 20.509979248046875 23.100536346435546875 23.322261810302734375 24.41353607177734375 23.1235198974609375 15.048514366149902344 11.828847885131835938 24.631216049194335938 30.587427139282226562 28.160764694213867188 25.013856887817382812 30.997671127319335938 34.1893157958984375 32.176837921142578125 28.676973342895507812 24.252149581909179688 21.767347335815429688 21.945781707763671875 22.793752670288085938 25.188579559326171875 24.529466629028320312 15.593690872192382812 3.0413155555725097656 7.4589910507202148438 15.926046371459960938 24.28395843505859375 29.94783782958984375 31.2109832763671875 25.62994384765625 15.954720497131347656 12.04926300048828125 13.540868759155273438 11.693938255310058594 9.0401124954223632812 7.9083008766174316406 9.462158203125 11.95517730712890625 14.290813446044921875 15.587134361267089844 18.153240203857421875 20.300539016723632812 18.474657058715820312 14.804055213928222656 12.510522842407226562 12.571251869201660156 14.730357170104980469 17.481698989868164062 18.998311996459960938 13.948954582214355469 1.0398831367492675781 19.138006210327148438 28.26712799072265625 23.611400604248046875 15.794852256774902344 13.441586494445800781 13.872894287109375 12.96367645263671875 10.280666351318359375 11.723299980163574219 16.083909988403320312 16.257663726806640625 14.950436592102050781 14.394829750061035156 13.909059524536132812 14.209141731262207031 15.627351760864257812 17.412034988403320312 19.308084487915039062 21.958040237426757812 22.078311920166015625 -9999 
-9999 33.02414703369140625 28.889186859130859375 29.558990478515625 32.395839691162109375 34.013065338134765625 35.43120574951171875 35.747837066650390625 36.07599639892578125 36.146091461181640625 35.703083038330078125 37.8638916015625 44.459117889404296875 40.7385406494140625 28.221033096313476562 17.978399276733398438 19.227809906005859375 29.068523406982421875 34.61322784423828125 35.61954498291015625 34.283161163330078125 32.020843505859375 24.082958221435546875 24.009622573852539062 26.056226730346679688 26.736791610717773438 26.214752197265625 23.180433273315429688 19.668153762817382812 20.009128570556640625 23.09741973876953125 27.538667678833007812 31.177215576171875 32.222324371337890625 32.2113037109375 32.66778564453125 32.81624603271484375 31.731014251708984375 30.292415618896484375 28.409204483032226562 27.981420516967773438 30.861646652221679688 36.933353424072265625 42.0192413330078125 42.478481292724609375 38.597400665283203125 30.8602752685546875 24.278690338134765625 24.300296783447265625 22.245992660522460938 15.135888099670410156 7.625514984130859375 3.2364420890808105469 14.578955650329589844 28.039731979370117188 29.411207199096679688 16.955968856811523438 3.0079028606414794922 13.866421699523925781 17.074869155883789062 19.20684051513671875 21.7232818603515625 23.098722457885742188 22.407106399536132812 22.102170944213867188 22.440790176391601562 23.152223587036132812 24.189731597900390625 22.78128814697265625 21.781831741333007812 21.238544464111328125 19.757236480712890625 21.79474639892578125 26.812410354614257812 30.3361053466796875 35.707660675048828125 38.129528045654296875 31.207630157470703125 21.38824462890625 18.252515792846679688 24.977663040161132812 33.169647216796875 34.54482269287109375 34.162811279296875 32.828411102294921875 31.597948074340820312 33.773960113525390625 30.881534576416015625 21.821399688720703125 15.97441864013671875 14.660254478454589844 15.831736564636230469 17.766908645629882812 17.728666305541992188 17.580699920654296875 16.731044769287109375 12.647963523864746094 12.021718025207519531 17.462697982788085938 23.400182723999023438 26.030668258666992188 22.833507537841796875 18.140186309814453125 17.801052093505859375 22.0550384521484375 26.140001296997070312 25.648799896240234375 24.079416275024414062 21.396648406982421875 13.719614028930664062 14.905057907104492188 26.278066635131835938 30.380147933959960938 29.017339706420898438 22.433626174926757812 20.657091140747070312 29.442335128784179688 31.601652145385742188 28.412599563598632812 22.85832977294921875 19.162607192993164062 18.513532638549804688 19.702556610107421875 24.517253875732421875 27.867364883422851562 22.240179061889648438 9.0442285537719726562 4.2281589508056640625 12.859457015991210938 20.691083908081054688 27.928981781005859375 32.124271392822265625 30.3928375244140625 24.379926681518554688 14.867334365844726562 12.781103134155273438 14.740064620971679688 12.96184539794921875 9.0432977676391601562 5.8611207008361816406 9.0643310546875 12.36358642578125 14.097620010375976562 17.130901336669921875 19.215509414672851562 17.76068878173828125 15.846730232238769531 14.817370414733886719 14.972700119018554688 16.665205001831054688 19.372043609619140625 20.365839004516601562 14.997649192810058594 2.6444938182830810547 13.783111572265625 23.544004440307617188 22.072399139404296875 16.973237991333007812 15.649684906005859375 15.954085350036621094 14.400926589965820312 11.672627449035644531 13.796245574951171875 18.2869415283203125 18.417257308959960938 17.2534942626953125 16.290449142456054688 15.663746833801269531 15.813907623291015625 16.854589462280273438 18.641748428344726562 19.848611831665039062 21.313205718994140625 20.54245758056640625 -9999 
-9999 37.569232940673828125 33.68454742431640625 32.233081817626953125 35.332363128662109375 38.526927947998046875 38.05181884765625 35.22423553466796875 33.19847869873046875 30.962362289428710938 33.515659332275390625 42.5757904052734375 46.034759521484375 38.6907806396484375 27.645093917846679688 25.342388153076171875 31.367799758911132812 35.956752777099609375 37.854175567626953125 40.3838958740234375 41.320812225341796875 41.92724609375 35.0160064697265625 28.686908721923828125 27.093019485473632812 27.134687423706054688 26.364986419677734375 23.395313262939453125 18.974760055541992188 16.455602645874023438 17.280605316162109375 23.076747894287109375 29.44881439208984375 31.30474090576171875 30.919002532958984375 31.247880935668945312 31.690450668334960938 30.832735061645507812 30.581935882568359375 30.026159286499023438 29.228776931762695312 30.5487060546875 34.27310943603515625 38.00130462646484375 40.097381591796875 39.710041046142578125 34.841854095458984375 27.672323226928710938 25.782344818115234375 25.73783111572265625 20.655803680419921875 9.7581338882446289062 6.9686870574951171875 12.085789680480957031 23.122724533081054688 32.885601043701171875 27.770795822143554688 11.399222373962402344 3.8714249134063720703 9.1314563751220703125 12.726709365844726562 17.418682098388671875 19.68743896484375 19.2299957275390625 22.326946258544921875 23.99842071533203125 20.7346954345703125 20.257701873779296875 20.302568435668945312 19.417844772338867188 19.005380630493164062 17.776136398315429688 20.23613739013671875 28.504182815551757812 32.439373016357421875 34.7607421875 35.687847137451171875 30.423177719116210938 22.460178375244140625 17.5635528564453125 22.8689727783203125 32.126247406005859375 33.978267669677734375 33.814235687255859375 34.078090667724609375 32.26195526123046875 34.431324005126953125 35.209270477294921875 26.038347244262695312 15.554012298583984375 13.934794425964355469 15.895036697387695312 15.887348175048828125 13.791166305541992188 15.65030670166015625 20.544275283813476562 19.409320831298828125 13.468453407287597656 15.206730842590332031 17.985219955444335938 15.541325569152832031 17.094532012939453125 18.650373458862304688 17.731624603271484375 21.272195816040039062 27.114637374877929688 28.177694320678710938 24.842771530151367188 19.356824874877929688 11.280083656311035156 17.988893508911132812 26.636913299560546875 28.236772537231445312 26.346086502075195312 20.681640625 10.224340438842773438 22.3441162109375 29.977130889892578125 28.093601226806640625 22.254552841186523438 17.294366836547851562 14.82180023193359375 17.181301116943359375 23.73211669921875 30.211168289184570312 27.486429214477539062 15.530596733093261719 3.2409665584564208984 9.5036268234252929688 16.655569076538085938 24.425657272338867188 31.104612350463867188 32.19902801513671875 29.821588516235351562 24.7063140869140625 14.91064453125 14.875579833984375 16.747844696044921875 13.679543495178222656 8.3494205474853515625 7.6389069557189941406 9.113033294677734375 10.411474227905273438 14.928105354309082031 17.372510910034179688 16.634029388427734375 16.493349075317382812 16.708383560180664062 16.991924285888671875 18.0250244140625 20.787557601928710938 22.444025039672851562 17.05339813232421875 5.48917388916015625 8.9581890106201171875 18.381069183349609375 18.874227523803710938 15.721448898315429688 15.839053153991699219 17.17285919189453125 16.64733123779296875 15.9083099365234375 19.610382080078125 23.506113052368164062 23.43206787109375 22.309276580810546875 21.504343032836914062 21.71607208251953125 22.496683120727539062 22.93820953369140625 22.979375839233398438 22.2427825927734375 21.671337127685546875 19.862710952758789062 -9999 
-9999 42.169742584228515625 37.927402496337890625 31.914194107055664062 34.60143280029296875 38.585330963134765625 36.55731964111328125 32.3681488037109375 30.047088623046875 30.66872406005859375 41.70142364501953125 46.203685760498046875 38.67081451416015625 35.039581298828125 34.92023468017578125 32.148799896240234375 35.567535400390625 37.91472625732421875 38.4294281005859375 41.834781646728515625 40.3860931396484375 42.893993377685546875 40.81046295166015625 35.5679779052734375 29.69431304931640625 26.823284149169921875 27.129566192626953125 25.318761825561523438 20.855646133422851562 18.103071212768554688 16.338331222534179688 18.634412765502929688 26.865140914916992188 30.287271499633789062 29.547800064086914062 29.373033523559570312 29.530719757080078125 29.156238555908203125 30.042352676391601562 31.305395126342773438 31.487730026245117188 31.72330474853515625 32.2043304443359375 34.8125152587890625 38.84940338134765625 40.03456878662109375 36.3416595458984375 29.019262313842773438 25.782152175903320312 27.415531158447265625 23.507917404174804688 10.458995819091796875 10.047430038452148438 16.645109176635742188 16.12226104736328125 32.83382415771484375 34.446563720703125 24.735263824462890625 12.179594039916992188 3.5228986740112304688 4.5624604225158691406 13.055017471313476562 18.122735977172851562 18.931608200073242188 23.384738922119140625 25.031955718994140625 19.645355224609375 16.608722686767578125 16.805303573608398438 16.6948394775390625 17.370397567749023438 16.2563629150390625 19.342927932739257812 30.52820587158203125 34.637592315673828125 34.10904693603515625 32.085414886474609375 27.717821121215820312 23.028322219848632812 17.371473312377929688 21.438055038452148438 30.381246566772460938 31.889614105224609375 32.5684356689453125 34.74962615966796875 33.035785675048828125 34.44643402099609375 38.048480987548828125 31.131589889526367188 17.926706314086914062 13.869412422180175781 16.125352859497070312 16.811403274536132812 14.059269905090332031 13.660778045654296875 19.452413558959960938 22.146923065185546875 17.63819122314453125 16.546743392944335938 18.3623046875 11.415791511535644531 11.324886322021484375 18.843784332275390625 18.597263336181640625 20.981655120849609375 26.656431198120117188 28.934217453002929688 25.677114486694335938 18.020292282104492188 7.9821062088012695312 17.754711151123046875 23.917051315307617188 24.67339324951171875 23.572275161743164062 20.462625503540039062 9.5681552886962890625 18.806074142456054688 30.070125579833984375 27.773303985595703125 22.120172500610351562 16.834722518920898438 14.385488510131835938 19.292573928833007812 25.187946319580078125 31.867221832275390625 30.737224578857421875 21.108917236328125 8.9215145111083984375 5.7437796592712402344 12.300565719604492188 19.924890518188476562 27.859529495239257812 31.380338668823242188 31.100694656372070312 30.999149322509765625 25.831323623657226562 13.381029129028320312 13.337733268737792969 16.537105560302734375 13.531219482421875 12.853398323059082031 12.409681320190429688 8.5660657882690429688 9.6294841766357421875 12.793787002563476562 13.173562049865722656 14.952610969543457031 17.098630905151367188 18.121137619018554688 18.651950836181640625 21.330524444580078125 24.170465469360351562 20.069126129150390625 9.7812366485595703125 4.6993498802185058594 13.346091270446777344 14.843058586120605469 11.786280632019042969 13.159570693969726562 16.796352386474609375 19.883068084716796875 21.666723251342773438 23.144605636596679688 23.794965744018554688 21.014459609985351562 17.27044677734375 15.188213348388671875 15.912065505981445312 17.181921005249023438 16.949254989624023438 16.612920761108398438 17.020792007446289062 17.71767425537109375 16.662641525268554688 -9999 
-9999 42.8679656982421875 40.742496490478515625 33.549037933349609375 35.80249786376953125 36.46002197265625 35.093906402587890625 29.345827102661132812 26.243656158447265625 36.043315887451171875 46.734630584716796875 42.435791015625 31.1658935546875 36.861492156982421875 37.986942291259765625 31.771930694580078125 34.039585113525390625 36.630283355712890625 37.37485504150390625 41.021331787109375 36.484775543212890625 38.653594970703125 40.0042877197265625 37.340053558349609375 31.878156661987304688 27.610240936279296875 28.813037872314453125 27.315862655639648438 22.812709808349609375 20.788705825805664062 22.111371994018554688 21.2281646728515625 21.3277435302734375 27.692422866821289062 28.633829116821289062 27.369955062866210938 26.859712600708007812 28.661920547485351562 30.98685455322265625 32.619720458984375 33.728118896484375 34.047271728515625 32.3219757080078125 33.337856292724609375 37.9580841064453125 40.0484619140625 36.93603515625 29.942476272583007812 26.83709716796875 28.624948501586914062 23.560436248779296875 8.6230878829956054688 11.353853225708007812 19.564775466918945312 8.9487819671630859375 26.595180511474609375 33.9427032470703125 33.0215301513671875 28.011514663696289062 19.481746673583984375 8.1855516433715820312 5.5618753433227539062 16.34308624267578125 21.050870895385742188 25.147068023681640625 26.936986923217773438 21.530881881713867188 15.569683074951171875 14.387438774108886719 16.221729278564453125 18.74153900146484375 17.48734283447265625 20.275979995727539062 30.361047744750976562 34.487583160400390625 34.051715850830078125 29.881069183349609375 24.930217742919921875 23.641691207885742188 18.274379730224609375 19.739980697631835938 28.13318634033203125 29.484035491943359375 30.585237503051757812 33.6484222412109375 32.42380523681640625 33.90271759033203125 38.6458892822265625 33.420536041259765625 21.3789825439453125 16.748662948608398438 17.21143341064453125 19.809129714965820312 20.143064498901367188 17.057231903076171875 17.53551483154296875 20.469928741455078125 20.264862060546875 19.283283233642578125 21.04172515869140625 16.519794464111328125 7.9966845512390136719 18.862646102905273438 21.087194442749023438 22.12109375 26.298189163208007812 28.509204864501953125 25.828596115112304688 17.568876266479492188 6.0802111625671386719 16.5603485107421875 21.608392715454101562 22.905778884887695312 23.031070709228515625 20.746593475341796875 8.9729051589965820312 18.993856430053710938 30.329656600952148438 25.224029541015625 21.09293365478515625 19.656370162963867188 20.5530548095703125 21.727153778076171875 26.431056976318359375 32.499393463134765625 31.806072235107421875 23.917104721069335938 12.919573783874511719 4.3183317184448242188 8.4165744781494140625 16.005929946899414062 23.720293045043945312 28.748193740844726562 29.803165435791015625 31.918514251708984375 32.510112762451171875 23.958278656005859375 8.5600976943969726562 14.020131111145019531 15.71435546875 14.752432823181152344 13.9122772216796875 11.300353050231933594 7.9112620353698730469 7.1536846160888671875 8.0699567794799804688 11.187806129455566406 15.212860107421875 17.66455078125 18.213014602661132812 20.6403045654296875 24.186670303344726562 22.2404632568359375 13.967329025268554688 6.0281000137329101562 11.428884506225585938 14.318686485290527344 12.232381820678710938 13.755923271179199219 18.478260040283203125 23.04555511474609375 23.113544464111328125 20.14403533935546875 19.79058074951171875 19.334682464599609375 18.649524688720703125 19.48874664306640625 21.520763397216796875 22.932826995849609375 22.07501220703125 20.278881072998046875 19.575893402099609375 19.358968734741210938 17.30829620361328125 -9999 
-9999 42.254947662353515625 42.0140380859375 37.892154693603515625 38.10187530517578125 34.586963653564453125 34.614315032958984375 28.052471160888671875 31.604932785034179688 40.610034942626953125 41.301334381103515625 34.442371368408203125 33.564968109130859375 34.840885162353515625 35.01483154296875 30.76873016357421875 34.0119781494140625 36.493465423583984375 36.464809417724609375 40.103565216064453125 36.577754974365234375 37.09529876708984375 39.055568695068359375 36.4809722900390625 33.15111541748046875 30.491399765014648438 31.086645126342773438 29.5631256103515625 25.7092437744140625 23.943284988403320312 29.411218643188476562 30.680112838745117188 24.760089874267578125 24.949377059936523438 27.235315322875976562 22.51688385009765625 20.347415924072265625 26.607027053833007812 31.749898910522460938 33.157009124755859375 33.772884368896484375 34.352733612060546875 32.824069976806640625 34.073795318603515625 38.96358489990234375 41.660167694091796875 38.70671844482421875 30.93265533447265625 27.490230560302734375 29.1611785888671875 22.696107864379882812 6.70250701904296875 12.127352714538574219 20.779230117797851562 8.2125062942504882812 18.203413009643554688 27.698938369750976562 31.898944854736328125 32.723541259765625 29.901639938354492188 21.74936676025390625 7.3331842422485351562 10.782018661499023438 21.79993438720703125 26.56902313232421875 28.570278167724609375 23.16229248046875 15.964940071105957031 14.774794578552246094 17.792013168334960938 20.954366683959960938 19.760944366455078125 20.601318359375 27.386861801147460938 32.700927734375 34.9028472900390625 30.668384552001953125 23.942075729370117188 23.885602951049804688 20.037405014038085938 18.672338485717773438 26.0372772216796875 27.9951019287109375 29.190660476684570312 32.357421875 31.440401077270507812 32.93321990966796875 37.570644378662109375 32.1161346435546875 21.971170425415039062 21.414674758911132812 22.1134033203125 23.981447219848632812 26.651798248291015625 24.76105499267578125 20.529598236083984375 19.092771530151367188 19.559907913208007812 20.712503433227539062 23.7484130859375 20.677072525024414062 6.9847316741943359375 17.620759963989257812 24.222469329833984375 24.523538589477539062 26.289455413818359375 27.765184402465820312 25.387811660766601562 17.431215286254882812 7.3594646453857421875 15.875116348266601562 21.111330032348632812 23.183900833129882812 23.170166015625 19.976648330688476562 5.7986960411071777344 20.37005615234375 28.929203033447265625 20.660243988037109375 18.807586669921875 23.382863998413085938 24.805994033813476562 21.304441452026367188 26.620389938354492188 32.0882110595703125 32.295810699462890625 25.849218368530273438 15.832076072692871094 5.5364274978637695312 5.1452226638793945312 12.663686752319335938 20.5249786376953125 25.997800827026367188 27.197078704833984375 29.897022247314453125 33.640193939208984375 31.370622634887695312 19.965581893920898438 9.0701742172241210938 15.246346473693847656 13.337811470031738281 10.599900245666503906 9.1197671890258789062 8.0797472000122070312 5.5091505050659179688 3.5334389209747314453 7.0192961692810058594 12.383333206176757812 16.258535385131835938 17.2030029296875 19.32595062255859375 22.891498565673828125 22.66754150390625 16.642183303833007812 8.4913578033447265625 14.080040931701660156 19.25708770751953125 17.932584762573242188 16.125057220458984375 18.019123077392578125 21.638195037841796875 19.724050521850585938 16.092870712280273438 16.892810821533203125 17.216871261596679688 16.19821929931640625 16.459783554077148438 17.969957351684570312 19.924442291259765625 21.356273651123046875 20.944553375244140625 20.234710693359375 20.565584182739257812 19.15863800048828125 -9999 
-9999 42.24871063232421875 42.041606903076171875 39.6644134521484375 35.266620635986328125 29.717800140380859375 34.294353485107421875 37.2255706787109375 40.3498992919921875 36.00958251953125 26.153387069702148438 32.112094879150390625 34.76335906982421875 33.669403076171875 30.716630935668945312 31.011646270751953125 34.4997100830078125 37.050548553466796875 36.83223724365234375 40.99126434326171875 38.870685577392578125 36.71332550048828125 38.050579071044921875 35.991382598876953125 34.327335357666015625 33.52495574951171875 33.285430908203125 31.939115524291992188 29.326129913330078125 28.669193267822265625 35.56324005126953125 34.9677581787109375 33.132343292236328125 32.68495941162109375 32.949390411376953125 21.539031982421875 9.4001903533935546875 17.93939971923828125 28.837459564208984375 32.366405487060546875 32.947055816650390625 33.53838348388671875 33.29041290283203125 35.671192169189453125 40.619739532470703125 43.00131988525390625 40.3584136962890625 33.036212921142578125 28.30086517333984375 29.529031753540039062 22.669610977172851562 6.3591241836547851562 12.702852249145507812 21.8179931640625 11.765874862670898438 12.974616050720214844 22.5299530029296875 27.26599884033203125 29.308643341064453125 29.168138504028320312 26.793607711791992188 17.493906021118164062 3.2451510429382324219 19.891689300537109375 26.19087982177734375 28.321527481079101562 26.5616912841796875 22.481920242309570312 19.9818572998046875 21.284082412719726562 22.768808364868164062 21.410060882568359375 21.377000808715820312 24.693601608276367188 30.059755325317382812 35.219593048095703125 32.992443084716796875 25.12345123291015625 23.656057357788085938 21.048574447631835938 18.41718292236328125 24.330057144165039062 27.877443313598632812 29.327220916748046875 32.395111083984375 31.882635116577148438 31.86289215087890625 34.892364501953125 29.36048126220703125 23.153631210327148438 25.839786529541015625 27.595516204833984375 27.844760894775390625 29.995494842529296875 30.400211334228515625 26.212446212768554688 20.9937744140625 18.875003814697265625 20.9716949462890625 23.871124267578125 21.454000473022460938 8.799579620361328125 12.039693832397460938 24.757226943969726562 27.273731231689453125 26.895982742309570312 26.5416717529296875 24.255132675170898438 17.414957046508789062 10.501721382141113281 15.666475296020507812 21.310995101928710938 24.234910964965820312 23.1006927490234375 18.896862030029296875 3.9048967361450195312 21.535839080810546875 26.12639617919921875 14.997336387634277344 14.510201454162597656 21.4228515625 20.942129135131835938 20.74114227294921875 26.062053680419921875 30.758968353271484375 32.766979217529296875 28.714813232421875 20.101779937744140625 9.0255918502807617188 2.2359464168548583984 9.5460691452026367188 18.241962432861328125 24.037885665893554688 24.917003631591796875 26.935838699340820312 32.395587921142578125 34.488544464111328125 29.538309097290039062 13.677832603454589844 11.27234649658203125 11.822431564331054688 8.5619688034057617188 7.2030391693115234375 6.9954195022583007812 5.8169398307800292969 2.9465701580047607422 2.7827708721160888672 9.4276218414306640625 14.527833938598632812 16.129917144775390625 18.2296295166015625 21.651042938232421875 22.578302383422851562 18.359972000122070312 9.3375072479248046875 17.26491546630859375 23.50632476806640625 20.649686813354492188 16.818696975708007812 15.897101402282714844 17.788787841796875 15.700653076171875 13.415553092956542969 14.091726303100585938 13.642769813537597656 12.696775436401367188 13.773354530334472656 14.426318168640136719 15.328174591064453125 18.785795211791992188 21.192926406860351562 21.473361968994140625 21.319408416748046875 19.957490921020507812 -9999 
-9999 40.346157073974609375 40.9253997802734375 37.78623199462890625 31.045955657958984375 32.386127471923828125 41.538768768310546875 41.988758087158203125 36.17665863037109375 28.368196487426757812 30.8157958984375 32.664073944091796875 32.250701904296875 31.73682403564453125 28.899332046508789062 31.666385650634765625 29.888256072998046875 32.563751220703125 34.264301300048828125 40.315586090087890625 39.85750579833984375 37.406337738037109375 38.474094390869140625 35.918468475341796875 34.52936553955078125 34.77043914794921875 34.510868072509765625 33.319305419921875 31.893598556518554688 32.804779052734375 39.68536376953125 37.871128082275390625 39.205989837646484375 42.6828765869140625 41.12945556640625 31.3431549072265625 20.268590927124023438 13.368580818176269531 23.621774673461914062 27.971570968627929688 30.748796463012695312 33.931995391845703125 33.85829925537109375 35.7108154296875 40.8926849365234375 43.617671966552734375 42.561023712158203125 38.0139923095703125 32.107547760009765625 30.149332046508789062 22.198268890380859375 6.3587231636047363281 11.707360267639160156 21.13271331787109375 15.519167900085449219 6.713443756103515625 11.123441696166992188 21.675359725952148438 24.094503402709960938 23.757320404052734375 26.491346359252929688 22.997348785400390625 4.3533186912536621094 15.686346054077148438 23.308933258056640625 25.173480987548828125 25.675073623657226562 23.278829574584960938 21.170627593994140625 22.895191192626953125 23.166028976440429688 21.145984649658203125 21.766447067260742188 22.956462860107421875 26.047418594360351562 33.542938232421875 34.776523590087890625 27.633245468139648438 24.00485992431640625 20.899341583251953125 17.575571060180664062 22.460094451904296875 27.85367584228515625 30.286260604858398438 33.458343505859375 33.22818756103515625 30.03760528564453125 30.23523712158203125 30.166812896728515625 30.4558258056640625 30.544254302978515625 29.663698196411132812 28.500108718872070312 30.670492172241210938 33.82588958740234375 31.450452804565429688 24.493379592895507812 19.7363739013671875 20.4735565185546875 20.735630035400390625 18.9036712646484375 13.30782318115234375 5.7046184539794921875 21.743993759155273438 28.33965301513671875 27.358865737915039062 24.414896011352539062 22.183179855346679688 16.796144485473632812 12.134052276611328125 15.352167129516601562 22.080530166625976562 26.034128189086914062 23.693738937377929688 18.3753509521484375 6.1305704116821289062 23.460264205932617188 22.958829879760742188 10.080546379089355469 13.628976821899414062 15.170344352722167969 15.321794509887695312 20.522022247314453125 23.431829452514648438 27.644178390502929688 31.540227890014648438 30.959474563598632812 24.65146636962890625 13.672060966491699219 3.0448033809661865234 6.7064495086669921875 15.775996208190917969 21.897808074951171875 23.4423065185546875 24.737024307250976562 30.0845184326171875 35.17879486083984375 34.941638946533203125 24.159299850463867188 7.46746063232421875 10.58675384521484375 9.1136426925659179688 8.0385885238647460938 7.6153454780578613281 6.7789325714111328125 5.4722681045532226562 1.7246190309524536133 5.8659615516662597656 12.422024726867675781 14.831850051879882812 16.967273712158203125 20.031421661376953125 21.9944610595703125 19.76418304443359375 8.843502044677734375 16.999011993408203125 23.62262725830078125 17.94028472900390625 13.838473320007324219 14.171006202697753906 15.491021156311035156 13.940834999084472656 12.994229316711425781 13.899341583251953125 13.543114662170410156 13.443505287170410156 14.420956611633300781 14.202221870422363281 15.024323463439941406 18.579874038696289062 21.57176971435546875 22.694681167602539062 21.514728546142578125 19.530216217041015625 -9999 
-9999 33.369403839111328125 33.619586944580078125 31.046573638916015625 30.863065719604492188 37.88793182373046875 45.52532196044921875 43.20456695556640625 36.29543304443359375 32.136035919189453125 32.60599517822265625 31.30181884765625 33.712871551513671875 28.355466842651367188 29.934404373168945312 31.174390792846679688 25.408283233642578125 29.4606781005859375 34.50995635986328125 39.95763397216796875 40.669300079345703125 37.07202911376953125 40.28638458251953125 36.293331146240234375 33.661540985107421875 34.46285247802734375 34.8412322998046875 33.63576507568359375 31.950656890869140625 32.74089813232421875 39.9833831787109375 39.946132659912109375 42.287109375 45.169132232666015625 41.136730194091796875 37.10347747802734375 32.628749847412109375 27.013875961303710938 26.5063934326171875 18.202920913696289062 22.3393402099609375 34.365093231201171875 35.58179473876953125 35.542758941650390625 39.553741455078125 43.317249298095703125 43.924320220947265625 42.11775970458984375 37.617412567138671875 31.34136199951171875 19.953266143798828125 5.5423536300659179688 9.0096416473388671875 16.233900070190429688 17.861387252807617188 15.467617034912109375 11.875826835632324219 22.610445022583007812 20.893831253051757812 18.295038223266601562 24.7790679931640625 25.998540878295898438 9.8390026092529296875 11.258019447326660156 19.890352249145507812 21.949802398681640625 24.381570816040039062 25.444156646728515625 23.109144210815429688 23.099168777465820312 23.263963699340820312 21.590654373168945312 22.328409194946289062 22.4812164306640625 22.896854400634765625 30.832731246948242188 34.662384033203125 28.984567642211914062 24.70444488525390625 20.249616622924804688 15.635722160339355469 20.130285263061523438 27.041501998901367188 30.891162872314453125 33.557323455810546875 33.242095947265625 28.968107223510742188 28.559835433959960938 32.977176666259765625 34.106204986572265625 31.01964569091796875 28.769170761108398438 28.231121063232421875 31.581243515014648438 35.48087310791015625 33.600879669189453125 27.165491104125976562 21.783199310302734375 19.978643417358398438 17.658618927001953125 15.707772254943847656 14.393690109252929688 7.8714952468872070312 17.838197708129882812 27.247831344604492188 27.005619049072265625 21.6563262939453125 18.733112335205078125 14.757201194763183594 11.643253326416015625 14.855174064636230469 22.983514785766601562 27.00598907470703125 23.066862106323242188 15.909914970397949219 9.7493619918823242188 24.717769622802734375 19.164287567138671875 11.866826057434082031 16.273193359375 9.6127882003784179688 17.232851028442382812 20.052745819091796875 20.018436431884765625 22.683990478515625 27.545804977416992188 30.823030471801757812 28.022130966186523438 18.868692398071289062 7.4112086296081542969 4.2626910209655761719 13.132519721984863281 19.389553070068359375 21.723697662353515625 22.892972946166992188 27.344661712646484375 33.79327392578125 36.912425994873046875 32.019725799560546875 14.248673439025878906 9.1619462966918945312 11.570977210998535156 10.484271049499511719 8.8846559524536132812 7.835338592529296875 7.5368099212646484375 5.8264980316162109375 1.4827657938003540039 9.5148839950561523438 13.060072898864746094 15.191707611083984375 18.060937881469726562 20.888746261596679688 21.007659912109375 10.656808853149414062 13.987454414367675781 23.091098785400390625 16.646867752075195312 8.2598123550415039062 9.7745676040649414062 13.22222900390625 13.370718002319335938 13.162738800048828125 15.13507843017578125 17.242588043212890625 18.3841552734375 18.056835174560546875 16.151880264282226562 15.594568252563476562 18.259363174438476562 21.696298599243164062 23.013105392456054688 21.047428131103515625 18.354602813720703125 -9999 
-9999 25.330278396606445312 25.5684356689453125 28.557596206665039062 35.159435272216796875 41.510829925537109375 49.611721038818359375 51.41131591796875 47.642215728759765625 44.934452056884765625 40.68093109130859375 39.045963287353515625 37.87007904052734375 30.821607589721679688 31.34294891357421875 30.744550704956054688 27.711151123046875 30.9200286865234375 37.157794952392578125 41.611537933349609375 42.291767120361328125 32.28757476806640625 39.0400848388671875 35.753009796142578125 33.457122802734375 35.0595703125 35.644916534423828125 34.4945220947265625 32.226654052734375 32.803009033203125 40.92624664306640625 42.00127410888671875 40.8048095703125 41.423046112060546875 37.98830413818359375 39.23117828369140625 39.454357147216796875 37.14919281005859375 31.87774658203125 18.168626785278320312 5.6611275672912597656 30.42740631103515625 36.753971099853515625 36.337406158447265625 38.828189849853515625 43.345733642578125 45.162837982177734375 44.508853912353515625 40.98766326904296875 31.616281509399414062 17.407756805419921875 5.9915723800659179688 7.4261298179626464844 8.261821746826171875 12.448107719421386719 18.96944427490234375 18.95427703857421875 20.095392227172851562 15.661129951477050781 15.664803504943847656 24.448614120483398438 27.50849151611328125 12.764344215393066406 8.1948642730712890625 17.309114456176757812 22.049402236938476562 26.118223190307617188 27.123037338256835938 23.518266677856445312 23.46344757080078125 24.6208343505859375 23.101705551147460938 22.873889923095703125 23.138814926147460938 22.958433151245117188 29.534692764282226562 33.179706573486328125 28.142803192138671875 24.751264572143554688 20.075712203979492188 14.457356452941894531 17.726747512817382812 25.687191009521484375 31.059343338012695312 31.355684280395507812 30.475374221801757812 31.076425552368164062 32.595844268798828125 33.102085113525390625 30.644739151000976562 29.715715408325195312 30.265909194946289062 29.375446319580078125 31.757509231567382812 34.320377349853515625 32.25362396240234375 28.053293228149414062 24.338567733764648438 20.39947509765625 16.284610748291015625 14.312715530395507812 12.932226181030273438 9.171443939208984375 13.895861625671386719 24.166624069213867188 26.1258697509765625 19.5713043212890625 15.103198051452636719 12.939908981323242188 10.366626739501953125 15.167876243591308594 23.978902816772460938 26.25424957275390625 21.232477188110351562 13.151562690734863281 13.618803977966308594 24.12035369873046875 15.459981918334960938 15.147858619689941406 15.134609222412109375 11.5871734619140625 22.038028717041015625 20.470457077026367188 17.873422622680664062 17.656772613525390625 21.54711151123046875 27.921277999877929688 29.464097976684570312 23.492885589599609375 11.695506095886230469 2.1853449344635009766 10.555986404418945312 17.308980941772460938 20.333612442016601562 21.60164642333984375 25.681013107299804688 32.268024444580078125 37.21813201904296875 36.620113372802734375 23.739763259887695312 10.623015403747558594 15.567773818969726562 15.456281661987304688 11.867766380310058594 9.0143899917602539062 8.69535064697265625 8.9330348968505859375 4.9044895172119140625 6.1392374038696289062 10.959366798400878906 12.391172409057617188 14.948091506958007812 18.997478485107421875 21.48333740234375 14.13906097412109375 9.5000619888305664062 20.14080047607421875 17.53150177001953125 10.98105621337890625 10.935776710510253906 13.945633888244628906 14.282235145568847656 13.408563613891601562 14.910587310791015625 18.325830459594726562 19.18405914306640625 18.329975128173828125 17.976686477661132812 18.627550125122070312 21.096790313720703125 23.468351364135742188 22.890394210815429688 20.587480545043945312 18.134656906127929688 -9999 
-9999 19.383457183837890625 20.61067962646484375 26.29059600830078125 35.718852996826171875 42.278278350830078125 48.64897918701171875 53.098979949951171875 52.01507568359375 49.851894378662109375 47.006542205810546875 45.778957366943359375 40.034145355224609375 32.9671783447265625 31.187244415283203125 31.267566680908203125 31.521312713623046875 32.5732269287109375 37.9063873291015625 42.645904541015625 43.32294464111328125 30.417636871337890625 39.1563720703125 37.21062469482421875 35.483646392822265625 37.63314056396484375 38.095012664794921875 36.948246002197265625 35.3581390380859375 37.660472869873046875 45.511981964111328125 45.21857452392578125 41.0971221923828125 40.76848602294921875 39.490688323974609375 41.467327117919921875 42.34420013427734375 41.827014923095703125 37.65213775634765625 32.047657012939453125 18.014593124389648438 17.960063934326171875 33.407318115234375 36.927707672119140625 39.471355438232421875 43.86669158935546875 46.31026458740234375 45.378192901611328125 40.379016876220703125 30.39569854736328125 18.142293930053710938 6.444469451904296875 4.4056181907653808594 2.9850053787231445312 8.0589799880981445312 14.828359603881835938 14.668848991394042969 13.136548042297363281 13.527738571166992188 18.984716415405273438 26.576715469360351562 26.386354446411132812 10.852733612060546875 7.4416904449462890625 15.999085426330566406 21.389698028564453125 25.378694534301757812 26.393505096435546875 24.175680160522460938 25.203439712524414062 26.629632949829101562 24.612485885620117188 23.39373779296875 24.80863189697265625 24.609670639038085938 27.480621337890625 29.7551727294921875 26.17496490478515625 24.343751907348632812 21.0430908203125 15.333942413330078125 16.02883148193359375 23.573289871215820312 29.860731124877929688 29.253503799438476562 30.195068359375 34.2449493408203125 34.941036224365234375 31.27887725830078125 30.061412811279296875 33.690219879150390625 34.264362335205078125 31.818052291870117188 31.237543106079101562 31.832113265991210938 29.854722976684570312 27.545413970947265625 24.86872100830078125 19.083330154418945312 13.932547569274902344 13.017826080322265625 10.4457855224609375 5.9743862152099609375 8.5922384262084960938 19.27179718017578125 25.044528961181640625 19.528047561645507812 13.611536026000976562 11.750741004943847656 7.744167327880859375 14.687990188598632812 23.401597976684570312 23.586063385009765625 19.21532440185546875 12.27323150634765625 15.695211410522460938 23.591260910034179688 13.012847900390625 15.879947662353515625 13.732685089111328125 20.4052276611328125 26.497640609741210938 20.794214248657226562 15.648633956909179688 14.01629638671875 15.874421119689941406 23.112592697143554688 28.928796768188476562 27.170671463012695312 16.380517959594726562 2.6370511054992675781 7.6964807510375976562 14.867262840270996094 19.01824951171875 21.533784866333007812 25.5921630859375 31.82265472412109375 37.22220611572265625 38.43569183349609375 31.479501724243164062 19.148248672485351562 14.783063888549804688 18.960947036743164062 16.594697952270507812 11.229412078857421875 9.3026275634765625 9.9334011077880859375 8.7746944427490234375 5.8319854736328125 8.9460296630859375 9.5542306900024414062 10.647705078125 15.429216384887695312 20.744358062744140625 16.501270294189453125 5.5231881141662597656 14.84290313720703125 16.809656143188476562 13.170759201049804688 14.189137458801269531 17.145246505737304688 15.843950271606445312 12.589014053344726562 12.120802879333496094 15.841710090637207031 18.099515914916992188 16.472764968872070312 14.106799125671386719 14.301099777221679688 19.157344818115234375 22.809398651123046875 22.96385955810546875 22.060800552368164062 20.452890396118164062 -9999 
-9999 14.37375640869140625 16.858621597290039062 20.360734939575195312 27.378740310668945312 34.92765045166015625 41.241870880126953125 46.64920806884765625 46.31403350830078125 43.086170196533203125 45.889102935791015625 48.726787567138671875 41.41730499267578125 33.34098052978515625 32.720348358154296875 33.689388275146484375 34.918121337890625 35.223247528076171875 38.614879608154296875 43.83728790283203125 44.486927032470703125 33.1190185546875 40.15470123291015625 39.118297576904296875 36.64566802978515625 38.156307220458984375 38.555912017822265625 38.4836578369140625 38.728870391845703125 42.4403839111328125 47.28972625732421875 44.522510528564453125 41.042568206787109375 41.7103118896484375 41.384906768798828125 43.087070465087890625 43.65773773193359375 42.73394775390625 41.03702545166015625 40.293445587158203125 32.023090362548828125 12.860919952392578125 25.943302154541015625 39.897724151611328125 43.549774169921875 44.66722869873046875 45.872882843017578125 43.430332183837890625 36.96527862548828125 29.799970626831054688 21.316240310668945312 9.910259246826171875 4.0816378593444824219 6.1405434608459472656 9.328460693359375 8.0876760482788085938 9.7040224075317382812 15.55164337158203125 21.481937408447265625 26.033193588256835938 26.792913436889648438 20.678079605102539062 4.77262115478515625 10.965094566345214844 16.379016876220703125 20.07041168212890625 24.585863113403320312 26.873224258422851562 27.810205459594726562 29.052652359008789062 28.00572967529296875 24.4141998291015625 22.717542648315429688 25.75177764892578125 25.144466400146484375 23.613359451293945312 25.474596023559570312 24.581068038940429688 23.773845672607421875 22.1784515380859375 17.28223419189453125 15.6049652099609375 20.068738937377929688 26.275907516479492188 30.905736923217773438 33.8510894775390625 33.54564666748046875 30.054357528686523438 30.558414459228515625 35.577938079833984375 36.496448516845703125 35.291873931884765625 32.891754150390625 30.734941482543945312 30.09346771240234375 29.401945114135742188 28.2501678466796875 24.51203155517578125 16.958099365234375 11.19698333740234375 11.760366439819335938 9.8131427764892578125 2.9734823703765869141 4.1079602241516113281 14.072594642639160156 23.367326736450195312 20.747577667236328125 14.843054771423339844 12.521436691284179688 5.9371509552001953125 13.107669830322265625 22.048921585083007812 21.266323089599609375 18.192716598510742188 12.749783515930175781 14.280102729797363281 23.60375213623046875 13.260833740234375 16.2481689453125 14.194562911987304688 26.935298919677734375 30.100931167602539062 21.977710723876953125 14.548618316650390625 12.699941635131835938 13.108347892761230469 19.19812774658203125 27.473245620727539062 29.394300460815429688 21.515689849853515625 7.2141699790954589844 4.1849093437194824219 10.898549079895019531 16.253475189208984375 20.451696395874023438 25.077442169189453125 31.487445831298828125 36.75769805908203125 38.092937469482421875 35.56134033203125 29.339860916137695312 13.542074203491210938 14.163140296936035156 18.963861465454101562 13.561455726623535156 10.076067924499511719 9.8990297317504882812 9.4961223602294921875 6.044677734375 7.234188079833984375 8.2635545730590820312 6.88510894775390625 9.5936803817749023438 17.93796539306640625 17.771528244018554688 5.2544016838073730469 10.403917312622070312 17.022975921630859375 15.410947799682617188 15.582591056823730469 18.217060089111328125 16.026048660278320312 11.29608154296875 9.6262502670288085938 11.740897178649902344 15.959284782409667969 18.663545608520507812 18.085353851318359375 17.860492706298828125 21.29376220703125 23.004587173461914062 22.065557479858398438 20.476558685302734375 17.348659515380859375 -9999 
-9999 8.9840030670166015625 14.778127670288085938 17.42690277099609375 20.647474288940429688 26.818052291870117188 34.136051177978515625 40.12670135498046875 41.455036163330078125 39.89133453369140625 44.332401275634765625 49.418117523193359375 45.463592529296875 36.774005889892578125 35.4603424072265625 36.843231201171875 38.8810577392578125 40.9317169189453125 42.31659698486328125 45.8624725341796875 45.760951995849609375 35.18553924560546875 38.31170654296875 38.569507598876953125 35.591709136962890625 36.030364990234375 36.93961334228515625 38.016510009765625 39.137859344482421875 42.132137298583984375 44.211635589599609375 41.781475067138671875 40.769268035888671875 40.919498443603515625 40.6928558349609375 42.2650604248046875 43.143833160400390625 41.0098419189453125 40.836956024169921875 41.92067718505859375 35.3397216796875 22.624467849731445312 18.119108200073242188 44.424587249755859375 47.724895477294921875 42.585651397705078125 41.942218780517578125 39.462982177734375 34.80785369873046875 31.249053955078125 25.484287261962890625 15.169056892395019531 5.9380154609680175781 7.1856546401977539062 6.0452032089233398438 5.4717183113098144531 15.607010841369628906 25.538585662841796875 28.187974929809570312 26.837978363037109375 21.033708572387695312 10.788054466247558594 3.7437999248504638672 13.935540199279785156 16.67407989501953125 19.94487762451171875 24.968809127807617188 27.809534072875976562 29.905370712280273438 30.32724761962890625 26.60030364990234375 21.01160430908203125 19.997577667236328125 25.6030731201171875 24.963680267333984375 19.819623947143554688 21.895235061645507812 23.643239974975585938 23.186616897583007812 22.20754241943359375 18.373369216918945312 16.136587142944335938 17.959894180297851562 24.080883026123046875 28.926418304443359375 28.012752532958984375 24.171497344970703125 26.980220794677734375 35.5916595458984375 38.080814361572265625 35.1135406494140625 33.380218505859375 33.57122802734375 32.405818939208984375 30.789480209350585938 30.463470458984375 27.930332183837890625 22.420581817626953125 15.334301948547363281 9.538463592529296875 10.620649337768554688 10.810155868530273438 3.6675190925598144531 2.2808239459991455078 9.5089597702026367188 20.457805633544921875 21.349691390991210938 16.996416091918945312 15.287043571472167969 8.4138593673706054688 10.48912811279296875 20.936063766479492188 21.277957916259765625 19.25139617919921875 15.788704872131347656 11.301182746887207031 23.714643478393554688 17.1889801025390625 16.249284744262695312 13.334713935852050781 29.167165756225585938 30.701904296875 23.106454849243164062 16.068784713745117188 14.148961067199707031 14.901024818420410156 19.581844329833984375 27.331121444702148438 30.046239852905273438 24.957042694091796875 12.523343086242675781 3.1666591167449951172 5.6653761863708496094 11.892920494079589844 18.1649932861328125 23.709888458251953125 30.520442962646484375 35.64188385009765625 36.793590545654296875 36.280673980712890625 34.45269012451171875 23.006275177001953125 3.2947061061859130859 17.127420425415039062 15.051781654357910156 11.383166313171386719 10.677765846252441406 9.986843109130859375 6.0723919868469238281 7.5331015586853027344 9.6943597793579101562 6.7431402206420898438 4.4752669334411621094 13.626097679138183594 18.19586181640625 8.3980426788330078125 7.5901951789855957031 18.309709548950195312 17.70025634765625 14.934722900390625 16.772823333740234375 15.5822296142578125 12.018056869506835938 10.673280715942382812 11.755875587463378906 14.376267433166503906 17.388561248779296875 18.687013626098632812 20.133352279663085938 24.548440933227539062 25.865497589111328125 23.547149658203125 20.823854446411132812 16.218935012817382812 -9999 
-9999 7.4618020057678222656 7.1456155776977539062 11.914294242858886719 15.235210418701171875 19.308193206787109375 25.23369598388671875 30.666828155517578125 33.79630279541015625 36.6599578857421875 41.847461700439453125 47.50775146484375 48.7952423095703125 45.505279541015625 45.14621734619140625 45.695468902587890625 45.834857940673828125 44.557033538818359375 42.714282989501953125 45.563106536865234375 45.538082122802734375 35.95365142822265625 37.27529144287109375 39.810291290283203125 38.557098388671875 39.355625152587890625 41.253387451171875 41.20702362060546875 40.25817108154296875 41.117862701416015625 43.136386871337890625 43.70482635498046875 42.86203765869140625 39.10297393798828125 37.600231170654296875 38.650074005126953125 39.960811614990234375 39.390232086181640625 42.748302459716796875 44.133998870849609375 37.007251739501953125 30.29969024658203125 20.954637527465820312 44.962787628173828125 46.987789154052734375 36.574993133544921875 36.89406585693359375 39.300495147705078125 39.34485626220703125 37.654796600341796875 31.33663177490234375 19.285417556762695312 6.8347535133361816406 4.7847962379455566406 3.2121124267578125 12.39007568359375 24.851673126220703125 27.743177413940429688 24.779308319091796875 19.257066726684570312 11.007535934448242188 1.042302250862121582 9.365886688232421875 14.790546417236328125 16.041408538818359375 19.918140411376953125 24.479501724243164062 27.17977142333984375 29.951305389404296875 30.641347885131835938 25.127401351928710938 17.212080001831054688 16.882007598876953125 24.681295394897460938 24.509929656982421875 17.520526885986328125 19.666996002197265625 23.702667236328125 23.822591781616210938 21.750299453735351562 17.988878250122070312 17.0813140869140625 19.508237838745117188 20.698200225830078125 19.197698593139648438 21.054475784301757812 27.496229171752929688 33.9603424072265625 37.194866180419921875 36.365997314453125 31.883039474487304688 30.601318359375 33.289485931396484375 33.7000885009765625 33.574558258056640625 31.452760696411132812 25.022607803344726562 20.48712158203125 15.78568267822265625 10.562333106994628906 10.9566497802734375 12.087864875793457031 5.8743457794189453125 3.1753168106079101562 7.4684009552001953125 17.662586212158203125 21.479928970336914062 18.150634765625 16.836973190307617188 12.204263687133789062 8.11244964599609375 18.554922103881835938 21.137365341186523438 20.349859237670898438 19.713708877563476562 11.470978736877441406 23.969896316528320312 26.663896560668945312 22.309808731079101562 19.630735397338867188 31.79654693603515625 29.165740966796875 21.085531234741210938 16.550245285034179688 16.654752731323242188 19.16651153564453125 23.156717300415039062 29.276655197143554688 30.414577484130859375 26.052064895629882812 16.250020980834960938 6.5764551162719726562 3.5375926494598388672 8.4062366485595703125 16.028322219848632812 22.12268829345703125 28.913587570190429688 34.021087646484375 35.03964996337890625 35.320056915283203125 35.44922637939453125 28.923738479614257812 8.3972005844116210938 12.333167076110839844 16.146711349487304688 13.278585433959960938 12.265313148498535156 12.085234642028808594 8.6091928482055664062 9.9506921768188476562 11.013909339904785156 7.023456573486328125 4.6263365745544433594 11.128767967224121094 17.824981689453125 10.224100112915039062 6.0326681137084960938 18.588548660278320312 19.070596694946289062 14.484161376953125 15.555325508117675781 16.501373291015625 14.892934799194335938 14.145121574401855469 14.746975898742675781 15.298856735229492188 16.014741897583007812 17.6756744384765625 19.169038772583007812 23.973386764526367188 26.433355331420898438 24.066904067993164062 22.527675628662109375 20.224857330322265625 -9999 
-9999 25.395353317260742188 15.199132919311523438 7.2672100067138671875 4.8867025375366210938 9.0150995254516601562 17.268312454223632812 23.696634292602539062 27.489816665649414062 32.80002593994140625 39.179676055908203125 44.900936126708984375 48.839145660400390625 50.04994964599609375 51.146312713623046875 51.44476318359375 51.18430328369140625 48.304157257080078125 44.295166015625 45.496395111083984375 44.127826690673828125 35.317409515380859375 36.50921630859375 42.386981964111328125 45.7091064453125 47.685756683349609375 46.725124359130859375 43.020862579345703125 41.35549163818359375 43.603763580322265625 46.581874847412109375 46.561786651611328125 42.444438934326171875 36.456722259521484375 35.133144378662109375 35.924652099609375 36.718143463134765625 37.998260498046875 45.168834686279296875 49.048248291015625 44.705806732177734375 40.19612884521484375 31.943807601928710938 36.95867919921875 38.64617156982421875 34.86684417724609375 40.452159881591796875 47.14031982421875 49.976596832275390625 48.689617156982421875 40.425968170166015625 24.489233016967773438 7.4994263648986816406 3.2991840839385986328 5.2403287887573242188 19.896604537963867188 27.17234039306640625 21.962390899658203125 14.560388565063476562 7.3937277793884277344 0.87126749753952026367 7.7747030258178710938 13.149045944213867188 15.003638267517089844 16.25750732421875 20.990329742431640625 25.937757492065429688 29.056097030639648438 30.8557281494140625 29.8849945068359375 23.591320037841796875 15.049414634704589844 14.08815765380859375 22.20583343505859375 23.646112442016601562 17.657482147216796875 18.9882659912109375 24.336381912231445312 26.17095947265625 24.112840652465820312 21.519109725952148438 20.621982574462890625 19.073638916015625 16.426311492919921875 20.861774444580078125 28.043996810913085938 33.5916290283203125 35.600826263427734375 35.176250457763671875 33.12628173828125 28.070787429809570312 28.464036941528320312 32.42256927490234375 33.68292999267578125 36.28997802734375 31.495336532592773438 21.590173721313476562 19.499843597412109375 16.1560516357421875 12.099312782287597656 12.80886077880859375 13.183014869689941406 7.9259557723999023438 5.172267913818359375 6.6238303184509277344 14.46047210693359375 20.941156387329101562 19.473665237426757812 17.912405014038085938 15.823787689208984375 9.4298810958862304688 14.652647972106933594 19.43079376220703125 20.649068832397460938 22.959211349487304688 17.768415451049804688 18.920993804931640625 26.050474166870117188 23.690568923950195312 26.819845199584960938 34.657024383544921875 29.851034164428710938 24.034296035766601562 23.3085784912109375 23.022665023803710938 21.942951202392578125 25.437938690185546875 31.08060455322265625 30.977909088134765625 26.311208724975585938 18.402559280395507812 8.9419679641723632812 3.4078032970428466797 6.2320451736450195312 13.766886711120605469 20.522569656372070312 27.3870086669921875 32.43872833251953125 33.318698883056640625 34.325588226318359375 35.439807891845703125 31.957275390625 18.040205001831054688 6.4391565322875976562 15.678359031677246094 15.270006179809570312 13.374028205871582031 12.699018478393554688 9.2737178802490234375 10.014731407165527344 9.2297515869140625 5.27301788330078125 4.7770109176635742188 10.838740348815917969 17.263689041137695312 10.518094062805175781 5.5518879890441894531 16.421236038208007812 18.36986541748046875 16.5420989990234375 16.521602630615234375 16.347028732299804688 13.234906196594238281 10.878046989440917969 13.235833168029785156 15.949389457702636719 17.138414382934570312 18.671825408935546875 19.22962188720703125 22.3047943115234375 24.069768905639648438 21.991525650024414062 20.767118453979492188 20.577219009399414062 -9999 
-9999 36.1907196044921875 28.801404953002929688 21.478895187377929688 15.193728446960449219 6.0614175796508789062 7.8887968063354492188 17.922136306762695312 24.23516845703125 29.681821823120117188 35.807292938232421875 41.90641021728515625 46.473663330078125 48.124492645263671875 47.321441650390625 46.18024444580078125 47.0669403076171875 48.062763214111328125 47.2891387939453125 45.872699737548828125 41.392124176025390625 33.22095489501953125 32.632061004638671875 38.495601654052734375 43.448238372802734375 46.073108673095703125 44.52105712890625 41.53833770751953125 41.793292999267578125 45.589115142822265625 47.46929168701171875 44.329402923583984375 37.099193572998046875 31.692697525024414062 31.500949859619140625 32.88373565673828125 34.197551727294921875 36.28842926025390625 44.227748870849609375 51.567493438720703125 52.442607879638671875 49.382190704345703125 41.80060577392578125 34.182941436767578125 19.30602264404296875 20.110218048095703125 35.2274017333984375 45.0940704345703125 52.649089813232421875 54.91150665283203125 48.774219512939453125 33.399139404296875 13.052578926086425781 1.5362126827239990234 7.79218292236328125 22.079580307006835938 24.954824447631835938 16.710992813110351562 6.048824310302734375 3.04956817626953125 9.459774017333984375 13.039877891540527344 14.525748252868652344 15.251978874206542969 17.514123916625976562 22.799703598022460938 27.692449569702148438 30.250156402587890625 29.905103683471679688 26.4102020263671875 19.88544464111328125 12.84586334228515625 11.441807746887207031 17.893377304077148438 21.74236297607421875 20.660167694091796875 21.845094680786132812 25.999603271484375 29.2960205078125 29.43939971923828125 27.707368850708007812 23.833673477172851562 18.849933624267578125 21.389614105224609375 26.774888992309570312 31.230133056640625 34.4252166748046875 34.399166107177734375 32.579402923583984375 29.487379074096679688 24.732484817504882812 26.57587432861328125 31.63518524169921875 33.9402618408203125 36.705646514892578125 31.056310653686523438 21.674198150634765625 20.275054931640625 17.323968887329101562 13.431838035583496094 13.960993766784667969 13.972361564636230469 10.24636077880859375 7.1735472679138183594 5.0852007865905761719 10.09975433349609375 18.727840423583984375 19.20716094970703125 17.638980865478515625 17.729047775268554688 12.502918243408203125 10.518630027770996094 16.076620101928710938 19.998548507690429688 25.074846267700195312 24.806430816650390625 13.954639434814453125 12.122102737426757812 15.169125556945800781 24.466753005981445312 30.698328018188476562 30.17981719970703125 29.693798065185546875 28.545146942138671875 24.308862686157226562 21.121049880981445312 26.191465377807617188 31.496242523193359375 31.56678009033203125 26.947961807250976562 19.73136138916015625 11.204364776611328125 4.0803995132446289062 5.2262821197509765625 12.320649147033691406 18.621934890747070312 25.322694778442382812 30.454839706420898438 31.513912200927734375 33.575595855712890625 35.206859588623046875 33.57465362548828125 25.747943878173828125 9.2354803085327148438 10.684541702270507812 16.245853424072265625 14.713030815124511719 12.252435684204101562 7.8669886589050292969 7.2876119613647460938 5.4828653335571289062 2.7399973869323730469 4.13800048828125 11.185753822326660156 16.014360427856445312 8.8699817657470703125 5.6939520835876464844 12.936490058898925781 13.62493133544921875 13.805273056030273438 15.100568771362304688 15.448210716247558594 12.724658012390136719 11.944011688232421875 14.489452362060546875 16.331953048706054688 16.644945144653320312 18.36566925048828125 20.345693588256835938 22.912866592407226562 23.958749771118164062 22.9486236572265625 21.808118820190429688 19.909257888793945312 -9999 
-9999 39.555637359619140625 34.0391693115234375 27.277761459350585938 22.868692398071289062 16.622774124145507812 6.4507374763488769531 6.5423836708068847656 15.647019386291503906 23.133098602294921875 29.686361312866210938 35.771663665771484375 40.350006103515625 41.907215118408203125 39.804656982421875 37.186004638671875 37.479602813720703125 40.330112457275390625 43.103130340576171875 42.48321533203125 37.0178375244140625 28.940580368041992188 25.982494354248046875 29.646701812744140625 34.447536468505859375 37.18021392822265625 37.727020263671875 40.33553314208984375 42.8418731689453125 43.829051971435546875 40.826602935791015625 32.34088897705078125 23.424127578735351562 19.923734664916992188 20.744882583618164062 24.063089370727539062 28.782529830932617188 32.672725677490234375 38.781162261962890625 46.485095977783203125 51.19455718994140625 51.895473480224609375 48.004619598388671875 43.038318634033203125 33.041584014892578125 18.64217376708984375 10.48989105224609375 29.9027557373046875 48.571475982666015625 54.327243804931640625 51.478610992431640625 41.012065887451171875 21.455173492431640625 4.3630566596984863281 10.965548515319824219 22.118806838989257812 22.129495620727539062 14.153384208679199219 2.5618016719818115234 9.7547883987426757812 13.943004608154296875 13.464568138122558594 13.318372726440429688 15.159134864807128906 18.792264938354492188 23.254543304443359375 26.26952362060546875 27.663946151733398438 26.398160934448242188 22.292032241821289062 16.793043136596679688 11.338651657104492188 9.2605581283569335938 12.706851959228515625 18.8031463623046875 22.351209640502929688 23.873544692993164062 26.125600814819335938 28.75643157958984375 28.77050018310546875 25.845813751220703125 21.7037506103515625 21.894145965576171875 26.55277252197265625 29.442401885986328125 32.491893768310546875 33.982189178466796875 32.7001190185546875 30.211698532104492188 27.639673233032226562 24.402059555053710938 24.763273239135742188 30.501253128051757812 34.6143798828125 34.82785797119140625 30.25431060791015625 25.281284332275390625 23.487668991088867188 20.989284515380859375 16.099576950073242188 14.025420188903808594 14.451516151428222656 12.749739646911621094 9.5887460708618164062 5.9161639213562011719 5.5627026557922363281 15.436459541320800781 17.1203765869140625 14.375279426574707031 15.951312065124511719 14.126671791076660156 10.196125984191894531 13.31866455078125 17.339281082153320312 25.878116607666015625 28.447080612182617188 13.228727340698242188 10.487829208374023438 21.540174484252929688 23.755762100219726562 19.726104736328125 14.240655899047851562 14.537832260131835938 16.806133270263671875 17.685939788818359375 18.750822067260742188 24.415235519409179688 30.044841766357421875 31.591016769409179688 28.019168853759765625 20.927135467529296875 13.608466148376464844 6.19355010986328125 4.7485594749450683594 11.987236976623535156 16.895498275756835938 22.498044967651367188 27.923360824584960938 29.636157989501953125 32.353939056396484375 34.121150970458984375 33.54389190673828125 30.7568511962890625 21.140308380126953125 4.9802565574645996094 14.713346481323242188 16.398023605346679688 12.2663726806640625 6.8280267715454101562 4.4070310592651367188 2.6109278202056884766 1.8459591865539550781 4.8938708305358886719 10.859116554260253906 12.917506217956542969 5.974880218505859375 6.6852984428405761719 11.722691535949707031 11.602379798889160156 11.974785804748535156 14.417283058166503906 16.3194580078125 14.43437957763671875 13.25887298583984375 14.283465385437011719 14.295088768005371094 13.574614524841308594 17.422815322875976562 23.053209304809570312 26.296892166137695312 26.061887741088867188 24.298788070678710938 22.389019012451171875 19.63262176513671875 -9999 
-9999 40.7440948486328125 36.75919342041015625 32.318286895751953125 28.738073348999023438 24.37818145751953125 18.374118804931640625 10.287687301635742188 4.3078069686889648438 10.097347259521484375 15.947363853454589844 21.323883056640625 26.389791488647460938 29.76625823974609375 31.261627197265625 31.580982208251953125 32.2022247314453125 33.57698822021484375 35.75281524658203125 35.593059539794921875 30.8468017578125 24.466644287109375 22.6364288330078125 26.573299407958984375 30.241998672485351562 30.119909286499023438 27.282972335815429688 28.468210220336914062 30.086029052734375 27.60364532470703125 19.239910125732421875 7.66822052001953125 4.4013752937316894531 7.3012328147888183594 8.2290592193603515625 6.9706835746765136719 15.3198699951171875 24.122545242309570312 30.560749053955078125 37.192729949951171875 43.990360260009765625 48.723724365234375 48.377025604248046875 43.774227142333984375 40.403354644775390625 37.59015655517578125 19.394197463989257812 20.68195343017578125 44.81143951416015625 51.1221160888671875 50.4090118408203125 45.68901824951171875 30.637567520141601562 11.327767372131347656 15.983223915100097656 21.894496917724609375 19.142818450927734375 11.74322509765625 2.5626738071441650391 13.752535820007324219 13.829191207885742188 10.784084320068359375 12.0649566650390625 16.452251434326171875 20.313573837280273438 22.228693008422851562 22.8617095947265625 23.73343658447265625 23.711467742919921875 21.129638671875 17.0269927978515625 12.153272628784179688 9.2683115005493164062 11.492657661437988281 14.990118026733398438 16.675342559814453125 16.395196914672851562 17.11692047119140625 19.468179702758789062 20.4869537353515625 20.751901626586914062 22.666173934936523438 26.457050323486328125 29.113063812255859375 30.444940567016601562 32.52446746826171875 32.1796112060546875 29.965541839599609375 27.814157485961914062 27.455638885498046875 26.49138641357421875 23.745752334594726562 27.700601577758789062 33.54448699951171875 32.604736328125 29.972078323364257812 28.811632156372070312 27.431974411010742188 26.04120635986328125 20.421476364135742188 15.04811859130859375 14.67086029052734375 14.0855712890625 11.42090606689453125 7.3145422935485839844 2.2449011802673339844 11.7410430908203125 16.35797119140625 12.560933113098144531 12.527866363525390625 13.283006668090820312 12.017946243286132812 14.034464836120605469 14.834792137145996094 24.2866363525390625 28.531740188598632812 11.385589599609375 19.6414337158203125 29.438615798950195312 27.0080413818359375 21.744916915893554688 16.84696197509765625 14.510308265686035156 15.765094757080078125 17.60599517822265625 17.217519760131835938 20.685245513916015625 27.05757904052734375 30.294525146484375 27.888288497924804688 21.42873382568359375 15.61319732666015625 9.2766332626342773438 3.8612294197082519531 11.398916244506835938 15.151677131652832031 19.58968353271484375 25.499782562255859375 28.274587631225585938 30.801425933837890625 31.93878173828125 31.933710098266601562 31.964921951293945312 28.605991363525390625 12.835114479064941406 10.019598960876464844 16.738225936889648438 12.244878768920898438 6.6637310981750488281 3.8944406509399414062 4.3335523605346679688 6.4767055511474609375 8.7630262374877929688 8.736080169677734375 7.1632161140441894531 7.8936371803283691406 9.8913335800170898438 12.485905647277832031 13.203562736511230469 12.891564369201660156 13.218725204467773438 15.126664161682128906 14.397349357604980469 13.236361503601074219 13.642102241516113281 12.144637107849121094 11.578367233276367188 15.266559600830078125 21.709897994995117188 27.025701522827148438 27.756048202514648438 25.632129669189453125 23.163143157958984375 20.33908843994140625 -9999 
-9999 40.739593505859375 38.07578277587890625 38.583599090576171875 37.0496368408203125 32.63309478759765625 27.85958099365234375 22.616331100463867188 14.691933631896972656 6.5217909812927246094 2.8806793689727783203 2.9897129535675048828 6.6982049942016601562 11.567621231079101562 16.87928009033203125 20.708599090576171875 23.05886077880859375 24.25506591796875 24.425235748291015625 22.746921539306640625 20.973344802856445312 20.208082199096679688 21.413206100463867188 23.849275588989257812 22.013681411743164062 16.29138946533203125 8.6727285385131835938 4.1809339523315429688 6.0958814620971679688 8.113071441650390625 11.214379310607910156 18.636915206909179688 25.072130203247070312 30.7286224365234375 33.256561279296875 30.204496383666992188 15.733682632446289062 7.3548440933227539062 18.560497283935546875 27.845134735107421875 35.84294891357421875 41.939014434814453125 44.444347381591796875 42.8766632080078125 44.506771087646484375 44.39725494384765625 33.146183013916015625 24.017183303833007812 36.91963958740234375 46.186939239501953125 48.539989471435546875 47.753963470458984375 38.600521087646484375 22.069766998291015625 19.84757232666015625 19.464708328247070312 14.864642143249511719 8.8844594955444335938 5.4965271949768066406 15.791918754577636719 12.257566452026367188 9.1409158706665039062 14.149182319641113281 19.325870513916015625 21.23996734619140625 20.4378204345703125 19.068037033081054688 19.583887100219726562 20.290380477905273438 19.661596298217773438 17.598052978515625 13.161760330200195312 11.351610183715820312 11.141589164733886719 12.805502891540527344 15.718785285949707031 13.739988327026367188 13.9392852783203125 17.4838104248046875 19.768678665161132812 22.2185821533203125 25.588161468505859375 28.730167388916015625 29.9795989990234375 29.969427108764648438 30.986419677734375 29.688686370849609375 26.85131072998046875 25.79486846923828125 27.956165313720703125 28.812952041625976562 24.003564834594726562 23.962659835815429688 29.41370391845703125 30.833097457885742188 30.847194671630859375 31.121990203857421875 30.966808319091796875 31.15033721923828125 25.955259323120117188 19.063961029052734375 16.205457687377929688 15.302213668823242188 12.897162437438964844 7.4794802665710449219 3.9085826873779296875 7.1203365325927734375 15.629476547241210938 16.713800430297851562 15.62421417236328125 14.540173530578613281 12.787961006164550781 13.442994117736816406 13.762389183044433594 21.609308242797851562 25.203596115112304688 7.5389342308044433594 21.569337844848632812 29.459375381469726562 22.2707366943359375 14.087019920349121094 11.163211822509765625 11.961345672607421875 15.069472312927246094 17.1062774658203125 15.980757713317871094 16.874555587768554688 23.186328887939453125 28.105388641357421875 26.748622894287109375 20.83518218994140625 15.631908416748046875 11.386118888854980469 4.53281402587890625 9.9855670928955078125 13.406902313232421875 17.249273300170898438 23.141275405883789062 26.979375839233398438 29.521184921264648438 29.785411834716796875 30.451198577880859375 32.07736968994140625 31.976839065551757812 21.076562881469726562 3.823944091796875 15.238299369812011719 12.190569877624511719 8.9895524978637695312 8.047161102294921875 10.129804611206054688 13.74444580078125 13.752790451049804688 7.5198202133178710938 3.1539502143859863281 10.050830841064453125 12.309617042541503906 12.79117584228515625 13.800999641418457031 13.486516952514648438 13.4217529296875 13.94983673095703125 12.174264907836914062 11.126953125 12.567218780517578125 11.679087638854980469 12.764822006225585938 18.011356353759765625 22.223171234130859375 26.386392593383789062 28.11754608154296875 26.021486282348632812 22.384622573852539062 18.104085922241210938 -9999 
-9999 37.859172821044921875 38.442371368408203125 42.079929351806640625 42.401500701904296875 39.586963653564453125 34.89917755126953125 30.489862442016601562 24.469621658325195312 16.94060516357421875 14.348336219787597656 14.05290985107421875 12.279300689697265625 7.9516587257385253906 3.5758459568023681641 4.736934661865234375 7.1460118293762207031 6.3391947746276855469 5.1737465858459472656 4.9944634437561035156 3.3490254878997802734 7.1653647422790527344 9.0772256851196289062 9.09391021728515625 9.7398977279663085938 13.210036277770996094 18.16268157958984375 21.595302581787109375 22.832696914672851562 22.33539581298828125 23.78150177001953125 28.144807815551757812 32.703403472900390625 36.879425048828125 39.648540496826171875 43.365451812744140625 39.73882293701171875 27.207864761352539062 9.4052057266235351562 9.7596912384033203125 22.215726852416992188 31.71224212646484375 38.78313446044921875 43.689670562744140625 49.37439727783203125 49.903324127197265625 42.6447296142578125 35.26618194580078125 25.429788589477539062 36.1952056884765625 46.5010528564453125 48.106670379638671875 43.365596771240234375 32.336673736572265625 22.415887832641601562 15.748704910278320312 11.207094192504882812 7.1191186904907226562 5.3106508255004882812 16.392223358154296875 13.346761703491210938 10.91359710693359375 17.245855331420898438 20.017553329467773438 19.391340255737304688 17.170202255249023438 15.522905349731445312 16.340259552001953125 16.207658767700195312 16.488466262817382812 16.20520782470703125 12.468579292297363281 9.2697305679321289062 9.4184217453002929688 15.414677619934082031 16.836099624633789062 14.153493881225585938 14.996935844421386719 18.19332122802734375 19.4039306640625 22.173498153686523438 26.279510498046875 29.211256027221679688 29.772624969482421875 28.688262939453125 28.887420654296875 27.30124664306640625 24.1464385986328125 23.913532257080078125 27.915937423706054688 29.4786376953125 25.762880325317382812 24.651561737060546875 27.716783523559570312 30.428964614868164062 31.616189956665039062 31.687244415283203125 32.384815216064453125 33.784435272216796875 30.287656784057617188 24.052183151245117188 18.484159469604492188 16.82936859130859375 14.927912712097167969 8.1045093536376953125 4.8854589462280273438 4.4881415367126464844 11.431630134582519531 18.9009857177734375 22.2841339111328125 21.518224716186523438 17.50231170654296875 13.543368339538574219 12.421837806701660156 18.555677413940429688 20.469951629638671875 5.3155717849731445312 18.281660079956054688 29.176851272583007812 25.39226531982421875 14.964749336242675781 8.744617462158203125 9.0647649765014648438 12.576463699340820312 14.912079811096191406 13.681431770324707031 13.185046195983886719 19.038351058959960938 25.915842056274414062 26.272680282592773438 20.746784210205078125 14.634917259216308594 11.483639717102050781 5.8897953033447265625 7.0811924934387207031 11.873842239379882812 15.770827293395996094 20.76731109619140625 25.108713150024414062 28.607843399047851562 29.107694625854492188 29.459400177001953125 31.11231231689453125 32.653179168701171875 26.222484588623046875 3.8801178932189941406 12.256232261657714844 13.256387710571289062 14.741119384765625 15.868869781494140625 15.931268692016601562 16.5132293701171875 12.627788543701171875 10.644473075866699219 10.709885597229003906 10.0307464599609375 11.322908401489257812 12.28310394287109375 13.995065689086914062 14.577518463134765625 15.088224411010742188 14.70941162109375 11.774412155151367188 9.2253503799438476562 10.01442718505859375 11.107791900634765625 15.349087715148925781 21.820226669311523438 24.6079254150390625 26.98993682861328125 28.283300399780273438 26.420675277709960938 23.2697296142578125 18.928907394409179688 -9999 
-9999 33.52259063720703125 38.660022735595703125 43.323558807373046875 43.866306304931640625 42.675342559814453125 40.127315521240234375 36.1876983642578125 30.9104461669921875 23.615530014038085938 18.807439804077148438 18.192373275756835938 18.577573776245117188 17.644079208374023438 16.445226669311523438 15.158967971801757812 14.170657157897949219 15.014752388000488281 17.875453948974609375 20.118259429931640625 20.219316482543945312 20.40410614013671875 24.296152114868164062 30.745794296264648438 35.47235870361328125 37.061336517333984375 36.704120635986328125 35.225856781005859375 34.609897613525390625 36.076465606689453125 37.869441986083984375 36.984455108642578125 36.21212005615234375 36.0662384033203125 37.076290130615234375 43.9112548828125 47.34429168701171875 44.2619781494140625 33.5451507568359375 19.736661911010742188 6.9044270515441894531 10.787886619567871094 22.800724029541015625 34.974742889404296875 47.062274932861328125 52.3125762939453125 48.349208831787109375 42.177120208740234375 30.433267593383789062 19.724256515502929688 41.982936859130859375 48.083049774169921875 45.73848724365234375 37.79107666015625 24.719194412231445312 14.206080436706542969 10.888515472412109375 7.3578510284423828125 3.7848784923553466797 15.598562240600585938 16.619579315185546875 14.944340705871582031 18.586683273315429688 18.523607254028320312 15.922429084777832031 12.777422904968261719 13.397465705871582031 15.375257492065429688 13.761040687561035156 13.282629013061523438 13.889781951904296875 11.438553810119628906 10.985200881958007812 14.514622688293457031 14.806583404541015625 14.200987815856933594 14.009647369384765625 15.313966751098632812 18.006000518798828125 19.76137542724609375 22.977886199951171875 26.975460052490234375 29.139944076538085938 29.184881210327148438 27.88777923583984375 27.012958526611328125 25.24613189697265625 22.94237518310546875 22.928209304809570312 26.68631744384765625 29.348554611206054688 30.190914154052734375 30.0709991455078125 28.901304244995117188 28.821760177612304688 29.416536331176757812 28.651994705200195312 29.841339111328125 32.82568359375 32.346836090087890625 27.81720733642578125 20.645986557006835938 17.948591232299804688 15.926383018493652344 8.5546016693115234375 3.9385769367218017578 3.2136216163635253906 5.9041566848754882812 11.272784233093261719 17.847011566162109375 21.584323883056640625 22.271219253540039062 18.960466384887695312 13.889257431030273438 14.427809715270996094 15.449068069458007812 6.9457402229309082031 11.459784507751464844 26.2573699951171875 29.419050216674804688 25.575986862182617188 20.882537841796875 18.421001434326171875 19.206491470336914062 20.239292144775390625 18.071199417114257812 14.741223335266113281 17.845060348510742188 24.845861434936523438 26.147306442260742188 21.209377288818359375 14.521483421325683594 10.592329978942871094 6.9480700492858886719 3.7327659130096435547 10.761483192443847656 14.989803314208984375 18.361597061157226562 22.2133941650390625 26.587236404418945312 29.26971435546875 29.939434051513671875 29.8082733154296875 31.267419815063476562 28.896516799926757812 12.23073577880859375 9.15274810791015625 15.5529022216796875 20.73337554931640625 22.634191513061523438 19.599521636962890625 12.883563995361328125 7.1155853271484375 15.115588188171386719 15.92426300048828125 13.385354042053222656 12.173370361328125 13.298731803894042969 15.2598724365234375 16.256238937377929688 16.964097976684570312 16.468875885009765625 14.971896171569824219 14.510321617126464844 15.782330513000488281 18.154989242553710938 19.780786514282226562 22.036684036254882812 25.1074066162109375 27.240383148193359375 27.68402099609375 26.364871978759765625 24.46869659423828125 20.871999740600585938 -9999 
-9999 34.328678131103515625 38.800571441650390625 43.778717041015625 44.1074371337890625 43.0807647705078125 43.90283966064453125 42.0259857177734375 36.27059173583984375 28.059965133666992188 22.263303756713867188 21.843023300170898438 22.862665176391601562 23.237642288208007812 24.314367294311523438 24.9886016845703125 24.56452178955078125 24.715362548828125 25.71703338623046875 28.085271835327148438 32.084804534912109375 35.97212982177734375 39.512630462646484375 42.68967437744140625 44.52768707275390625 44.606121063232421875 43.81414794921875 43.4085845947265625 44.5458221435546875 47.87252044677734375 48.384601593017578125 43.28969573974609375 38.624114990234375 37.192577362060546875 36.993488311767578125 41.970157623291015625 47.520565032958984375 48.969951629638671875 44.5099029541015625 36.36464691162109375 27.696094512939453125 19.439962387084960938 7.3021335601806640625 12.361771583557128906 32.66201019287109375 46.19437408447265625 47.6770172119140625 43.834014892578125 39.119701385498046875 21.287715911865234375 33.589229583740234375 47.658966064453125 47.12020111083984375 39.610752105712890625 26.061800003051757812 13.825404167175292969 11.732454299926757812 8.3433599472045898438 2.3510851860046386719 12.85318756103515625 19.532100677490234375 20.431711196899414062 18.758802413940429688 16.487470626831054688 13.898898124694824219 11.816990852355957031 15.367377281188964844 17.843837738037109375 14.320486068725585938 11.68376922607421875 12.107728958129882812 13.571349143981933594 15.8070831298828125 13.419705390930175781 10.901732444763183594 12.870442390441894531 14.874856948852539062 15.969378471374511719 18.169889450073242188 21.060770034790039062 24.367971420288085938 27.233272552490234375 28.303236007690429688 28.32366180419921875 27.7818603515625 26.180736541748046875 25.185207366943359375 25.551998138427734375 25.989513397216796875 27.304426193237304688 28.321928024291992188 28.381656646728515625 28.066699981689453125 26.361494064331054688 26.715257644653320312 29.429338455200195312 29.035100936889648438 28.39359283447265625 30.705211639404296875 32.359066009521484375 29.37458038330078125 22.50081634521484375 18.762865066528320312 14.957806587219238281 7.8796567916870117188 2.9589273929595947266 3.2434840202331542969 7.5266671180725097656 6.4242863655090332031 6.3736295700073242188 10.248122215270996094 14.670876502990722656 17.612443923950195312 14.873865127563476562 8.7656421661376953125 9.8628797531127929688 9.745220184326171875 2.9407837390899658203 18.229574203491210938 25.82904815673828125 26.823070526123046875 24.847654342651367188 22.390089035034179688 21.9964447021484375 23.122339248657226562 23.309795379638671875 20.809057235717773438 20.5209808349609375 25.12467193603515625 25.959911346435546875 21.595006942749023438 15.264826774597167969 10.523062705993652344 8.8490467071533203125 3.8842864036560058594 9.5130825042724609375 14.419634819030761719 16.79079437255859375 19.60216522216796875 23.560697555541992188 28.877605438232421875 31.816753387451171875 30.28021240234375 29.952539443969726562 30.374891281127929688 19.724498748779296875 6.8575954437255859375 12.853769302368164062 17.096391677856445312 16.938302993774414062 13.566378593444824219 7.5323729515075683594 13.437054634094238281 19.892095565795898438 19.966533660888671875 17.258543014526367188 14.566487312316894531 14.627820014953613281 16.199859619140625 17.401090621948242188 18.586462020874023438 18.356319427490234375 16.795040130615234375 16.076007843017578125 17.9853057861328125 22.37949371337890625 23.954347610473632812 22.5905303955078125 23.329435348510742188 26.443143844604492188 27.124755859375 26.0721282958984375 24.2585906982421875 20.005588531494140625 -9999 
-9999 37.21539306640625 39.471240997314453125 45.44598388671875 47.122585296630859375 44.60710906982421875 44.835391998291015625 44.71369171142578125 40.07977294921875 31.52683258056640625 27.67668914794921875 29.154687881469726562 29.58808135986328125 28.738250732421875 29.9627532958984375 32.11988067626953125 32.84712982177734375 32.198352813720703125 31.749650955200195312 34.241336822509765625 38.53739166259765625 40.37644195556640625 40.980045318603515625 43.22608184814453125 44.341159820556640625 43.758144378662109375 43.30785369873046875 45.9104461669921875 50.27773284912109375 52.23705291748046875 48.2260589599609375 41.241916656494140625 37.876789093017578125 39.1677398681640625 39.818988800048828125 43.41357421875 48.4917755126953125 50.508121490478515625 48.025726318359375 41.291652679443359375 33.895931243896484375 30.664194107055664062 25.69771575927734375 13.746454238891601562 10.7970123291015625 30.0805206298828125 39.1044769287109375 40.205661773681640625 40.44863128662109375 30.215221405029296875 26.562982559204101562 45.153446197509765625 46.239673614501953125 40.1359710693359375 28.225328445434570312 15.212452888488769531 12.349938392639160156 8.4413633346557617188 1.2934789657592773438 8.51027679443359375 19.498228073120117188 25.603376388549804688 20.57526397705078125 14.35807037353515625 11.937808036804199219 9.8095874786376953125 14.397373199462890625 17.377424240112304688 13.566798210144042969 10.781447410583496094 12.964597702026367188 16.82711029052734375 14.963581085205078125 9.544651031494140625 9.5349493026733398438 12.320161819458007812 15.055541038513183594 16.77483367919921875 18.707113265991210938 21.422061920166015625 23.669277191162109375 25.829936981201171875 26.905712127685546875 27.331060409545898438 28.613964080810546875 28.212368011474609375 28.452207565307617188 29.53200531005859375 28.216304779052734375 25.357904434204101562 23.42072296142578125 25.444034576416015625 30.832141876220703125 32.14832305908203125 32.312961578369140625 33.75101470947265625 32.138751983642578125 30.406343460083007812 30.498090744018554688 30.277587890625 27.221197128295898438 22.088863372802734375 18.984010696411132812 13.785940170288085938 7.5773577690124511719 6.5634827613830566406 8.0743074417114257812 11.888911247253417969 12.21717071533203125 4.2566699981689453125 1.3046464920043945312 2.3772606849670410156 4.8757333755493164062 8.2647705078125 5.1882662773132324219 4.316875457763671875 10.959759712219238281 6.0864248275756835938 7.0802736282348632812 15.15642547607421875 16.843954086303710938 16.498064041137695312 15.963900566101074219 16.340673446655273438 17.896375656127929688 20.374591827392578125 21.924676895141601562 22.700344085693359375 25.517498016357421875 26.032812118530273438 22.173730850219726562 15.486066818237304688 10.982499122619628906 11.103549957275390625 6.7911844253540039062 7.9655785560607910156 12.955092430114746094 15.961790084838867188 18.125461578369140625 21.216234207153320312 27.282321929931640625 31.71601104736328125 30.998172760009765625 30.11057281494140625 30.93896484375 24.340528488159179688 10.928631782531738281 9.4344377517700195312 8.3435411453247070312 6.0215716361999511719 13.669198036193847656 17.712827682495117188 19.0348663330078125 20.513177871704101562 20.746065139770507812 16.67638397216796875 12.663823127746582031 12.830768585205078125 14.814112663269042969 16.656284332275390625 18.592601776123046875 18.71543121337890625 16.9061126708984375 15.5776519775390625 16.358331680297851562 21.081548690795898438 22.4633941650390625 22.216924667358398438 23.67610931396484375 25.205732345581054688 25.514125823974609375 25.267759323120117188 23.874408721923828125 19.174665451049804688 -9999 
-9999 38.35559844970703125 39.543102264404296875 45.78580474853515625 49.72386932373046875 47.103057861328125 44.804168701171875 44.800769805908203125 41.153911590576171875 31.294736862182617188 31.420412063598632812 35.468547821044921875 36.0929412841796875 33.639133453369140625 34.14361572265625 37.607257843017578125 40.73907470703125 40.80257415771484375 38.252105712890625 38.4322052001953125 40.7841949462890625 41.125030517578125 41.518314361572265625 45.23740386962890625 47.62464141845703125 48.59238433837890625 45.898929595947265625 45.513042449951171875 48.18393707275390625 45.41847991943359375 41.924373626708984375 38.552082061767578125 41.80242919921875 42.8646240234375 41.0595855712890625 40.089015960693359375 43.530109405517578125 46.479167938232421875 45.46221923828125 39.84973907470703125 32.871250152587890625 33.547374725341796875 34.9913482666015625 29.706256866455078125 14.341828346252441406 11.419986724853515625 27.3295745849609375 35.374179840087890625 39.9958648681640625 33.770488739013671875 24.602386474609375 38.439296722412109375 42.486042022705078125 40.03995513916015625 31.025587081909179688 18.454692840576171875 13.257443428039550781 9.0108194351196289062 2.3461589813232421875 4.0609445571899414062 15.719232559204101562 27.684343338012695312 25.648929595947265625 16.017641067504882812 12.723132133483886719 13.473352432250976562 17.202459335327148438 16.867033004760742188 11.974884986877441406 10.718319892883300781 13.366855621337890625 16.125932693481445312 12.504363059997558594 9.2922029495239257812 10.093220710754394531 11.903225898742675781 14.893426895141601562 17.696956634521484375 19.76459503173828125 21.279277801513671875 21.474504470825195312 23.00545501708984375 24.062395095825195312 23.581972122192382812 24.76224517822265625 23.863096237182617188 22.54750823974609375 25.027761459350585938 26.18408966064453125 27.308773040771484375 29.750284194946289062 31.791326522827148438 34.045085906982421875 33.56067657470703125 32.639049530029296875 32.461872100830078125 30.742156982421875 30.336221694946289062 29.382452011108398438 26.8875274658203125 22.896991729736328125 18.959550857543945312 16.7192535400390625 12.920895576477050781 10.252500534057617188 10.708499908447265625 11.229167938232421875 14.100163459777832031 16.681407928466796875 12.495877265930175781 8.2166538238525390625 6.7481436729431152344 4.4636797904968261719 3.5017330646514892578 5.6793694496154785156 1.8486255407333374023 9.8148965835571289062 9.507045745849609375 9.421627044677734375 18.192699432373046875 23.37259674072265625 23.463209152221679688 20.05606842041015625 16.38996124267578125 15.061700820922851562 16.48709869384765625 18.771984100341796875 21.267597198486328125 24.293365478515625 25.5200958251953125 23.060304641723632812 15.786402702331542969 10.898838996887207031 12.398596763610839844 8.8772745132446289062 6.6948499679565429688 10.903588294982910156 14.656254768371582031 16.814519882202148438 19.949735641479492188 25.64740753173828125 29.934803009033203125 30.477804183959960938 30.830896377563476562 31.116580963134765625 26.600175857543945312 16.889739990234375 11.888118743896484375 6.3510894775390625 8.29582977294921875 20.083133697509765625 22.190509796142578125 18.169847488403320312 17.44635009765625 18.845697402954101562 14.086827278137207031 9.3876256942749023438 10.435041427612304688 12.448678016662597656 14.064202308654785156 16.399524688720703125 16.83170318603515625 14.915282249450683594 14.758515357971191406 16.20849609375 20.288360595703125 21.0753173828125 18.252817153930664062 20.212116241455078125 23.010942459106445312 23.400798797607421875 23.914257049560546875 22.643341064453125 17.879117965698242188 -9999 
-9999 37.042552947998046875 33.10863494873046875 36.12191009521484375 42.986019134521484375 44.1693267822265625 43.9798431396484375 45.657886505126953125 41.043121337890625 27.847049713134765625 33.878200531005859375 37.40503692626953125 38.36486053466796875 34.6958160400390625 35.055393218994140625 39.582988739013671875 42.689922332763671875 42.222591400146484375 38.7139892578125 36.99340057373046875 37.4031829833984375 37.5005950927734375 39.502750396728515625 44.00677490234375 46.62328338623046875 51.041553497314453125 52.73096466064453125 50.11121368408203125 44.193393707275390625 35.705249786376953125 36.53989410400390625 37.0145111083984375 43.168292999267578125 40.309741973876953125 32.660877227783203125 31.653179168701171875 39.1002960205078125 42.127777099609375 39.248767852783203125 34.868038177490234375 34.005126953125 36.9759063720703125 39.9810791015625 37.0260162353515625 27.3009490966796875 8.030628204345703125 15.474626541137695312 30.334667205810546875 39.97812652587890625 37.72582244873046875 26.307542800903320312 28.004438400268554688 37.268512725830078125 38.062713623046875 31.507024765014648438 21.951120376586914062 16.118879318237304688 12.810547828674316406 9.1696147918701171875 3.2965924739837646484 8.6489353179931640625 25.090763092041015625 30.535219192504882812 22.028034210205078125 15.123723030090332031 15.784438133239746094 17.638257980346679688 13.836464881896972656 8.5091686248779296875 9.5047369003295898438 12.251279830932617188 14.18475341796875 11.651106834411621094 11.336899757385253906 13.361388206481933594 12.715291023254394531 14.484174728393554688 18.097553253173828125 21.034137725830078125 21.064130783081054688 19.582683563232421875 21.68640899658203125 23.320178985595703125 21.682691574096679688 21.355367660522460938 22.53566741943359375 26.928461074829101562 32.437408447265625 33.13538360595703125 32.807498931884765625 32.97299957275390625 32.558620452880859375 32.93829345703125 31.266809463500976562 30.339664459228515625 30.180616378784179688 29.811130523681640625 30.223157882690429688 26.488267898559570312 21.945453643798828125 18.705387115478515625 15.986763954162597656 12.338501930236816406 9.503376007080078125 10.787091255187988281 11.66448974609375 11.54021453857421875 13.587420463562011719 16.270956039428710938 14.911756515502929688 11.587668418884277344 8.9896345138549804688 7.1154541969299316406 5.9092621803283691406 6.1049108505249023438 3.7830927371978759766 7.8562150001525878906 9.6099100112915039062 15.246378898620605469 26.419925689697265625 29.545148849487304688 25.70288848876953125 21.281030654907226562 18.5361785888671875 17.0573577880859375 16.487287521362304688 15.929480552673339844 17.724639892578125 21.034257888793945312 23.308736801147460938 22.729433059692382812 15.8608245849609375 10.129490852355957031 12.096022605895996094 9.4578371047973632812 6.3963265419006347656 9.4829931259155273438 12.723862648010253906 15.145689010620117188 18.579584121704101562 23.836488723754882812 28.3277740478515625 29.82720184326171875 30.863880157470703125 31.3162689208984375 28.22206878662109375 21.00482940673828125 14.91165924072265625 6.9622888565063476562 10.105971336364746094 22.709564208984375 22.62506866455078125 15.464479446411132812 13.402791023254394531 15.716502189636230469 12.62638092041015625 8.0782899856567382812 9.1623106002807617188 10.689402580261230469 11.577759742736816406 14.341829299926757812 15.539641380310058594 12.7788543701171875 10.350955009460449219 12.599116325378417969 18.681362152099609375 20.89113616943359375 17.348236083984375 17.78514862060546875 21.014842987060546875 21.5963897705078125 22.164648056030273438 19.923372268676757812 15.93896484375 -9999 
-9999 28.474527359008789062 21.568675994873046875 26.632123947143554688 33.53208160400390625 35.96380615234375 37.96527862548828125 43.9121551513671875 37.803195953369140625 25.844287872314453125 36.144344329833984375 36.61629486083984375 38.560604095458984375 34.535106658935546875 34.706768035888671875 39.2583160400390625 40.4046478271484375 39.8783111572265625 37.048999786376953125 34.33226776123046875 33.50371551513671875 33.627628326416015625 36.636760711669921875 41.276454925537109375 42.790309906005859375 44.762371063232421875 50.275146484375 49.570323944091796875 40.77010345458984375 35.981231689453125 32.4784393310546875 36.905223846435546875 37.662776947021484375 28.079034805297851562 27.803102493286132812 37.10169219970703125 39.607822418212890625 36.70330810546875 32.736339569091796875 35.95955657958984375 40.41133880615234375 42.6404876708984375 45.1737060546875 41.48249053955078125 35.045162200927734375 22.865167617797851562 6.1534709930419921875 20.181848526000976562 35.135974884033203125 38.514247894287109375 29.549350738525390625 19.51628875732421875 32.18968963623046875 34.695049285888671875 28.215955734252929688 21.041767120361328125 16.57291412353515625 14.099555015563964844 13.732882499694824219 11.185622215270996094 1.4975099563598632812 18.598680496215820312 32.46891021728515625 27.749502182006835938 17.226594924926757812 17.23443603515625 18.273851394653320312 12.116586685180664062 6.6508817672729492188 7.6583890914916992188 10.017068862915039062 12.045475006103515625 11.133106231689453125 13.137263298034667969 15.894312858581542969 14.183349609375 15.556200027465820312 20.069715499877929688 22.74237823486328125 20.802562713623046875 18.521030426025390625 21.955474853515625 25.625301361083984375 24.271114349365234375 23.424303054809570312 26.197347640991210938 30.374725341796875 33.48212432861328125 32.632904052734375 29.700761795043945312 27.91129302978515625 29.4160919189453125 30.639722824096679688 27.119573593139648438 25.69702911376953125 27.604681015014648438 29.63570404052734375 30.105298995971679688 25.812314987182617188 21.933513641357421875 18.6791229248046875 15.082808494567871094 9.5997219085693359375 7.5713458061218261719 10.179636001586914062 11.845364570617675781 11.941496849060058594 13.06745147705078125 14.551795005798339844 14.033421516418457031 11.84922027587890625 10.352080345153808594 9.19739532470703125 7.7011871337890625 6.1227178573608398438 5.2757973670959472656 7.0274763107299804688 9.7663965225219726562 17.625614166259765625 26.918024063110351562 24.364593505859375 15.828589439392089844 12.234805107116699219 11.985416412353515625 12.410658836364746094 12.663794517517089844 12.380946159362792969 14.053051948547363281 17.581676483154296875 20.683078765869140625 21.010782241821289062 14.754893302917480469 8.873317718505859375 10.973026275634765625 8.7542724609375 5.7630414962768554688 8.20226287841796875 10.6798095703125 13.727643013000488281 16.548513412475585938 20.589935302734375 25.92333984375 29.0798797607421875 30.440019607543945312 31.571226119995117188 29.890834808349609375 24.23273468017578125 18.410320281982421875 8.8992547988891601562 9.1303625106811523438 22.998844146728515625 24.177911758422851562 16.176166534423828125 10.714189529418945312 12.445773124694824219 12.679637908935546875 10.85257720947265625 11.028470993041992188 11.026102066040039062 11.252438545227050781 14.37383270263671875 16.53614044189453125 15.412940025329589844 13.595331192016601562 12.930453300476074219 17.675579071044921875 21.023035049438476562 18.256513595581054688 17.025026321411132812 19.054019927978515625 19.834735870361328125 18.7857513427734375 17.171085357666015625 15.644647598266601562 -9999 
-9999 24.949682235717773438 30.00414276123046875 33.22173309326171875 34.966320037841796875 36.22382354736328125 37.125835418701171875 38.49562835693359375 26.749647140502929688 29.342065811157226562 37.220767974853515625 34.91161346435546875 38.864086151123046875 35.564464569091796875 34.302310943603515625 38.780635833740234375 38.724880218505859375 40.796306610107421875 39.65378570556640625 35.727077484130859375 32.6618804931640625 32.223297119140625 35.21775054931640625 39.294467926025390625 40.251277923583984375 37.71997833251953125 37.071178436279296875 37.145259857177734375 36.677455902099609375 34.5339813232421875 28.964895248413085938 35.39971160888671875 27.769727706909179688 25.97808074951171875 37.063594818115234375 37.730976104736328125 31.216039657592773438 34.561977386474609375 39.88481903076171875 39.55052947998046875 39.2044525146484375 44.07476806640625 48.301181793212890625 45.6111602783203125 40.807186126708984375 33.3440093994140625 19.14826202392578125 6.8318309783935546875 22.583292007446289062 33.598819732666015625 31.977495193481445312 19.136091232299804688 27.804412841796875 31.318193435668945312 24.175748825073242188 16.658769607543945312 14.29782867431640625 11.875576019287109375 10.896624565124511719 13.098352432250976562 8.8739767074584960938 10.677351951599121094 31.938232421875 30.683073043823242188 17.900960922241210938 17.40616607666015625 19.7991485595703125 15.194563865661621094 8.2248220443725585938 6.0339198112487792969 7.0744309425354003906 9.0650415420532226562 9.4807672500610351562 12.68315887451171875 15.686797142028808594 15.364362716674804688 17.757534027099609375 22.644403457641601562 23.864147186279296875 21.248735427856445312 19.220205307006835938 21.336572647094726562 25.15755462646484375 24.762487411499023438 24.350732803344726562 27.041128158569335938 29.30100250244140625 31.338586807250976562 30.985830307006835938 25.5603179931640625 22.11695098876953125 27.100925445556640625 30.198049545288085938 25.863498687744140625 23.679851531982421875 26.67050933837890625 29.78070068359375 29.329599380493164062 25.9139556884765625 23.822055816650390625 20.999540328979492188 16.912805557250976562 10.377045631408691406 7.5603246688842773438 10.138281822204589844 12.322366714477539062 11.934702873229980469 12.550128936767578125 13.476808547973632812 13.282752037048339844 11.631264686584472656 11.153378486633300781 10.778261184692382812 8.3977899551391601562 5.146671295166015625 6.0536489486694335938 7.6816515922546386719 10.290435791015625 15.044291496276855469 22.851549148559570312 18.796442031860351562 9.5190629959106445312 8.7070865631103515625 8.8504743576049804688 8.0719442367553710938 8.7550287246704101562 9.4297466278076171875 11.284884452819824219 15.519566535949707031 19.27105712890625 19.840574264526367188 14.327535629272460938 8.7019109725952148438 10.536494255065917969 10.025980949401855469 5.2898745536804199219 6.5973935127258300781 8.7210931777954101562 12.473524093627929688 15.378069877624511719 17.540422439575195312 22.022823333740234375 26.8039398193359375 29.384552001953125 31.477497100830078125 31.436120986938476562 27.576032638549804688 22.2869110107421875 11.999606132507324219 4.8830957412719726562 20.2090606689453125 25.834959030151367188 20.831933975219726562 13.471164703369140625 11.9038238525390625 12.262217521667480469 12.044046401977539062 12.678200721740722656 12.223824501037597656 11.636460304260253906 13.393343925476074219 14.102022171020507812 13.562901496887207031 14.891109466552734375 16.949069976806640625 21.138532638549804688 24.234319686889648438 21.883123397827148438 18.041172027587890625 16.640491485595703125 16.714330673217773438 16.6111297607421875 17.5268707275390625 17.177000045776367188 -9999 
-9999 34.134075164794921875 36.61151123046875 35.6835174560546875 34.674793243408203125 35.8880462646484375 33.968830108642578125 24.164745330810546875 22.518291473388671875 36.35083770751953125 39.230712890625 36.64078521728515625 41.246524810791015625 39.109477996826171875 33.3643951416015625 38.32810211181640625 37.027339935302734375 40.91463470458984375 42.26702117919921875 39.73844146728515625 34.806644439697265625 32.08160400390625 34.11318206787109375 36.645885467529296875 37.6980438232421875 34.241405487060546875 26.198881149291992188 30.74114227294921875 36.309856414794921875 31.142980575561523438 27.06484222412109375 26.905237197875976562 20.905426025390625 33.729427337646484375 35.52718353271484375 36.776397705078125 45.315502166748046875 50.460010528564453125 48.347332000732421875 39.81780242919921875 34.8645172119140625 42.4608001708984375 47.292842864990234375 46.342212677001953125 43.204303741455078125 37.58094024658203125 27.854024887084960938 14.509203910827636719 6.6078777313232421875 23.878509521484375 32.768344879150390625 25.810174942016601562 24.02094268798828125 27.091085433959960938 20.311273574829101562 12.126320838928222656 11.071582794189453125 10.436748504638671875 8.2795553207397460938 10.52368927001953125 10.398785591125488281 5.1374607086181640625 30.090274810791015625 31.77272796630859375 17.009553909301757812 15.219637870788574219 20.75962066650390625 20.161890029907226562 12.99273681640625 6.6050119400024414062 5.1557760238647460938 7.0755376815795898438 8.615680694580078125 11.051970481872558594 14.725550651550292969 16.950771331787109375 19.157268524169921875 23.405721664428710938 25.025732040405273438 22.336168289184570312 19.259664535522460938 19.069547653198242188 22.595506668090820312 24.461217880249023438 25.790388107299804688 28.474582672119140625 29.056598663330078125 29.850408554077148438 30.609073638916015625 25.17437744140625 20.05316925048828125 24.788209915161132812 29.172086715698242188 27.186323165893554688 25.452136993408203125 27.515682220458984375 29.631235122680664062 27.906436920166015625 25.310455322265625 24.986684799194335938 24.961271286010742188 22.725597381591796875 14.416405677795410156 7.593097686767578125 9.8924112319946289062 10.472930908203125 10.082455635070800781 12.595912933349609375 12.950649261474609375 12.439197540283203125 12.695691108703613281 12.847468376159667969 12.3545379638671875 10.544758796691894531 6.0239820480346679688 7.5925221443176269531 8.0510187149047851562 7.7392120361328125 8.2991189956665039062 18.448228836059570312 18.396059036254882812 10.274122238159179688 9.7490406036376953125 9.4420118331909179688 7.8324837684631347656 8.974620819091796875 9.5590953826904296875 10.935801506042480469 15.129064559936523438 18.43904876708984375 19.088254928588867188 14.0667724609375 7.7897663116455078125 9.1068782806396484375 10.95688629150390625 6.5364284515380859375 5.6920628547668457031 7.7995562553405761719 10.991217613220214844 14.644252777099609375 16.218931198120117188 18.775278091430664062 23.306119918823242188 26.836732864379882812 29.744508743286132812 31.92127227783203125 30.942792892456054688 26.018459320068359375 14.749757766723632812 7.9495296478271484375 16.60886383056640625 21.46045684814453125 19.097278594970703125 13.893550872802734375 11.466981887817382812 11.078341484069824219 11.669580459594726562 13.6600189208984375 15.381140708923339844 17.618682861328125 19.237947463989257812 18.17806243896484375 17.885877609252929688 21.011789321899414062 24.050943374633789062 25.907243728637695312 25.191198348999023438 21.542367935180664062 15.953621864318847656 14.344199180603027344 15.502312660217285156 16.702650070190429688 17.518259048461914062 15.03540802001953125 -9999 
-9999 37.167209625244140625 36.83843994140625 33.867618560791015625 31.341672897338867188 31.364749908447265625 22.668247222900390625 22.43724822998046875 36.6204376220703125 41.936481475830078125 42.029598236083984375 38.85735321044921875 41.8881988525390625 41.881343841552734375 32.67501068115234375 37.537567138671875 34.86048126220703125 38.022274017333984375 41.022762298583984375 40.06813812255859375 35.314220428466796875 30.625680923461914062 33.35784149169921875 35.561153411865234375 36.294536590576171875 31.127752304077148438 22.4735565185546875 32.823757171630859375 35.253963470458984375 26.839405059814453125 23.116487503051757812 18.282732009887695312 26.6359405517578125 33.539402008056640625 41.550018310546875 50.668598175048828125 52.410533905029296875 49.18811798095703125 47.152225494384765625 38.04308319091796875 31.975467681884765625 40.047061920166015625 44.337978363037109375 43.829242706298828125 41.733127593994140625 36.47409820556640625 29.937992095947265625 25.18247222900390625 15.483057022094726562 5.0520830154418945312 24.474683761596679688 29.293840408325195312 24.025751113891601562 22.560146331787109375 16.314561843872070312 9.5570898056030273438 9.2668848037719726562 10.299941062927246094 10.148921012878417969 10.249007225036621094 8.7791528701782226562 2.4802350997924804688 26.754730224609375 31.886106491088867188 17.903835296630859375 13.217953681945800781 19.576812744140625 21.825696945190429688 17.132246017456054688 9.2357358932495117188 4.3835034370422363281 6.9092893600463867188 9.3603315353393554688 10.7590484619140625 14.809588432312011719 18.261022567749023438 19.435174942016601562 23.08284759521484375 26.153619766235351562 22.789722442626953125 18.397809982299804688 17.958139419555664062 21.19174957275390625 24.664957046508789062 26.682989120483398438 29.36238861083984375 29.29688262939453125 27.896633148193359375 29.012830734252929688 25.577482223510742188 20.39136505126953125 22.630870819091796875 26.586078643798828125 26.892423629760742188 27.330074310302734375 29.105436325073242188 28.926427841186523438 25.935655593872070312 25.160030364990234375 26.982469558715820312 29.043628692626953125 29.372974395751953125 20.906446456909179688 10.313617706298828125 11.013895988464355469 9.5335283279418945312 9.5769596099853515625 13.364782333374023438 13.214774131774902344 12.787374496459960938 13.921520233154296875 14.136425971984863281 14.065472602844238281 13.184698104858398438 8.372882843017578125 6.978214263916015625 5.0972895622253417969 2.791412353515625 2.3366503715515136719 13.534832954406738281 19.24163818359375 16.07836151123046875 15.267858505249023438 14.846676826477050781 13.470022201538085938 13.509909629821777344 12.639492988586425781 12.409862518310546875 15.609072685241699219 17.939512252807617188 18.270383834838867188 13.144961357116699219 6.2743325233459472656 6.4598436355590820312 9.294040679931640625 7.6136221885681152344 5.6567554473876953125 7.7678580284118652344 9.754344940185546875 12.967679023742675781 15.220088005065917969 17.096738815307617188 20.309177398681640625 23.7904510498046875 27.472150802612304688 31.252061843872070312 32.839038848876953125 29.053880691528320312 16.84764862060546875 12.676067352294921875 20.715900421142578125 24.408830642700195312 23.752725601196289062 22.186414718627929688 21.410055160522460938 21.2025146484375 22.149372100830078125 23.499006271362304688 23.7825164794921875 23.28643035888671875 22.00951385498046875 20.388580322265625 21.309719085693359375 23.384979248046875 22.3420562744140625 19.267332077026367188 15.693536758422851562 17.048185348510742188 19.6947021484375 17.948579788208007812 15.668176651000976562 16.324337005615234375 15.795606613159179688 12.149569511413574219 -9999 
-9999 36.512798309326171875 34.551555633544921875 30.294528961181640625 26.40955352783203125 21.994213104248046875 20.722074508666992188 36.494144439697265625 42.59815216064453125 44.383563995361328125 43.64032745361328125 38.463504791259765625 39.248409271240234375 40.89748382568359375 34.41989898681640625 37.839447021484375 34.716461181640625 33.535709381103515625 36.751354217529296875 36.8208465576171875 33.680454254150390625 27.566387176513671875 32.573394775390625 36.15032196044921875 36.651004791259765625 29.584604263305664062 23.66063690185546875 34.005828857421875 34.090343475341796875 22.9760894775390625 21.826801300048828125 22.48180389404296875 31.693872451782226562 37.5325469970703125 42.2946319580078125 41.035564422607421875 32.72362518310546875 34.854297637939453125 38.344257354736328125 34.904266357421875 37.5037384033203125 44.179439544677734375 45.44486236572265625 41.21895599365234375 35.23128509521484375 31.522287368774414062 34.685546875 36.22525787353515625 31.258977890014648438 19.341577529907226562 6.2217397689819335938 20.351736068725585938 23.477861404418945312 20.516080856323242188 14.782532691955566406 10.1387786865234375 9.0357275009155273438 10.403912544250488281 11.659106254577636719 9.2217884063720703125 6.6121907234191894531 1.0750509500503540039 21.415409088134765625 31.145961761474609375 21.752559661865234375 14.435300827026367188 18.539205551147460938 21.155950546264648438 19.616241455078125 12.440020561218261719 5.8998622894287109375 7.6705718040466308594 11.003160476684570312 12.554721832275390625 15.761790275573730469 18.92305755615234375 19.985593795776367188 22.99880218505859375 26.389636993408203125 23.017198562622070312 18.597660064697265625 18.327199935913085938 20.313581466674804688 24.6463623046875 27.502779006958007812 30.1075286865234375 29.712263107299804688 25.95196533203125 26.237939834594726562 24.917926788330078125 21.255290985107421875 21.308929443359375 23.827962875366210938 25.924547195434570312 28.622655868530273438 30.2651824951171875 27.858583450317382812 25.66214752197265625 28.057041168212890625 29.766977310180664062 30.758787155151367188 33.165790557861328125 26.752597808837890625 14.84859466552734375 13.239038467407226562 10.772542953491210938 10.862925529479980469 13.9046478271484375 14.196180343627929688 13.763032913208007812 12.195044517517089844 10.912967681884765625 12.064357757568359375 12.374550819396972656 7.1910114288330078125 0.54355257749557495117 4.2241072654724121094 3.9418690204620361328 4.2152628898620605469 10.406461715698242188 19.853336334228515625 22.675245285034179688 22.224863052368164062 19.89697265625 16.96964263916015625 17.10986328125 16.642131805419921875 14.6404266357421875 15.726039886474609375 17.369838714599609375 17.301671981811523438 11.93723297119140625 5.9513120651245117188 6.2372894287109375 8.8646602630615234375 9.2121610641479492188 6.7404375076293945312 7.1545772552490234375 9.3319988250732421875 11.189535140991210938 13.247844696044921875 15.334885597229003906 17.863142013549804688 21.099351882934570312 25.1006317138671875 29.370622634887695312 32.5220947265625 30.943765640258789062 18.856779098510742188 14.837671279907226562 23.881839752197265625 26.3941802978515625 25.24468994140625 23.838613510131835938 22.732213973999023438 21.781208038330078125 21.8670501708984375 21.309461593627929688 19.546442031860351562 17.9969482421875 16.986135482788085938 16.099374771118164062 16.284540176391601562 14.850682258605957031 11.182302474975585938 14.656551361083984375 20.53265380859375 25.019598007202148438 28.437589645385742188 29.404737472534179688 27.588451385498046875 24.276166915893554688 19.310718536376953125 14.931370735168457031 -9999 
-9999 33.161800384521484375 30.554040908813476562 24.677473068237304688 15.471654891967773438 17.034662246704101562 32.28897857666015625 40.08083343505859375 41.92028045654296875 43.68701934814453125 43.01111602783203125 37.588344573974609375 38.440830230712890625 37.650112152099609375 34.461963653564453125 38.30437469482421875 36.45645904541015625 33.200531005859375 34.782657623291015625 34.99350738525390625 33.12933349609375 26.9601593017578125 33.615814208984375 38.1335296630859375 36.439754486083984375 26.95755767822265625 26.312824249267578125 34.071685791015625 33.15891265869140625 22.43743133544921875 25.364133834838867188 29.223699569702148438 35.55934906005859375 35.652584075927734375 27.28392791748046875 20.70751953125 37.598423004150390625 44.461460113525390625 44.28253936767578125 44.07013702392578125 43.89229583740234375 43.34259796142578125 38.984256744384765625 30.43004608154296875 27.927156448364257812 34.179157257080078125 38.347286224365234375 40.229206085205078125 39.14907073974609375 34.616176605224609375 24.267974853515625 8.0315427780151367188 9.4740276336669921875 11.723780632019042969 10.261065483093261719 8.5707483291625976562 7.8192467689514160156 8.7034959793090820312 9.9526090621948242188 7.597438812255859375 6.4197173118591308594 3.8890366554260253906 13.823873519897460938 28.616725921630859375 25.139932632446289062 17.01871490478515625 16.9307708740234375 19.01001739501953125 18.670164108276367188 12.68852996826171875 6.305408477783203125 6.9946136474609375 10.936267852783203125 13.885576248168945312 16.299890518188476562 18.412641525268554688 19.938928604125976562 22.69458770751953125 25.680078506469726562 23.333347320556640625 19.909503936767578125 19.325908660888671875 19.74228668212890625 24.731992721557617188 28.479150772094726562 30.203542709350585938 29.31395721435546875 24.5605621337890625 23.926725387573242188 24.429559707641601562 22.821058273315429688 21.004789352416992188 21.606929779052734375 25.759496688842773438 29.686229705810546875 30.021612167358398438 28.501108169555664062 29.87839508056640625 32.01027679443359375 32.049564361572265625 31.670255661010742188 34.098186492919921875 29.826467514038085938 20.02776336669921875 16.20931243896484375 12.1461334228515625 11.652981758117675781 13.240281105041503906 11.96074676513671875 9.600559234619140625 9.0713987350463867188 9.1471757888793945312 9.1248388290405273438 11.195507049560546875 10.819067955017089844 8.3162126541137695312 9.0311346054077148438 9.2502393722534179688 8.7857990264892578125 11.872836112976074219 18.64252471923828125 24.490264892578125 26.05541229248046875 23.88797760009765625 19.132175445556640625 19.726488113403320312 21.345794677734375 17.676271438598632812 15.446599006652832031 15.682565689086914062 15.525780677795410156 10.81758880615234375 6.81851959228515625 7.2354679107666015625 8.9660539627075195312 9.69293975830078125 7.5359921455383300781 6.0774683952331542969 10.034584999084472656 10.804483413696289062 11.166635513305664062 12.614984512329101562 15.081506729125976562 18.649318695068359375 22.19342803955078125 26.432390213012695312 30.6589508056640625 31.168987274169921875 20.589717864990234375 16.900556564331054688 24.805784225463867188 23.945301055908203125 20.631778717041015625 17.492280960083007812 14.45548248291015625 12.600370407104492188 12.438772201538085938 10.667759895324707031 10.359729766845703125 11.991967201232910156 12.195362091064453125 11.0923919677734375 11.484475135803222656 11.410366058349609375 12.687611579895019531 15.184925079345703125 16.471220016479492188 17.254022598266601562 19.80210113525390625 24.2731781005859375 27.769573211669921875 26.689910888671875 22.275442123413085938 19.532337188720703125 -9999 
-9999 28.339923858642578125 24.275594711303710938 13.574993133544921875 11.406228065490722656 27.473455429077148438 36.19264984130859375 39.19640350341796875 40.309192657470703125 41.70629119873046875 38.877063751220703125 34.300296783447265625 38.0118255615234375 33.774631500244140625 31.302478790283203125 37.441410064697265625 38.36685943603515625 35.8121185302734375 35.683483123779296875 35.848575592041015625 33.786304473876953125 29.78546142578125 37.051174163818359375 40.72727203369140625 34.574779510498046875 23.848981857299804688 28.933385848999023438 33.098896026611328125 31.405490875244140625 23.482227325439453125 29.48858642578125 32.34905242919921875 32.351898193359375 27.784757614135742188 23.54816436767578125 32.989322662353515625 44.569667816162109375 45.436382293701171875 38.828037261962890625 36.485240936279296875 36.842754364013671875 34.99250030517578125 30.724752426147460938 31.3499603271484375 34.3836822509765625 35.60915374755859375 37.222789764404296875 40.124668121337890625 40.867733001708984375 40.38324737548828125 37.544834136962890625 29.131103515625 17.6240997314453125 11.417051315307617188 9.5465536117553710938 8.1280345916748046875 6.9483690261840820312 7.6535563468933105469 9.20037841796875 7.9102129936218261719 7.1749353408813476562 7.3972887992858886719 6.6484150886535644531 26.1494140625 28.996570587158203125 20.049230575561523438 16.730846405029296875 18.256198883056640625 16.076007843017578125 10.787021636962890625 7.119068145751953125 6.79095458984375 10.951418876647949219 15.370911598205566406 16.879770278930664062 18.036645889282226562 19.9564361572265625 22.041839599609375 24.348423004150390625 23.829441070556640625 21.315288543701171875 19.809881210327148438 19.534191131591796875 24.84243011474609375 28.992509841918945312 29.577512741088867188 28.546884536743164062 24.703893661499023438 23.443241119384765625 24.3690338134765625 24.048044204711914062 21.380733489990234375 21.0428009033203125 27.014842987060546875 31.55550384521484375 31.303590774536132812 32.634273529052734375 34.09288787841796875 34.01015472412109375 33.932537078857421875 33.23442840576171875 33.41229248046875 28.838895797729492188 23.076665878295898438 20.352666854858398438 16.20885467529296875 13.4790802001953125 12.695831298828125 11.439198493957519531 12.820675849914550781 14.890172958374023438 13.164503097534179688 11.777576446533203125 13.636490821838378906 13.200382232666015625 8.4515104293823242188 7.6431927680969238281 8.9675741195678710938 8.7400960922241210938 10.188287734985351562 11.699981689453125 15.321019172668457031 20.120944976806640625 20.791704177856445312 18.417406082153320312 20.580770492553710938 22.832601547241210938 19.73845672607421875 15.456507682800292969 13.405987739562988281 12.608887672424316406 8.6936597824096679688 7.1005525588989257812 7.4391245841979980469 7.9853529930114746094 8.6730098724365234375 7.9407777786254882812 5.7995028495788574219 10.339232444763183594 10.83586883544921875 10.236666679382324219 11.141648292541503906 13.341160774230957031 16.484136581420898438 19.010433197021484375 23.046865463256835938 27.475574493408203125 28.793025970458984375 19.970655441284179688 15.625390052795410156 21.588376998901367188 19.632282257080078125 15.932476043701171875 11.122325897216796875 9.0306987762451171875 11.423968315124511719 12.69013214111328125 11.707584381103515625 13.2902069091796875 15.501406669616699219 13.62432098388671875 11.432361602783203125 12.305410385131835938 11.768179893493652344 10.307527542114257812 9.198211669921875 8.6301250457763671875 9.9104709625244140625 16.234447479248046875 23.331762313842773438 27.651708602905273438 27.595027923583984375 24.499097824096679688 22.052988052368164062 -9999 
-9999 22.462162017822265625 13.85198974609375 10.51836395263671875 25.482204437255859375 32.9384002685546875 35.93265533447265625 37.589336395263671875 38.4267120361328125 39.169544219970703125 32.89056396484375 31.553533554077148438 36.87249755859375 30.662069320678710938 29.7551727294921875 37.706207275390625 39.818508148193359375 36.296321868896484375 36.309818267822265625 36.76300811767578125 34.72515106201171875 33.268108367919921875 40.262722015380859375 42.157684326171875 33.104969024658203125 27.341676712036132812 32.189113616943359375 31.940837860107421875 29.639184951782226562 25.285257339477539062 32.48101806640625 29.143705368041992188 27.349330902099609375 34.18761444091796875 34.597625732421875 32.473377227783203125 38.92059326171875 42.56353759765625 37.452911376953125 36.9593963623046875 37.991046905517578125 35.3836669921875 32.17073822021484375 33.9664306640625 34.87490081787109375 34.505512237548828125 36.8790130615234375 39.093601226806640625 38.743717193603515625 38.23248291015625 38.114154815673828125 36.553863525390625 32.5945892333984375 27.060274124145507812 21.123620986938476562 15.878630638122558594 12.020358085632324219 10.782242774963378906 11.163423538208007812 10.654966354370117188 10.28924560546875 10.291400909423828125 1.7214695215225219727 23.269365310668945312 31.595514297485351562 23.53507232666015625 17.191576004028320312 17.167123794555664062 14.066579818725585938 10.825021743774414062 8.4895038604736328125 7.6908626556396484375 11.083670616149902344 14.721316337585449219 16.701044082641601562 18.57822418212890625 20.357400894165039062 21.133235931396484375 23.083116531372070312 24.032724380493164062 21.407262802124023438 18.925348281860351562 19.015323638916015625 23.908170700073242188 28.019041061401367188 28.264492034912109375 27.813283920288085938 26.261850357055664062 25.1698455810546875 24.884122848510742188 24.874265670776367188 24.91939544677734375 25.277048110961914062 29.493818283081054688 33.728443145751953125 35.108242034912109375 36.72563934326171875 36.1485748291015625 35.657001495361328125 36.423236846923828125 35.806285858154296875 33.15338897705078125 26.797147750854492188 25.100984573364257812 25.1617584228515625 23.054821014404296875 19.782388687133789062 18.409893035888671875 15.987799644470214844 14.786185264587402344 14.13604736328125 10.745349884033203125 8.5436620712280273438 9.7628641128540039062 9.43896484375 4.6047148704528808594 1.7889016866683959961 2.6449916362762451172 4.3274350166320800781 6.8136706352233886719 5.9218797683715820312 10.4343414306640625 24.182298660278320312 27.037395477294921875 25.2147979736328125 22.6864166259765625 21.148797988891601562 19.51689910888671875 15.460693359375 11.863195419311523438 9.522541046142578125 5.0065169334411621094 5.841281890869140625 7.2603440284729003906 8.0470485687255859375 8.56072235107421875 8.0759220123291015625 5.4726748466491699219 9.3219022750854492188 10.304499626159667969 9.0528554916381835938 9.5711793899536132812 11.631740570068359375 14.643741607666015625 17.834920883178710938 21.64553070068359375 23.668535232543945312 24.8362274169921875 18.281627655029296875 9.71009063720703125 17.621919631958007812 17.67253875732421875 13.150218009948730469 6.9455242156982421875 5.7657666206359863281 9.3343610763549804688 11.956684112548828125 11.505575180053710938 13.213884353637695312 16.57798004150390625 13.691759109497070312 10.0655059814453125 9.7227354049682617188 8.9045572280883789062 8.678569793701171875 8.9721403121948242188 9.0971775054931640625 14.158009529113769531 22.176809310913085938 25.595043182373046875 26.878147125244140625 26.96392059326171875 25.386888504028320312 23.39855194091796875 -9999 
-9999 12.897031784057617188 7.9743065834045410156 21.75531005859375 30.59886932373046875 33.919101715087890625 35.649066925048828125 36.001861572265625 36.246425628662109375 36.53104400634765625 26.979516983032226562 30.275094985961914062 34.892364501953125 26.578714370727539062 26.410341262817382812 36.333995819091796875 38.34090423583984375 31.6285400390625 35.12651824951171875 34.459857940673828125 31.553684234619140625 32.698314666748046875 40.192012786865234375 40.503459930419921875 30.496232986450195312 32.009799957275390625 34.87589263916015625 30.19747161865234375 27.713764190673828125 25.69246673583984375 31.094133377075195312 20.761077880859375 33.198974609375 39.14595794677734375 35.51320648193359375 33.02262115478515625 39.2079315185546875 44.097507476806640625 40.82511138916015625 39.0762481689453125 36.44466400146484375 31.243471145629882812 30.654863357543945312 33.279071807861328125 34.518383026123046875 34.46807098388671875 36.6113128662109375 37.568790435791015625 36.71154022216796875 35.87870025634765625 35.871089935302734375 35.819843292236328125 35.410617828369140625 33.379795074462890625 28.408273696899414062 20.792467117309570312 13.325757026672363281 9.7174749374389648438 9.0357255935668945312 10.22265625 12.997693061828613281 12.703287124633789062 2.2399380207061767578 19.391622543334960938 31.854173660278320312 26.569822311401367188 17.65023040771484375 15.791609764099121094 13.308182716369628906 10.719437599182128906 9.7363920211791992188 10.913695335388183594 12.717829704284667969 14.104841232299804688 16.34215545654296875 19.962060928344726562 21.173824310302734375 19.741010665893554688 22.03118133544921875 24.133655548095703125 20.891080856323242188 17.8258819580078125 18.391759872436523438 22.464344024658203125 26.007785797119140625 26.12360382080078125 26.546586990356445312 27.899463653564453125 28.888208389282226562 29.100355148315429688 30.172306060791015625 32.163848876953125 31.915895462036132812 32.791156768798828125 35.56473541259765625 37.537036895751953125 37.642986297607421875 36.24798583984375 37.170970916748046875 38.633052825927734375 37.462921142578125 32.887638092041015625 28.8076019287109375 28.165142059326171875 26.626504898071289062 25.76461029052734375 26.204370498657226562 25.299518585205078125 19.5150604248046875 15.461008071899414062 14.230571746826171875 12.015145301818847656 9.9338579177856445312 10.10655975341796875 11.316349029541015625 11.803403854370117188 11.701206207275390625 9.4404277801513671875 4.8261318206787109375 5.3197793960571289062 4.4675922393798828125 19.901098251342773438 31.09283447265625 28.684757232666015625 23.627492904663085938 19.540813446044921875 17.335357666015625 16.348814010620117188 13.48197174072265625 10.649559974670410156 7.9580578804016113281 4.6753902435302734375 5.0920710563659667969 5.7695059776306152344 6.9448637962341308594 7.6704502105712890625 6.9047198295593261719 4.1257643699645996094 7.7803063392639160156 8.8931932449340820312 7.529895782470703125 8.184177398681640625 10.94631195068359375 14.610791206359863281 18.524694442749023438 21.104879379272460938 20.153594970703125 22.164522171020507812 19.199235916137695312 4.1309032440185546875 16.907491683959960938 17.291158676147460938 10.772721290588378906 5.0323886871337890625 3.6266818046569824219 5.2913579940795898438 7.7440805435180664062 8.7736730575561523438 11.941689491271972656 15.569874763488769531 12.634893417358398438 9.321315765380859375 9.3195409774780273438 9.1581449508666992188 8.6992216110229492188 7.8228373527526855469 11.305077552795410156 21.994245529174804688 27.401678085327148438 26.842021942138671875 26.722974777221679688 26.934423446655273438 26.192485809326171875 24.246814727783203125 -9999 
-9999 5.0192198753356933594 18.411157608032226562 26.076442718505859375 29.49852752685546875 31.452726364135742188 32.6063232421875 33.40004730224609375 34.53790283203125 33.391876220703125 20.079784393310546875 28.612001419067382812 31.773763656616210938 20.67237091064453125 20.833486557006835938 34.5701141357421875 35.001293182373046875 22.47784423828125 32.6340484619140625 30.875268936157226562 23.7445526123046875 25.89350128173828125 35.6998291015625 34.369289398193359375 21.469097137451171875 32.13694000244140625 34.83191680908203125 27.389047622680664062 24.00434112548828125 24.606512069702148438 28.474212646484375 21.33547210693359375 36.47957611083984375 41.789520263671875 42.27001190185546875 39.921588897705078125 39.948207855224609375 41.873046875 40.035675048828125 38.22557830810546875 32.713832855224609375 29.917043685913085938 32.752918243408203125 33.9632720947265625 33.34799957275390625 33.695850372314453125 37.20166015625 37.3381500244140625 35.3191986083984375 35.21306610107421875 37.269458770751953125 36.752315521240234375 35.721805572509765625 37.2157745361328125 37.67322540283203125 31.868314743041992188 20.618803024291992188 11.456360816955566406 7.6791620254516601562 10.803801536560058594 15.671910285949707031 13.219786643981933594 2.813472747802734375 15.741115570068359375 29.672369003295898438 28.90087890625 19.974788665771484375 14.888657569885253906 12.189466476440429688 10.980774879455566406 12.866163253784179688 16.013353347778320312 17.110643386840820312 16.904146194458007812 16.992235183715820312 19.3880462646484375 20.274120330810546875 17.060268402099609375 19.322172164916992188 23.392780303955078125 21.490678787231445312 18.2186126708984375 18.536458969116210938 22.531133651733398438 25.725872039794921875 25.340246200561523438 26.967487335205078125 30.65695953369140625 34.08640289306640625 36.7180023193359375 37.063800811767578125 36.444690704345703125 35.4429779052734375 35.2426300048828125 35.917560577392578125 34.765377044677734375 32.249927520751953125 32.344539642333984375 36.847156524658203125 40.170139312744140625 37.493923187255859375 32.15142059326171875 30.1303863525390625 26.360324859619140625 22.3363494873046875 23.094623565673828125 25.880859375 26.114200592041015625 21.881967544555664062 18.40252685546875 17.5567626953125 17.019939422607421875 16.303155899047851562 15.713794708251953125 15.355482101440429688 15.562853813171386719 16.299451828002929688 16.686977386474609375 14.159818649291992188 11.317013740539550781 9.4518518447875976562 23.096414566040039062 30.138095855712890625 23.536411285400390625 17.339550018310546875 13.974419593811035156 12.324521064758300781 11.465432167053222656 11.193675041198730469 11.281469345092773438 10.423391342163085938 8.3253335952758789062 5.1942305564880371094 3.3678083419799804688 5.0172553062438964844 6.8908367156982421875 6.6242542266845703125 5.12873077392578125 5.8994112014770507812 6.2688298225402832031 6.0403985977172851562 7.6585936546325683594 11.157194137573242188 15.364331245422363281 18.772462844848632812 19.73484039306640625 18.126041412353515625 21.824106216430664062 22.49298095703125 3.4267079830169677734 17.088130950927734375 16.891956329345703125 8.9330778121948242188 4.8470602035522460938 4.422679901123046875 4.6376385688781738281 5.301753997802734375 7.3866896629333496094 11.525445938110351562 14.523514747619628906 12.375887870788574219 10.479448318481445312 11.617909431457519531 11.342746734619140625 9.0421686172485351562 10.152630805969238281 19.103300094604492188 27.775766372680664062 28.922063827514648438 26.339771270751953125 26.156225204467773438 26.727621078491210938 25.899654388427734375 23.259469985961914062 -9999 
-9999 -9999 -9999 -9999 -9999 -9999 -9999 -9999 -9999 -9999 -9999 -9999 -9999 -9999 -9999 -9999 -9999 -9999 -9999 -9999 -9999 -9999 -9999 -9999 -9999 -9999 -9999 -9999 -9999 -9999 -9999 -9999 -9999 -9999 -9999 -9999 -9999 -9999 -9999 -9999 -9999 -9999 -9999 -9999 -9999 -9999 -9999 -9999 -9999 -9999 -9999 -9999 -9999 -9999 -9999 -9999 -9999 -9999 -9999 -9999 -9999 -9999 -9999 -9999 -9999 -9999 -9999 -9999 -9999 -9999 -9999 -9999 -9999 -9999 -9999 -9999 -9999 -9999 -9999 -9999 -9999 -9999 -9999 -9999 -9999 -9999 -9999 -9999 -9999 -9999 -9999 -9999 -9999 -9999 -9999 -9999 -9999 -9999 -9999 -9999 -9999 -9999 -9999 -9999 -9999 -9999 -9999 -9999 -9999 -9999 -9999 -9999 -9999 -9999 -9999 -9999 -9999 -9999 -9999 -9999 -9999 -9999 -9999 -9999 -9999 -9999 -9999 -9999 -9999 -9999 -9999 -9999 -9999 -9999 -9999 -9999 -9999 -9999 -9999 -9999 -9999 -9999 -9999 -9999 -9999 -9999 -9999 -9999 -9999 -9999 -9999 -9999 -9999 -9999 -9999 -9999 -9999 -9999 -9999 -9999 -9999 -9999 -9999 -9999 -9999 -9999 -9999 -9999 -9999 -9999 -9999 -9999 -9999 -9999 -9999 
