ncols        175
nrows        216
xllcorner    596486.9944
yllcorner    5550708.9373
cellsize     100.0
NODATA_value -9999
92.939042 76.867122 80.947120 252.963326 230.411311 198.671034 173.903693 176.966041 198.390841 214.817305 225.989656 238.292127 245.310829 277.441796 320.150082 247.410076 249.205885 240.861955 231.015517 224.646128 207.132484 173.678009 166.818988 179.896039 187.655242 188.041046 190.515374 205.084368 213.093219 198.055040 178.718814 176.619967 206.162539 216.582414 205.901925 202.584223 235.028087 251.306457 247.311607 221.437416 200.565308 200.643671 200.004762 199.904985 212.745599 212.144962 184.038032 137.852911 95.390736 88.866513 86.438208 89.850935 90.047052 84.447353 79.638036 89.469430 99.087100 112.041745 117.198381 127.031142 145.455733 177.101423 177.480051 124.102879 88.666008 83.471664 240.955458 245.153852 247.665175 254.046395 255.076207 265.947811 281.558380 290.654752 293.366748 292.455541 286.944928 282.453248 282.420294 276.843167 269.161533 259.006813 253.639769 254.631486 258.468939 264.933680 279.694921 276.974839 209.943990 171.855878 158.988631 171.381266 174.991817 144.001436 128.028702 118.142283 106.890699 101.278004 115.277425 125.726928 132.279204 219.039438 240.015167 238.547264 236.949137 238.693581 230.717637 184.354081 161.190795 174.084159 238.037493 256.758874 190.246233 140.079761 131.511190 136.695881 165.642770 188.272977 195.969672 179.194745 151.157401 130.065172 149.708718 209.072057 228.119291 230.009738 222.705237 220.217380 218.314188 213.067667 207.412079 210.208762 213.114861 79.600462 56.878988 53.728943 47.033878 43.412286 30.386198 19.895113 18.210700 26.492746 36.770913 48.053571 50.517433 53.411356 45.602563 43.745548 85.535230 118.448714 120.523896 120.512320 113.507344 107.333548 105.368488 103.598829 101.281269 101.368274 112.502229 117.841535 114.035411 108.521117 105.329329 107.505441 115.498359 117.686498 142.466379 166.436288 168.038772 160.888361 137.593028 125.370459 131.711820 139.454132 124.462733
90.298102 67.643468 62.811855 35.823797 217.684806 189.946683 175.503063 180.262321 200.084812 220.625446 229.213779 235.016119 239.713934 251.196917 349.100115 295.548825 248.748315 234.139181 229.023442 224.858820 206.710766 169.264315 163.487760 183.920995 193.163702 190.767551 200.631193 213.379197 210.088238 199.299384 188.226216 185.286585 200.935387 206.691605 205.788180 221.171469 243.051809 246.448538 231.538602 202.994114 191.539175 195.786949 201.262045 212.688300 222.967216 212.254230 195.447255 178.906851 112.369655 94.211035 91.335113 90.275621 91.604850 88.384237 86.310660 90.544109 95.973086 112.492310 120.336727 127.368306 152.028185 184.823425 191.248706 157.048176 91.466557 85.736891 232.619217 244.328129 249.057026 251.705037 257.172678 267.482416 278.488735 287.322846 291.536499 297.231961 299.224273 295.234281 290.354942 278.851321 265.245286 254.474025 252.349438 254.721980 256.902633 260.790552 272.025830 281.633634 144.929837 151.129082 153.289006 171.561320 185.376765 152.722243 124.524096 121.008998 114.715724 103.448842 103.254093 112.748162 130.375249 216.348960 235.374826 238.187568 240.338424 243.591927 225.686921 173.482987 161.654673 198.016954 252.699174 255.430653 153.076327 131.026146 126.093702 132.652511 154.671864 185.614694 187.703161 172.279315 162.529141 157.153285 165.425101 205.118445 229.555619 225.378375 218.760383 217.192642 214.923403 211.384024 211.495884 225.483447 239.684493 237.203047 104.994418 105.640902 112.434401 99.474218 48.888965 34.171533 39.979790 48.383871 55.172079 59.927294 53.782004 54.195875 53.656579 68.659130 96.504122 113.492979 124.209964 128.203487 122.362217 114.303420 108.318929 99.675761 95.359959 97.640347 101.882825 105.173763 105.719608 103.633545 101.530187 103.347775 109.123731 102.972227 94.997255 118.076763 149.250527 158.987275 142.475033 128.633140 130.570608 137.116302 119.248826
47.742726 48.471448 45.986904 29.480346 0.794935 55.669783 102.520440 182.182863 206.415063 222.735918 226.844022 232.312283 240.465378 247.028055 272.180653 17.834539 272.584233 237.723445 232.221914 226.419328 211.375605 173.180398 163.078880 191.140281 198.942941 202.092147 216.090606 215.405810 208.011457 203.606626 196.439867 192.682771 200.336109 208.470910 214.642504 229.200152 234.991681 227.756721 209.302281 194.608722 189.314551 196.503000 210.470106 223.246167 223.364088 206.935019 198.627676 202.908756 170.433037 104.339037 97.377728 91.651357 92.498401 93.272535 95.949304 95.685766 96.337539 106.773046 126.325803 132.404254 149.063697 189.723845 196.176687 185.954107 96.361812 93.563802 207.413815 252.154158 253.837366 248.718010 260.737966 268.906630 275.740702 280.704108 284.932600 291.745514 299.618171 305.148751 304.557521 291.716159 277.259888 267.076855 265.343825 265.214263 262.309083 262.129446 264.291976 148.633268 116.545319 126.385423 142.619042 172.372449 196.116091 177.221129 125.718115 112.013478 116.009013 114.051187 105.847833 99.807856 110.155107 201.107213 234.680631 243.343847 247.341439 245.267385 208.547750 168.412350 176.190229 240.068821 263.546522 258.113555 117.045360 116.793698 113.508274 121.973006 138.931470 173.330878 178.756545 162.893467 154.836133 167.566239 191.792317 224.461206 235.132595 221.730135 215.315035 215.127028 214.510149 214.863564 226.653673 245.052448 248.295579 215.746164 155.000122 152.682821 161.838183 173.421241 182.838711 178.416688 140.542622 79.368034 70.980112 70.237818 69.113907 91.616555 129.504971 124.018545 104.791225 104.761239 116.740307 128.560097 133.108217 129.787198 127.100572 115.624331 103.298846 100.038043 95.861803 97.200787 101.835757 104.118891 101.197484 100.679476 107.522429 115.061324 88.625831 70.706382 66.201833 89.731486 124.056778 127.821643 130.135915 115.698406 336.888730
25.123660 32.743269 34.325275 25.662254 18.852272 16.627456 15.234486 13.463274 16.332377 4.259807 233.564602 239.686375 246.771090 244.543943 235.562713 209.080612 10.815088 260.447844 231.940983 227.027047 213.334044 182.905752 166.208745 190.349758 200.829611 212.023078 217.942843 211.137191 210.531393 208.583552 200.172607 193.013384 200.432361 206.210412 206.939797 217.948746 220.335819 212.832985 202.380571 196.914737 194.237726 202.661816 217.881440 225.875552 220.898996 201.002732 199.447685 216.281949 207.678959 126.214896 107.086571 102.046580 99.341290 98.109763 98.120679 97.461325 97.812209 100.849803 119.891144 139.638418 166.295062 195.777341 203.685015 206.104012 104.584154 102.844074 240.563988 273.503133 253.950542 256.320559 267.364436 270.850723 273.744102 278.040508 279.555035 280.604692 284.558427 293.084677 299.060889 293.580256 297.954155 294.121530 284.708304 276.174139 268.843943 265.074173 257.522456 135.310712 112.957936 112.895797 120.828420 156.892306 195.564959 193.217407 160.889733 115.864340 101.767549 105.862070 112.164820 105.695663 106.021530 177.239416 240.163130 246.905607 251.998247 237.817436 189.533801 171.744045 210.762720 259.476331 266.170047 255.241276 100.043952 95.464372 95.889181 96.366513 109.865060 145.508409 172.532113 168.364315 145.730136 158.068344 216.607958 248.258598 239.839687 223.999005 216.404758 217.252464 221.021626 232.059482 248.700417 258.775752 250.927421 196.233676 148.190747 153.285352 165.179309 177.743138 182.554148 189.817000 199.635921 180.575030 94.824382 102.504921 132.466592 131.435544 144.683737 157.073247 123.543148 98.354749 99.963752 107.710885 119.489644 127.103176 135.100319 141.379712 133.707469 118.513810 106.916418 106.088038 108.043344 108.281596 104.931745 100.843559 101.066062 116.969295 148.301065 148.123170 84.827139 83.387877 103.111181 117.133121 122.792624 321.863779 325.534007
36.803464 45.270592 46.946833 32.477963 14.066995 1.209377 7.432720 16.223661 36.026574 49.731630 282.660623 245.714041 241.426694 232.307723 221.443549 213.697970 217.623074 316.548158 238.405637 233.341080 216.463434 192.237248 172.954231 188.113765 206.973284 216.048858 214.391269 213.697390 214.375823 206.309242 195.773863 193.616967 200.134694 196.763104 194.046372 205.192401 214.115472 212.086840 206.380596 201.033533 198.868530 209.597754 220.248041 223.856702 215.060574 196.124116 205.206339 224.924026 216.034310 157.059593 123.449415 118.829562 114.037542 109.862659 103.595536 98.319851 99.398402 106.543640 119.682778 141.701345 169.871855 173.894333 205.739609 208.340586 117.517387 117.288866 257.105779 274.290255 243.278989 266.013213 270.810848 272.405304 272.536560 276.076218 274.453908 272.186510 274.690507 279.152984 286.258762 289.012543 289.116409 294.896028 292.387387 279.370897 272.560928 268.170451 262.126587 126.155014 109.102436 109.649277 111.415378 126.988130 181.383449 197.248907 187.760810 157.998279 115.750250 97.504408 104.568597 111.624299 114.104332 168.206570 239.113690 249.250970 249.808811 212.053622 176.755464 191.983505 249.985608 264.272967 262.756686 246.114334 93.838418 80.951792 78.430860 69.235660 71.445892 87.583076 154.059002 177.550337 143.260343 162.911930 254.056265 251.128809 242.837857 229.898448 215.875813 226.827805 239.350503 254.280678 260.386446 254.834101 230.977301 178.427598 130.796866 137.154867 156.377547 174.162658 182.553263 196.347899 213.335698 211.741886 171.249617 131.685710 142.381195 143.366994 141.058101 164.718952 162.921173 104.927960 87.384633 86.854641 89.360306 95.123264 102.236174 122.812673 139.632423 138.963509 127.281293 118.654944 115.004186 110.702100 101.953005 91.715734 84.229783 80.378157 93.758844 139.995445 147.299409 110.534767 103.239390 109.587173 297.383779 309.844932 316.703129
47.163711 56.397459 61.258326 64.214166 34.632187 8.554947 16.629953 28.985592 57.934303 60.736686 59.160838 241.908392 230.726154 222.045647 214.972268 215.677263 221.208123 217.654722 221.196141 218.556638 201.917666 183.592178 166.546447 187.053652 213.248010 218.476169 216.951435 215.574565 210.003205 204.569318 196.932304 191.218509 196.061887 192.282370 185.166422 199.535790 216.440144 216.257074 212.573094 203.511375 198.913490 210.014359 218.241877 219.986984 208.837758 197.661462 214.299120 227.533257 218.606481 169.117455 123.486860 120.168736 121.483696 118.552717 111.621553 104.209845 101.851351 107.211481 118.057763 169.191769 186.128668 180.422172 204.131276 170.778051 117.344065 120.616233 252.218347 261.325392 245.629192 267.769658 270.090730 271.882776 272.920560 273.735572 270.890207 269.218039 270.172362 268.576763 271.025283 287.538983 285.960184 286.611195 289.392519 286.633450 280.534797 275.280024 275.129977 104.361066 97.313825 95.383654 98.135402 107.217514 152.657968 190.536655 189.951880 179.819096 161.910297 117.110057 109.731557 119.785591 126.472800 165.531960 234.846484 244.663282 230.067464 192.876033 189.636160 252.907503 273.350098 271.906517 269.196762 258.657269 95.203654 86.399078 82.210000 75.219077 71.941662 75.594708 92.946167 150.950417 156.732944 203.563771 247.556562 241.369446 238.610496 219.321959 218.710068 241.540986 259.251005 263.980242 248.830747 226.351025 208.713033 196.116626 122.815207 102.618932 128.011935 164.385639 186.147474 204.747576 219.183886 210.761764 180.317061 145.557816 139.055489 149.169148 142.689048 156.354608 183.746192 145.763640 77.881888 71.381742 69.128267 66.923657 70.807975 84.471649 101.351513 122.393638 129.892006 126.752810 122.719771 122.755153 114.489447 99.341042 91.321179 89.945360 89.359273 92.913251 113.518481 109.629855 95.651306 93.641351 295.126704 297.786228 306.110434
61.565305 73.280314 77.020015 73.920044 49.549052 19.468357 47.591867 94.413094 98.868493 94.644978 84.169824 135.231965 221.837825 216.126629 215.827129 222.919166 225.007575 215.932122 202.309522 183.627344 182.668446 182.226833 172.587077 191.518032 219.052658 220.968718 217.977972 213.760253 210.149276 206.993690 192.509109 189.472372 194.028774 185.998394 184.555287 206.867430 223.613300 220.488658 214.099185 201.300595 196.727612 207.930477 214.335050 214.293955 205.667605 205.484569 221.978246 228.625731 223.198058 189.246629 122.090923 108.249304 113.967734 120.599922 113.388413 107.426931 100.410884 98.280189 103.610373 140.201720 169.821518 189.635363 204.037609 157.314194 113.761784 105.767183 264.184373 262.062223 262.087412 272.207864 274.471095 272.449576 272.523336 271.639796 270.235377 265.863892 261.237701 253.489606 253.013553 271.323429 284.363882 287.182119 283.664250 284.555865 281.855996 277.709275 265.922139 101.099251 88.967599 81.508341 79.127170 83.012236 98.882107 164.683877 184.194846 185.468119 182.860764 145.196754 117.600459 122.237110 138.627446 176.800539 233.340437 237.275171 221.302951 213.823539 255.833559 284.931737 288.475213 285.076765 283.918861 284.355724 89.990341 97.199377 101.285297 104.049300 95.842564 91.262564 91.617414 113.938374 156.257448 212.679368 231.731611 234.689603 225.695162 206.966048 215.472178 237.650551 252.989567 243.002039 213.371635 205.135472 210.336470 222.833341 193.714579 82.320697 90.652646 122.757354 181.965974 212.187982 222.350495 202.471384 178.383210 159.922675 139.020638 145.338503 150.098133 154.819435 191.430274 201.202320 90.441922 61.981134 60.603652 62.004344 69.516181 74.062309 75.116259 80.070056 86.889271 90.886698 93.135113 96.614005 99.396786 99.906316 97.160980 105.492492 111.944249 106.366978 99.874724 97.619553 92.332443 79.971002 288.753994 288.592580 298.599273
84.849571 95.093118 91.273030 78.302165 52.604097 47.718477 79.114473 101.064871 104.728783 105.717205 88.882809 22.087594 69.670151 207.095829 225.097251 235.318837 229.597753 207.650449 197.512486 187.728538 190.540109 195.486366 189.724632 207.419352 221.203439 218.898804 213.127104 210.084416 211.918810 202.113116 189.862608 195.503138 192.007564 179.938159 189.216322 217.690615 223.121985 216.971396 212.281941 198.448705 189.748091 199.735640 208.801667 211.545391 209.081907 215.594234 228.493069 231.128681 227.239056 203.426657 139.601550 110.316184 104.522299 114.312990 116.120594 109.831255 100.656686 95.820928 107.053641 138.000505 172.837277 198.873748 196.400540 146.523033 120.080729 117.692320 266.327916 269.872723 291.308692 285.342725 278.173825 271.712485 267.570500 262.369024 257.321302 249.601685 242.690217 238.776817 245.911859 261.073024 270.773915 276.133940 278.456673 276.241418 273.425213 265.159346 221.100737 123.993735 96.423984 81.053950 73.632065 69.503383 67.153866 81.251821 137.703264 178.914147 189.903318 165.411767 128.454765 120.770150 139.444704 203.944015 258.659605 258.106721 255.851440 269.455839 281.373216 284.467426 289.812550 290.201309 286.522286 299.176355 79.318606 88.135106 91.122555 90.502317 90.599217 91.334480 89.155931 93.093391 126.086393 202.162526 223.340304 226.091647 210.580436 199.509501 217.072696 232.655476 233.056834 209.929023 192.473590 200.650229 220.591406 232.498258 218.292625 117.745553 95.293928 94.427129 145.267161 211.815105 219.561175 193.938567 175.698039 166.647388 148.573146 143.022139 153.232280 160.869185 188.250436 213.780792 218.072045 57.814986 58.639971 64.044715 72.079841 73.024028 66.103576 58.593643 53.149190 52.892500 51.607073 47.280332 49.825217 58.897367 67.395885 84.163846 108.700567 119.725181 112.770503 101.094887 102.120188 87.646703 282.454843 285.347966 299.331036
78.303230 93.863131 96.364454 84.426963 78.945218 87.825256 108.619179 109.912091 116.222798 105.580924 33.949076 1.609583 42.360158 67.643109 243.809120 241.372188 233.590310 205.094546 198.349967 198.775424 210.220354 211.124339 207.242823 218.490190 221.342681 211.478282 205.863890 210.453505 210.332308 196.647490 194.891684 200.147342 187.637248 180.265026 195.708638 215.122265 216.170771 213.446066 209.069967 195.057765 180.941628 189.933489 207.613028 213.751109 215.933026 226.493308 234.192116 235.259411 232.819507 213.934067 145.173791 115.945723 102.587051 101.445106 111.172130 109.219195 99.499288 95.620487 104.722425 128.907228 184.442832 208.460176 177.300023 132.709390 126.594194 150.698107 270.277627 274.559266 301.731869 290.077735 272.999949 265.248936 257.651489 249.106738 240.443961 238.051134 238.748820 244.913955 252.471701 257.702975 263.064268 265.221531 270.749534 269.774589 256.523689 225.886267 192.003234 155.325403 111.938237 93.253528 81.228982 70.716838 65.485526 66.777599 79.308802 118.530348 172.165930 170.217160 145.392721 129.136632 149.759864 254.981639 290.964572 300.206929 303.439474 307.627166 301.032302 288.276691 281.062636 275.998150 266.741126 248.071985 88.354452 77.140451 66.566353 63.337091 76.648710 82.258161 80.306546 85.010897 94.563750 169.182584 214.680518 221.702965 206.147669 198.952796 220.704229 229.421316 219.903747 193.427473 185.539387 208.091216 229.546126 228.673802 206.976517 162.955164 127.777240 100.829169 112.620332 198.671832 210.763230 185.968903 173.089004 167.334814 156.604060 150.680490 151.550592 159.386919 188.969609 227.145319 238.165794 252.257141 59.222862 63.219934 66.949068 65.039426 56.063374 48.648250 47.121096 44.974499 39.314923 41.728758 49.781540 55.459229 65.765566 80.552688 100.347897 120.096556 121.285808 110.736899 110.408575 272.136626 281.000581 283.103643 291.583603
66.732727 71.063098 78.617642 78.718615 80.526278 101.044184 115.094412 116.913111 120.892654 72.110962 341.565051 350.955333 44.907438 62.122716 259.339997 250.937001 242.984055 221.374431 220.394421 226.402925 231.206940 222.705472 221.185925 223.249438 217.829881 206.427738 203.872058 211.309685 206.346008 197.673560 203.194252 200.412555 185.122068 179.270723 195.352507 212.406562 213.704938 210.533623 205.145671 192.075676 180.165151 187.628370 211.452553 221.128667 226.201500 234.716620 237.383330 239.496822 239.888069 231.973323 118.975904 94.738446 93.598107 90.244599 93.231090 99.269222 100.405823 97.348099 101.250548 115.506203 162.387422 187.966751 157.933476 136.186337 131.709174 212.946008 284.280377 276.968257 290.526442 281.163706 270.512379 263.560852 256.071550 252.848255 253.071419 258.311370 265.416707 270.135049 273.399376 271.094423 270.803535 270.989256 270.266552 265.652304 231.321568 191.584660 189.357286 186.868827 147.434361 110.659304 94.510378 83.125474 77.451201 76.188758 80.173608 93.388846 124.086793 157.767796 157.792669 148.357123 196.670555 265.498354 279.729721 290.906866 299.035301 306.377449 309.275302 297.427764 269.733303 247.987559 232.772056 212.371729 144.261608 96.346828 84.802321 81.145004 85.761571 86.986529 79.266423 77.465184 77.188656 104.226360 199.547705 218.892199 205.561978 201.888716 223.556401 227.199997 212.044000 186.665322 185.816612 220.719860 230.348745 218.975774 196.561947 177.150610 161.973645 116.522608 101.398637 161.555972 196.038777 180.320085 171.947101 170.486248 160.770862 155.272989 153.685767 163.820748 206.330881 243.075017 248.015600 242.899745 85.781727 76.471813 68.091562 57.462849 48.934952 44.851034 45.557685 44.981310 51.567877 62.257499 67.866747 74.929696 86.032798 89.792544 93.308379 106.800765 125.961575 124.435006 115.149111 291.725821 281.361437 277.779720 276.672737
70.214992 66.105878 65.728453 73.718377 78.628279 97.304643 104.073623 107.494779 100.251199 337.476127 344.244934 5.838444 37.182796 52.198741 305.412465 254.011918 238.553275 234.166321 238.110518 238.179625 233.196006 227.197351 224.169330 220.695531 213.962156 203.304150 207.757754 211.195609 199.161284 205.882078 211.583717 198.471680 185.136786 182.665580 196.968005 211.538361 213.054604 209.642298 203.198591 193.170321 186.602413 198.065171 224.543199 229.591074 234.141820 239.433699 239.427603 238.663133 239.572861 236.657734 195.193427 77.638561 73.022010 71.881138 74.132116 87.325982 106.457647 109.639362 108.905955 129.805571 186.568764 148.598365 120.590663 129.452198 145.730557 266.046463 278.674850 276.414326 267.143885 270.144823 268.465562 263.201050 261.546401 267.431797 274.558631 279.139162 283.796449 284.313463 285.284678 284.118431 281.115471 279.047534 273.965947 264.047754 179.476582 160.900550 185.510208 199.701862 185.643778 139.719416 117.442919 111.429948 106.378803 102.406252 97.629264 97.093471 104.598100 127.471327 153.962955 175.244010 249.293266 264.671517 264.202846 264.408720 262.606130 260.901326 257.871199 246.644614 223.138465 214.435682 212.405296 212.702388 167.796201 122.986878 127.014340 121.623173 105.501838 98.480088 88.237853 80.237569 78.693319 85.760337 150.433311 214.269961 206.526641 205.639789 226.080559 224.433910 202.639067 183.758139 197.466291 231.879793 225.874356 212.757192 189.853585 184.529637 194.180313 133.660337 78.138150 89.129940 166.672233 175.488931 171.337636 170.773067 164.192402 157.207606 156.429345 174.338684 224.403067 247.383499 246.801928 228.062250 148.078149 114.997459 86.105503 55.172057 43.351824 44.311035 51.784813 64.456969 76.418658 83.389881 88.264976 92.575716 93.034472 89.002023 85.855546 96.754146 118.074828 128.712314 99.579892 302.999845 290.982567 275.700129 261.844174
73.861187 67.383726 62.242987 75.340875 81.526635 87.646703 89.660793 94.007394 309.687609 304.779249 327.249993 9.517356 43.437709 53.375639 52.516948 239.710999 230.525091 232.617140 236.179750 231.249250 224.865646 222.946449 217.936863 216.296453 212.184322 206.085106 209.829047 205.777218 209.573898 219.328367 208.320494 199.729801 188.834415 184.517145 201.008735 214.045141 212.921824 209.948095 203.187404 195.445009 194.367728 209.479965 224.579545 230.127112 238.691772 240.732247 238.515612 233.887791 234.878390 232.852695 217.203440 112.109448 67.103957 66.633860 72.657287 83.648872 99.578117 114.985282 126.984092 139.456690 175.846629 160.865316 128.197025 128.185394 152.954291 275.630211 262.427051 256.369719 243.828974 254.182239 257.159743 257.596615 256.506571 262.365397 269.692132 273.518829 273.451490 275.064890 272.304040 272.355687 275.014623 275.670939 268.464335 249.354232 134.154860 125.342256 167.171783 199.986666 198.157239 166.404744 134.287258 127.976661 127.693780 125.459195 118.899884 109.481965 106.974743 111.365774 140.184726 213.174042 252.084951 253.754896 253.151419 246.925754 233.575818 225.963549 217.691020 205.798687 199.963220 207.745738 225.811100 243.414657 171.290484 101.401174 113.791402 127.390746 123.629238 111.645291 107.434804 96.389019 84.382348 81.649078 95.842334 197.399875 204.232144 208.589189 227.074468 214.981901 192.376933 191.148867 219.903739 229.849400 219.621867 205.387421 186.211651 198.085931 232.101587 246.182702 55.874512 66.805032 85.825738 134.271873 158.850872 164.585435 163.806124 160.131367 160.561036 187.493795 232.440715 243.750323 235.956226 209.760742 164.449000 144.435126 148.894703 82.932911 47.505377 53.906458 66.201690 75.380986 80.552803 83.887139 86.912133 88.522892 83.700910 84.808927 90.093181 101.248410 113.352537 125.481340 299.391098 306.137177 311.028532 306.045331 283.616329
62.314251 64.834348 63.188367 66.962074 66.281689 71.159982 83.208322 97.667529 302.883138 285.960965 289.159155 355.168764 47.732117 53.175721 54.550715 43.187857 234.045208 233.150398 235.737807 225.982117 221.049657 218.138478 216.930560 215.050622 209.903889 208.146481 208.295716 215.468354 228.560727 220.553308 202.632686 195.702334 190.729310 191.660375 203.877590 211.164861 213.118282 213.211270 206.142435 200.654923 200.775200 213.104052 225.672481 232.346825 238.622581 239.075794 233.285797 229.653505 231.577129 229.294293 220.771762 207.162978 86.768031 77.471901 79.206188 80.407758 83.625001 95.019854 117.776829 162.563569 152.886681 121.359610 121.984695 138.093728 281.206355 297.871407 270.530501 245.640830 237.855531 249.284566 254.061065 251.386631 253.047900 257.524057 263.458186 263.856431 261.158737 260.673339 259.731630 260.342941 260.844687 261.475937 253.818279 224.893423 135.245302 110.211209 131.822682 190.517794 202.657995 182.294097 137.658994 124.496207 126.307813 128.323902 128.275027 124.409012 118.681083 113.328488 125.647124 220.447206 235.668315 242.635131 243.257110 229.760469 219.916295 216.673029 209.890047 204.130205 213.521470 239.093190 260.856420 269.045970 292.102340 86.170935 92.970894 103.050871 117.439797 121.664872 125.124968 122.951179 107.728372 94.628710 90.623672 143.417499 194.733234 211.507633 221.131302 203.030808 189.873032 201.847732 220.314908 218.190176 215.354132 197.744512 191.682974 226.250053 247.936241 244.242615 58.385932 61.643196 60.455743 67.388401 89.752472 124.009945 147.720483 157.590111 165.321297 202.734159 238.508218 236.461045 220.838935 198.177564 172.040849 155.705277 174.054858 204.827633 115.299184 75.836927 75.622195 72.829200 73.053041 75.288948 76.625150 77.740784 83.678212 93.798936 97.990095 101.458689 109.902016 152.003819 281.214075 292.347497 307.052375 318.448507 317.278285
58.091893 66.048908 69.831419 63.078142 63.379248 71.371354 102.229720 99.825277 305.361932 289.917051 288.827984 334.064035 27.641496 52.523151 50.869196 46.385859 256.511911 231.878777 233.501136 231.469626 223.382789 222.053356 221.382590 213.185609 208.385850 213.014101 221.159051 228.702688 224.338288 211.310693 203.329948 199.476275 190.738038 192.264774 205.779849 219.410593 224.524209 221.160002 215.315000 211.026595 212.766891 220.598297 228.954788 234.317703 241.606164 240.497700 231.919428 230.048925 230.939703 230.605959 230.093268 228.151826 151.462913 94.255701 87.364083 75.978118 68.346144 72.823274 84.004613 124.555388 135.702365 104.530031 114.124190 144.146111 287.293008 299.565259 289.434556 247.652508 247.563638 256.745568 261.617495 257.066388 259.945761 259.200008 262.397375 262.496199 260.059116 258.437629 261.282658 262.325204 260.146434 255.947826 243.242981 209.237217 143.029151 109.296625 109.136353 164.641648 202.356519 197.123173 145.064340 111.657434 114.202460 120.676140 125.021406 127.058060 127.299654 125.288878 131.661802 212.397293 234.604047 244.638395 238.209468 223.513952 221.234339 222.323675 222.345311 231.551045 256.106609 271.193583 276.287823 273.389831 264.120119 88.272893 90.805345 94.927470 103.281833 111.360086 119.477410 128.418619 128.364653 111.715111 92.452476 92.893807 169.595659 209.862050 213.382393 198.308926 186.747166 204.581852 220.360568 220.917306 211.881192 194.440041 210.821647 243.707918 247.624629 243.328079 239.831576 53.870051 57.189563 60.676698 66.864113 78.776612 97.803753 131.399504 167.617843 215.820755 230.477469 220.985824 208.057874 192.742669 175.228126 164.891655 184.744507 216.509266 191.931523 127.230962 96.900919 81.478336 76.801051 76.452627 76.070589 78.162057 86.264076 91.318522 93.495676 92.973668 95.938912 248.746102 262.394695 267.070985 278.863635 288.044657 286.288774
66.560649 68.650401 70.634829 62.732839 72.085977 96.890594 106.342334 338.259561 307.639705 298.415595 286.427503 312.019333 10.983898 53.338342 50.946305 50.885308 52.460566 234.590887 234.115100 239.249697 229.805922 225.258394 215.160963 202.191401 210.830834 229.026791 228.707257 222.971297 218.763219 211.247705 205.384724 198.397328 195.303222 218.193439 271.180738 281.301982 256.488313 234.957080 225.410948 234.579680 243.262372 236.508772 240.818577 248.227028 252.097392 248.032757 237.030075 231.934580 236.111552 239.181387 241.646047 239.230124 187.402712 109.339622 93.921505 77.573908 70.386590 72.429276 75.321028 72.903494 102.867748 107.369760 117.915981 266.919345 290.502886 288.108295 268.959634 246.754527 253.224372 262.999246 270.245318 267.740223 264.621399 264.173546 265.746125 265.449336 263.962538 262.273674 262.208183 263.262073 261.629704 256.768527 239.702670 197.982176 147.069368 114.615205 103.494650 127.276267 195.438335 207.145558 172.640971 109.900774 102.082890 108.235797 115.259079 121.809337 128.008894 133.285292 155.402420 221.646065 246.155167 248.150158 242.541390 242.056187 255.030449 262.583044 268.380522 272.225678 274.600302 274.127991 272.362646 267.696110 212.302360 93.967318 95.619581 95.773662 91.899816 74.598697 66.589320 66.089277 65.480946 60.819367 56.841230 61.624942 90.461188 190.566652 206.876148 196.599239 191.508383 215.492361 227.011594 224.923725 208.573444 205.261994 237.880806 251.393402 251.231270 248.606648 241.190034 82.463265 75.670503 80.264145 80.882531 81.355879 85.704029 98.038437 139.690037 202.983879 215.030776 211.224454 202.344336 191.454926 174.646681 172.220975 200.380191 222.447475 184.758440 144.147383 132.176665 111.593032 90.843784 79.967690 79.487018 83.214961 85.933027 84.371162 86.355455 85.541675 80.724320 104.075771 252.158023 252.337964 250.726356 244.692483 236.244940
67.952251 65.387410 64.646536 64.760631 76.662356 107.536490 14.840993 327.419190 316.560099 302.005383 274.610649 289.792415 320.382798 51.873721 50.419937 48.666167 50.059702 47.121096 238.336721 238.120750 230.255039 215.946274 202.938776 206.070910 236.362769 239.828746 224.233350 220.623072 217.486918 206.602795 203.456252 202.676709 215.156657 255.321126 270.807264 279.651833 284.480388 233.185838 237.833265 264.185505 283.931328 271.909152 255.688638 260.159063 257.258396 245.644463 236.495708 242.873876 248.162510 250.185488 250.958064 244.954598 203.872469 109.007119 94.057689 92.143818 90.815334 84.240792 80.116109 82.869292 103.505553 111.359212 123.327214 299.129065 291.999911 268.832449 210.416285 240.930701 257.854215 267.681926 268.040894 263.241430 264.062460 268.450373 267.206475 264.074027 261.083704 257.771750 256.206264 257.191305 258.861697 257.237267 236.660250 183.249433 139.603022 114.839754 100.815986 103.960697 173.850804 205.389213 189.983775 131.993679 101.503896 100.172858 104.879441 109.820700 117.530708 136.676050 174.764644 219.790447 236.643024 244.633603 251.813933 261.216856 271.573942 275.871301 279.330632 279.244438 272.948115 269.447385 266.434170 260.361492 189.341780 92.815185 84.068173 73.282746 49.644786 31.336173 35.562183 34.845797 30.162586 29.863472 39.421815 54.053520 64.039572 93.860515 191.306676 197.750692 205.547968 227.242814 234.818637 227.505848 211.062781 229.297805 250.486652 252.928416 253.756636 246.942465 232.192561 183.153241 95.065904 91.419062 93.828030 91.631889 91.552427 92.339950 109.756824 175.439983 205.917124 205.369318 199.369696 190.759889 172.440025 175.844294 212.419584 224.260678 183.059697 140.189128 138.223811 140.515798 122.045747 94.365725 85.442664 85.434643 82.770725 82.860038 83.370094 80.817002 70.463934 66.211116 252.943541 249.561691 241.619400 230.802526 226.389906
63.972300 65.721055 66.662223 70.521694 81.568424 102.326529 317.233106 324.255210 339.760815 284.152834 275.948771 275.003920 287.783888 27.504242 35.676408 45.482401 51.681731 49.971714 262.174255 231.306726 226.533059 211.615534 214.344916 239.389984 246.218844 226.063039 216.526199 218.289288 217.582077 206.681484 202.560165 210.956672 231.458118 248.940993 240.853096 232.028981 229.005041 206.468540 235.861793 252.240959 264.062291 257.860275 241.733422 251.105878 246.832218 235.856994 242.368566 250.197547 252.144997 252.494719 251.415343 249.282906 251.200115 71.071037 81.650317 89.749170 94.377741 87.786724 80.217041 83.876882 106.431592 116.384643 140.940037 297.178269 287.811298 217.694240 214.519524 250.529698 264.315934 265.263870 258.281171 257.255278 261.520182 262.951457 259.131039 253.919026 249.577419 251.721995 254.346402 256.212196 256.269107 251.122409 228.167368 179.442947 132.564042 108.546103 96.476741 91.422537 124.743443 190.451389 193.533196 156.480329 107.663448 99.491450 101.001301 103.595597 104.578529 119.546512 172.759177 212.285499 227.998467 244.674663 241.425238 239.306278 240.628226 238.898606 241.280411 250.264720 259.978127 254.702994 244.507339 236.054174 202.193947 92.282578 70.536798 49.571367 31.290593 32.055969 38.543128 36.792650 34.153109 39.236085 51.229274 60.525780 66.130891 73.813473 124.781700 197.017333 217.317716 232.134657 240.714691 225.371831 219.994235 243.125407 248.815834 251.531142 249.417187 236.960732 224.660976 207.101799 110.142129 79.361722 79.251940 81.788556 83.437985 84.739757 91.075592 131.047726 187.421012 197.508083 199.084954 191.213612 172.284833 182.204849 220.217691 221.711127 186.206278 141.750892 130.593798 139.753470 148.078670 127.064450 95.044082 85.171880 81.099605 81.604386 77.397926 70.587186 59.752909 51.539794 269.639465 246.815126 236.515844 228.761930 229.605151
67.831179 69.574790 70.093239 78.516398 88.707833 90.942921 296.292902 303.003101 357.654726 285.022817 277.682375 263.867778 307.525749 270.682060 284.697319 60.553297 56.192946 53.080983 50.869454 222.958551 226.291474 227.730932 241.468373 242.674120 225.451375 220.473767 225.378782 226.543054 219.356441 204.940155 208.627075 220.738331 230.397465 232.931215 233.851895 228.999660 218.805688 195.507028 245.956266 261.728345 260.447786 213.729111 216.297253 236.502493 235.164267 236.497080 243.532713 243.689915 251.044616 251.348140 250.264006 256.323918 272.326112 41.232187 68.949324 81.738781 85.671468 77.926169 70.691836 76.865238 104.873615 119.214114 255.462696 282.570250 269.161229 193.663229 232.073538 254.187803 268.192125 259.925967 249.533934 256.005245 255.707023 253.240166 246.539718 241.080031 248.373368 255.574528 257.956852 258.765749 255.004516 241.134931 212.436378 183.459574 153.353755 122.460317 104.036243 92.426618 96.858512 158.992912 197.813334 184.004025 112.143026 96.662990 96.816009 98.169255 99.868250 111.485443 157.039132 201.953032 231.095016 229.965508 216.675285 223.831021 231.690095 238.893052 249.711889 257.085481 250.143516 227.074042 221.663357 225.549230 216.276499 144.693095 116.459185 98.441880 69.797645 66.264590 57.980407 52.490028 53.186452 63.367238 70.977830 73.921635 75.534382 77.415707 90.601030 171.013985 217.907483 235.245722 235.956002 218.565966 229.184688 246.219477 251.196294 253.302796 242.437327 225.583780 219.748788 215.627378 187.594643 77.051258 70.760175 76.120181 77.929590 78.079551 79.268521 93.331428 146.231766 186.700355 194.652116 189.676869 176.160725 190.704882 222.037198 217.371705 190.321025 148.565239 126.599031 127.470436 145.377830 152.052471 120.612253 95.917042 89.358102 78.666481 62.910785 53.885774 50.075876 48.564665 43.349797 239.462453 231.893557 229.143658 224.154401
71.835653 71.192335 72.814074 84.082052 89.812048 71.742437 273.700065 294.341090 15.446316 304.358312 280.304846 276.318431 300.793234 85.467738 165.766639 138.257222 67.770826 55.230854 53.639671 66.240323 227.622080 232.177349 233.294156 225.312576 228.789978 237.082837 234.389968 218.454918 209.168917 213.362805 224.672833 221.478547 223.651495 230.423392 235.419008 237.211388 224.499414 221.315471 261.517503 264.676535 232.797813 165.791179 199.453433 236.713057 237.817084 244.027898 243.441244 244.452925 253.485572 255.674838 253.820233 258.092267 261.220171 49.551426 73.368053 80.696279 79.930057 75.016405 70.848891 77.901171 99.127414 119.298503 277.616590 281.034862 279.244374 328.240520 255.494450 264.085241 265.057338 255.735488 251.834043 253.509910 252.924967 249.896214 240.477677 246.511353 256.997512 260.662520 260.508732 259.562308 251.402815 223.474164 196.894400 184.916636 171.706086 150.898854 128.723729 108.826988 98.050609 114.856602 189.169146 201.850369 139.835280 98.037467 93.657020 91.200374 96.726729 113.662308 148.068019 203.376962 222.733700 204.832021 216.067026 246.391024 259.671991 268.596395 268.788751 252.949821 213.561862 205.343103 220.238295 230.620191 215.032494 158.737464 148.572894 163.103233 163.060612 153.345247 128.327089 94.954734 78.930759 81.232984 81.832746 79.633018 76.334698 76.664321 81.192162 119.691813 211.498112 229.778078 224.159554 219.096759 236.084185 249.619703 256.663701 248.121435 226.012387 214.052234 215.918546 218.778436 216.953520 134.376276 77.171266 78.549177 77.429438 74.235576 71.613369 74.740273 90.340367 148.673272 180.208864 185.221452 182.097724 196.768301 217.384154 214.085801 198.447092 159.912746 125.391718 118.900245 131.664209 152.674721 139.565015 110.387360 85.938196 57.008061 47.226296 48.260041 46.910790 48.611839 48.297627 69.042381 227.594415 224.533708 217.445652
85.138268 79.439257 78.873825 84.392330 80.668613 55.779648 239.331504 254.624749 13.710147 318.962954 287.637716 315.326572 354.185337 15.882315 14.212334 11.008775 34.685885 54.741080 56.299920 51.024892 179.841286 226.112968 226.676037 233.366835 241.734556 233.661629 217.149549 203.270334 210.509864 220.348751 231.570476 225.255555 220.518331 236.979022 241.067376 247.658080 228.940291 235.786952 255.456621 233.566774 199.216340 184.208783 261.924104 258.749319 253.110254 255.444365 249.045537 249.319467 254.955845 257.890683 256.345326 252.427159 242.509091 199.772132 95.067062 87.566756 82.112115 78.783981 72.446837 76.641233 98.428553 116.325897 284.480554 281.728618 314.013885 19.632596 350.841862 298.839465 264.524441 250.392546 247.817359 248.698001 256.001246 247.758591 246.229344 258.703322 261.224916 261.293886 260.618631 254.926590 234.852351 200.520240 184.275733 180.490446 178.907125 169.820574 151.909378 131.258072 116.991261 113.445859 158.638016 202.198265 182.997524 111.827435 97.747079 94.277160 104.351084 122.702763 152.255665 206.925438 200.853058 205.040968 244.225851 264.058342 265.844887 260.580315 238.133181 202.613271 192.602422 212.513973 232.833688 236.111368 204.560280 153.517203 145.756823 160.923278 166.868449 171.711388 173.991622 164.148132 126.628846 91.054682 78.995614 77.082225 75.265731 75.720872 76.264919 86.414444 182.816180 217.492903 218.144881 222.874972 241.209543 252.890351 249.280603 223.502178 208.395885 209.552291 216.581876 224.865374 228.261925 206.631553 91.697979 79.843590 77.049532 75.763816 74.977119 74.667188 77.981037 96.626114 138.952515 169.424140 181.967375 198.718755 213.677884 213.415883 205.918042 178.035087 132.062601 114.827896 118.725668 146.406139 151.033244 129.138551 61.878331 35.062516 43.513679 45.203479 42.970249 47.734091 50.810774 54.582235 206.983144 227.663135 233.300929
116.528187 107.180329 96.528905 88.796192 82.414866 77.981460 194.391630 253.031471 304.242033 337.418892 302.432260 315.616797 350.950569 26.160327 11.441044 8.607712 15.068488 33.231019 46.174136 43.618366 43.354851 228.852365 229.522162 232.078210 228.335697 219.024508 216.387480 219.719452 219.784520 223.880209 230.673022 224.558423 222.799750 244.248321 251.867210 256.648308 241.898366 250.246762 242.780072 209.980857 237.140360 274.582496 299.807024 292.903379 261.192835 250.967701 249.016547 252.876249 253.989367 256.726880 255.089035 245.213604 233.333310 210.522174 132.875160 104.806256 98.159234 88.398089 77.567306 86.799998 102.054767 132.407524 271.030429 272.653335 302.761874 23.690689 344.002715 319.493097 287.576952 247.158658 237.301062 245.889974 250.380133 243.890819 255.533553 260.574207 261.843968 259.573892 256.304442 241.853373 210.611587 188.807792 179.815685 178.813996 182.303334 176.575623 163.785244 142.808435 125.197133 123.215995 148.244264 201.334414 198.928894 140.943138 112.931541 106.162060 109.278818 123.317262 166.572338 202.137230 187.368292 222.513735 252.446455 256.529209 250.925407 227.957849 203.560437 188.925087 201.150269 228.609493 236.861323 230.467343 190.601004 149.625651 142.305760 151.311187 163.750634 170.581930 174.572660 180.136130 177.680878 139.995301 87.727025 79.803617 79.058079 76.724420 73.444765 73.332797 104.382232 203.802099 219.898160 235.399950 250.926303 251.303976 225.011177 203.040205 204.838446 213.078753 224.614402 234.377333 233.690617 219.514176 128.402159 91.904995 88.122354 84.360095 79.982820 74.843952 75.468198 82.717376 105.618527 130.157192 163.696184 197.376215 211.419330 213.770614 209.010866 189.266403 146.894917 116.556659 110.666622 132.234512 159.701257 176.292515 255.552166 26.105498 42.957356 41.081370 44.748890 51.324024 56.031083 58.101210 67.158618 242.925918 258.846488
131.134902 130.427555 118.572301 103.585124 106.706464 104.848784 348.467765 281.914123 284.543452 322.071760 312.086128 311.962490 20.206893 14.803980 348.890067 349.883370 5.469827 22.939199 28.524587 38.486224 44.934949 50.343056 226.980681 226.645376 226.312873 232.599806 237.435254 234.585954 213.030860 218.941252 225.385176 226.708009 230.219485 251.269206 263.337636 263.763706 249.158141 236.026092 203.879724 228.405457 253.855208 248.173135 272.811374 270.819291 228.071750 240.123190 247.654827 251.277135 253.958518 257.284902 253.386694 242.265383 233.972230 219.626602 157.705194 107.743440 98.864083 90.911221 87.844103 96.247568 94.419115 118.739795 241.970636 251.444335 282.853856 21.073969 344.036104 324.954607 331.759645 256.607502 228.254955 243.861040 242.662308 250.508636 265.416602 267.955436 267.390825 261.637576 251.479365 223.491914 191.834059 185.371667 182.990345 180.975131 181.889106 177.508749 171.977011 155.460600 127.341964 118.417151 141.033791 196.524686 201.584361 161.822740 132.609634 123.180225 115.713733 116.559852 164.489769 189.303274 194.208464 239.732281 256.143314 252.651540 231.663785 204.955884 194.518207 193.524741 217.581214 235.206065 236.819152 233.697897 184.575144 139.653279 140.220723 144.352874 154.813021 167.068703 173.058879 179.948257 187.923863 187.607141 138.557974 94.696740 81.400527 74.030361 71.324885 72.078508 81.253838 162.994780 228.317966 248.279792 249.379635 231.351190 202.770322 200.952166 211.656827 225.437524 236.063059 236.889602 231.439351 223.181571 167.077864 114.592918 110.913602 103.350363 91.987586 82.191069 76.409107 75.091498 88.038745 117.029064 134.676188 175.287524 206.587219 210.553088 207.800420 199.429243 164.488375 121.451220 110.939786 116.416521 153.145896 197.100864 226.175488 223.405454 44.256922 44.265706 52.587225 58.345208 64.834978 67.474231 68.298022 248.242250 261.382885
127.671720 132.600116 126.969634 108.340462 109.395720 120.126323 304.781235 309.329643 305.798474 316.525599 317.293266 309.321949 4.886169 5.807592 2.857024 352.078707 351.777601 27.872624 22.421564 45.094267 52.070102 53.663295 51.065213 230.797578 229.036251 230.677588 235.252426 235.624534 207.374514 210.941101 223.822957 228.964438 238.656028 259.893824 269.316735 266.782394 241.008803 204.211263 202.268395 252.795748 241.217533 246.014845 261.096665 206.438010 214.006314 246.671232 248.405397 250.340905 257.344229 258.134319 255.722811 250.277722 241.465542 231.720849 191.922019 98.659395 78.718819 81.229323 91.920896 94.479612 86.806614 79.626757 222.626648 233.996194 239.207450 344.744881 344.270502 324.070457 358.378854 44.419809 217.897230 231.700163 238.094890 257.024739 268.778033 275.636636 268.588014 255.449532 235.817416 194.914073 177.219942 185.364604 189.138382 186.569256 185.900572 179.879530 172.581846 159.893041 136.829613 115.014140 124.748944 189.154603 207.314405 169.577509 138.462255 130.993894 122.736443 116.781791 148.593227 185.364038 220.982331 258.803448 262.495680 236.784304 202.951499 195.547856 196.578036 208.393884 238.435237 248.718314 252.896936 251.398366 169.566656 124.840484 131.053477 140.042986 146.064330 161.985051 172.934538 179.781157 190.118385 199.516081 180.797543 139.602576 110.060759 91.014146 81.693718 81.557187 83.081274 109.344768 228.051072 240.552625 231.996177 211.985150 200.512796 211.374895 225.957207 234.911969 234.364403 231.681119 233.612205 228.479663 175.184595 124.517870 128.254420 135.233802 134.946772 125.342259 99.718431 78.655599 76.333350 90.662598 127.539730 160.981963 194.617763 200.060527 206.460212 207.884737 184.288043 123.814623 111.071707 112.388350 141.749322 195.466890 215.300354 216.613422 218.805756 61.510095 61.311261 64.911484 70.662087 74.697907 72.969153 82.338049 260.209965
127.463142 131.280392 136.563686 114.812836 93.190735 48.617937 280.308133 296.648243 316.911601 319.124970 330.217278 351.187098 334.192785 345.379126 359.060809 2.724152 24.796067 60.982375 82.412205 108.225075 72.475276 57.964290 48.462839 42.913898 230.322080 228.804277 231.285154 230.392045 206.657576 208.251215 222.221318 234.136674 242.916766 262.809947 271.922372 269.956742 210.519612 196.104840 255.295078 281.918828 267.645375 265.553453 233.824000 184.679601 242.813544 252.923590 248.559368 251.792101 257.789931 257.262482 257.704518 255.364388 242.649397 236.483708 226.199795 99.251802 69.187194 78.633219 89.536671 84.958814 83.270858 79.845075 168.526058 229.963384 239.035177 261.653014 336.612742 326.264206 345.443205 59.754946 101.353592 216.069821 241.538665 257.112952 260.598111 258.600426 243.558829 226.708301 205.213390 176.976514 168.761245 182.782279 192.648293 193.585267 189.600417 184.570120 176.578424 161.795060 142.332958 118.324457 117.274586 177.776965 209.538482 173.972739 142.045283 134.181759 129.040161 128.787203 144.370884 206.614625 264.490920 273.836004 241.866227 199.333683 195.665451 213.162271 235.104085 262.428971 273.388452 276.016821 276.577612 251.714989 156.170806 120.154240 115.463345 123.181891 132.790833 150.686762 169.784231 180.328653 194.938192 204.138234 183.040220 161.191983 149.892515 129.660484 100.426756 86.963549 82.572119 88.800515 206.045114 227.521026 223.546758 213.969041 213.115127 222.333226 228.141758 229.509061 231.455264 237.871663 241.334132 232.131173 175.222768 124.289939 126.562240 138.611505 148.291956 158.225031 158.188812 117.469370 80.513810 78.915818 98.532818 139.670240 175.814222 187.801361 203.815548 212.649221 205.892081 125.579630 97.181154 101.146546 124.087233 186.595931 212.835403 218.841431 223.079559 207.384604 87.960484 75.269828 77.303344 80.626641 82.762691 86.862212 254.226591
133.616904 135.794275 145.666291 137.525178 99.827634 42.425265 292.086910 292.684832 315.615233 321.572832 343.383664 348.824092 344.576318 336.376241 356.567550 26.338331 61.057350 65.074452 79.907420 91.306519 90.992895 64.080998 54.051870 50.872757 49.784233 227.396922 227.937751 222.911941 216.209043 209.714250 222.306161 239.820466 244.181813 258.844352 261.420402 254.690324 165.934768 240.984597 284.883858 282.178398 263.329906 231.057314 211.412043 247.769326 279.469497 260.505420 257.740991 257.330186 257.475880 254.455997 249.197862 243.205641 239.366537 241.781032 244.156406 270.884807 66.276550 79.576127 84.904300 78.733150 77.158150 80.565362 99.072727 233.459566 242.497990 237.364033 236.532996 312.863089 233.518423 96.290198 99.046299 197.631639 243.389867 251.953590 250.847670 232.636881 213.085945 201.506608 194.115248 178.096973 163.920243 178.440011 193.969002 196.671760 191.432398 189.290067 183.895743 170.909946 149.989449 122.645569 116.160757 163.872026 204.836743 175.546417 151.139844 144.819037 137.182019 140.604639 168.858939 250.149454 259.366253 238.895912 190.664522 200.852880 254.491668 292.384038 312.497498 313.516237 301.377853 294.987342 284.965096 186.963827 156.633953 134.275465 107.096194 94.182665 99.294342 120.656819 155.520076 180.643794 200.997391 200.902813 179.920730 166.222588 162.468266 158.908871 134.540654 95.165125 80.850693 81.509316 134.707179 221.027614 228.513835 223.823057 215.594448 217.557769 227.607069 235.964739 244.559179 250.124443 244.960183 230.248158 168.320134 124.375412 121.862036 132.621670 143.482522 158.356420 175.870573 176.362923 123.038676 84.967137 82.619726 105.955622 154.242032 174.316091 198.062065 217.989954 222.739614 170.657484 82.344932 84.882430 95.028332 160.223188 212.285907 224.133655 224.353368 208.727903 147.513497 91.288656 85.954896 89.941219 93.426352 93.730986 243.178322
138.949536 138.280828 145.992664 144.358870 57.050785 341.886643 317.924346 314.274537 325.423424 339.749727 357.809148 332.684977 333.835787 354.726104 38.643325 65.316680 56.697214 56.238598 54.432444 52.176634 91.241882 73.909526 77.264396 68.140844 56.115342 54.994242 221.187235 221.815493 228.453316 235.206491 221.414480 248.962489 249.752030 253.426124 247.255069 224.517375 200.991099 285.768508 284.788864 255.409060 204.385870 226.865376 271.551194 293.358100 298.703154 278.707043 271.582770 267.709390 263.176538 254.226642 246.897604 245.039166 250.503259 257.057146 254.646844 255.390757 75.351069 77.027983 78.077474 83.818811 82.771069 88.054395 96.774888 225.369764 232.613693 223.618410 224.773912 215.206910 174.593394 131.540451 113.449227 178.726548 236.116031 244.911436 232.784392 205.538331 196.711606 192.951905 193.443069 186.620842 167.132322 174.588863 194.830222 195.847085 191.733455 191.168655 188.184520 183.823340 163.407358 128.777824 113.259017 147.716186 194.943891 172.694112 152.352274 151.777788 147.469046 154.191942 210.625767 239.720436 236.068399 216.531048 224.000047 270.392837 286.158136 294.971779 309.763208 322.186459 318.538942 310.235671 165.819918 149.401141 161.812395 168.101713 150.395934 103.965402 92.641193 96.775878 126.057474 174.085465 201.844340 196.529075 177.193970 167.958194 165.900048 168.670964 168.186357 133.050326 91.498124 84.917428 98.338532 214.396838 232.638217 219.007995 212.029008 231.464714 249.493431 257.621787 259.762668 253.956951 238.054926 217.329953 162.490306 118.382527 112.281387 120.220123 133.590731 151.541995 172.736261 191.126027 184.809832 119.946325 80.360503 84.585832 120.051862 156.772290 189.981067 220.536182 230.569390 220.220049 102.963449 87.459957 86.430725 112.728834 207.849944 227.917402 223.939169 213.160665 179.943983 115.142357 98.064323 99.012704 101.535479 95.173169 242.757725
148.564139 137.251375 100.365420 338.238284 339.253749 339.122382 328.772015 325.531701 344.261678 11.949513 13.553764 0.830315 341.169308 4.518543 50.282876 43.924486 27.429420 35.870390 44.789465 68.687365 97.895486 82.872493 88.157303 91.576709 73.273524 54.883986 64.274387 227.870436 233.166765 239.417176 243.086499 262.362632 253.670860 248.178841 238.538257 223.624864 250.738084 279.366099 268.921337 188.272691 229.852127 280.663380 290.914476 302.588799 326.921142 296.740327 272.452109 273.137487 271.619130 262.407805 264.065240 265.898484 270.375335 267.743735 255.790837 237.975384 122.984669 80.917724 79.018624 90.274930 92.373200 94.569606 96.696647 182.008585 216.063218 227.520230 234.289761 204.614473 183.830584 162.901432 115.820992 161.366221 230.120688 229.326924 200.920519 187.898865 189.247706 191.329600 194.165006 190.502982 174.050249 174.031730 194.452854 196.101055 191.607889 189.528080 190.455995 192.078813 177.040222 141.379535 111.069011 120.720290 181.248077 173.325755 145.386714 147.885936 155.292552 175.663052 229.193762 253.853027 281.972851 301.188874 310.165934 302.510230 291.683938 286.873075 290.818955 300.015516 313.821847 355.715486 128.259600 133.832975 150.466467 171.218867 183.198173 158.089281 115.604581 104.050436 109.877279 153.269605 195.477410 193.925158 177.239599 169.711333 169.530415 170.553106 178.980091 171.310563 119.591073 96.556100 99.260286 192.712260 226.200609 220.972102 242.284657 266.241561 270.774936 268.401487 258.679044 234.730140 215.074910 206.142472 178.144097 120.877920 100.918275 105.005778 112.680626 133.937098 166.415168 194.032000 197.408387 183.989128 114.512544 88.841972 100.271767 138.127619 179.131949 222.823807 236.236000 217.836676 149.758217 111.446299 97.666804 101.756122 191.929627 228.237846 226.593189 215.149595 181.534206 137.380323 113.145260 106.651738 107.613143 70.097426 316.209230
136.934932 339.001007 331.776449 344.683263 6.829383 347.524014 326.729690 330.518373 14.534455 31.871500 33.191659 17.348331 355.815084 34.663446 100.844811 4.320805 356.029222 44.789096 70.683982 82.557164 92.447957 89.673718 84.055669 92.484551 89.741265 58.315065 49.822239 17.026320 234.431641 238.628714 259.366427 263.250114 250.244624 246.014615 243.850955 244.886683 256.016585 258.593107 224.045159 197.681707 267.212621 279.898802 281.136170 282.406808 299.366974 287.494968 259.440519 267.107931 271.992652 273.026614 282.498288 282.468019 275.422698 265.012173 250.837688 233.761182 175.288651 100.521936 90.473763 88.683377 88.683088 89.309954 86.281284 112.426777 222.262716 248.218620 243.124750 184.732747 196.212690 200.626628 127.586459 155.423032 208.075465 198.641283 183.841905 185.159473 189.684641 188.987615 192.318426 192.182227 177.437540 176.346050 193.104384 194.548833 189.163956 186.979549 191.229873 195.224682 188.278179 166.331597 125.616105 104.735118 152.394011 177.021155 143.332024 137.102290 161.380906 220.792359 268.162583 285.228729 299.205919 319.442610 330.176783 323.474409 307.519646 292.425929 287.636667 288.051091 295.045188 104.608223 117.130892 122.035572 135.704092 161.323138 182.910338 180.551089 141.010589 113.032111 106.213822 127.720824 182.291533 191.041392 175.287110 171.748903 172.457959 167.706395 183.693432 191.718236 150.073369 105.748976 97.067564 156.346301 224.304986 241.818968 260.256846 265.566520 259.881830 247.403145 223.500921 205.112140 204.762190 206.402632 188.231670 147.271325 106.124167 99.665303 97.958610 102.209360 135.833677 185.042451 197.052327 196.870265 169.216035 119.922614 108.144190 131.924524 177.183338 220.527784 231.397179 198.453456 157.819922 135.214259 113.996887 106.304547 167.673659 223.457476 224.111043 202.018900 175.776466 150.697706 127.606420 115.980048 110.410231 309.580534 307.214075
342.551579 339.658259 338.467376 11.274008 50.928759 5.515102 323.775251 351.293290 26.973189 38.786625 34.768493 30.785870 46.010997 83.088773 114.581574 257.216546 299.148072 81.154354 82.034099 82.448542 82.759410 82.841623 72.594399 74.921607 74.378837 65.829274 57.117615 55.787822 241.581853 239.614731 252.146824 251.361360 241.886791 248.792668 251.868252 251.074549 247.957700 243.648502 204.654287 215.452459 254.115161 259.954243 261.874965 258.415430 243.972922 237.707114 245.415838 259.730950 272.387667 281.039779 287.137695 282.476109 266.637394 257.101596 244.649064 236.170538 185.256415 99.791778 101.346061 97.036091 95.628454 97.276397 96.986738 104.888788 246.782873 267.363073 233.568148 168.414585 198.850782 200.300593 134.365715 145.122522 184.467482 184.897219 181.656668 186.720935 189.429136 186.852263 192.930772 193.442521 178.661473 176.990988 186.964254 186.378734 184.550529 188.016164 195.456379 195.913871 189.158843 180.570587 160.860900 119.641622 114.070103 161.910042 153.912589 137.156985 179.404170 263.960458 284.014303 291.653604 294.748259 305.744344 323.922274 327.559290 313.403449 285.085234 261.137463 250.778202 204.044084 111.909695 91.904520 99.338395 111.899688 140.317653 177.917961 187.752343 167.382500 117.700904 100.525351 107.374648 156.852448 186.174012 174.768890 173.384280 175.220972 165.114714 186.335182 199.469614 175.197844 121.623030 89.646142 106.882003 224.092848 244.948438 251.017240 246.752163 236.687245 220.672374 201.646208 199.663453 207.615296 205.419837 186.910100 169.224435 133.344963 115.396459 100.321677 81.239970 86.584997 139.805983 190.550696 190.986527 178.045473 148.025120 115.819542 125.590301 170.518612 217.521512 218.497070 185.421412 159.555143 149.353096 135.775571 122.374017 151.490014 214.285198 210.661919 188.486097 171.462869 156.711991 141.047256 127.162944 101.168522 299.823752 294.827759
349.480664 352.977206 6.044278 56.196941 69.686875 6.091245 327.656153 357.776655 32.865338 39.372234 31.141280 42.008522 51.770863 59.123187 69.368342 292.619865 284.372779 85.505642 75.925464 80.701946 81.047768 94.489063 70.374317 58.540263 66.501434 72.655932 71.248841 63.359010 39.679241 241.562955 241.995720 246.472936 240.070267 248.757700 251.600447 249.838796 247.426144 238.186511 208.407480 249.980984 259.738798 255.499586 252.232525 255.026513 260.956123 197.983810 251.106170 263.563830 279.353228 285.722715 283.222666 270.291100 250.876004 245.326814 239.031868 236.760687 221.469852 84.199870 85.831927 99.572192 103.309899 105.283436 108.821543 127.451838 282.064643 284.819646 183.707503 155.262243 196.533906 201.799018 141.531974 123.453569 160.047298 181.210832 182.468252 182.351912 187.758054 189.647278 192.587405 194.360663 184.810646 179.225004 182.219507 179.162620 178.825671 185.365149 196.997639 200.258187 194.719164 185.019163 179.636016 156.637661 115.561761 130.836261 152.532916 154.363500 234.004895 273.118718 281.852232 286.699628 286.949647 289.958192 303.173329 307.955250 233.837287 210.557034 213.009262 210.920032 201.311699 162.586210 83.281400 79.662095 89.009519 96.421867 151.170815 186.026187 187.213159 151.076192 105.350225 98.070961 121.893335 173.406841 170.973608 169.657134 175.081825 169.076526 188.715318 197.017635 190.101400 163.663237 102.297875 104.848013 208.054958 241.807164 245.954655 240.520134 229.844544 212.009165 197.507841 200.717870 211.027466 199.682792 182.467786 177.786392 144.070538 134.622804 137.571841 100.024001 82.352086 89.576491 143.456398 172.269820 184.276487 176.608343 114.355586 109.745683 154.959572 208.812449 203.533565 178.357006 159.555216 152.395916 148.575984 142.779218 157.595402 198.765531 194.752753 179.759396 169.164187 159.505168 151.170290 148.117666 297.393386 296.897291 291.076902
359.962175 10.033244 37.511007 72.623041 62.930798 354.040811 341.632726 16.368042 40.469875 32.357653 35.619605 51.417340 51.340192 54.918054 59.528393 339.577667 224.220514 66.576079 67.986210 78.989164 80.039353 118.706740 108.492073 71.538447 75.423628 80.514068 74.974560 75.225671 75.623390 247.980010 244.401301 255.434490 257.960694 255.737087 255.617410 254.377340 248.620641 236.882181 261.420808 294.020933 287.586127 265.644943 263.152191 264.972927 239.683220 186.907458 269.460444 271.479227 279.567560 284.602772 273.379586 249.581414 243.671903 236.939612 238.104045 239.191200 237.642515 91.732942 76.477385 87.590410 96.614285 97.657660 97.289944 140.926751 284.992241 279.574534 134.146377 136.913204 186.363671 204.537598 161.444204 126.148180 132.562392 162.945206 179.764636 182.147146 184.283901 189.483324 192.408359 192.788850 191.874443 187.442053 174.654084 169.574989 176.278168 188.385683 199.689681 204.952434 199.866133 191.370004 197.553731 183.320442 142.071375 126.747755 143.293889 179.081401 261.638367 277.880220 281.915259 282.552396 280.549682 281.172374 272.880961 167.175839 169.594674 186.874587 200.452941 205.550039 206.598102 199.006089 138.077953 85.281397 74.297331 72.481466 95.100829 158.126710 189.289417 180.032065 139.948094 115.412717 112.727482 145.426528 162.629101 159.232469 168.331226 171.904621 188.803214 198.460545 206.741711 190.778059 127.476180 118.532630 199.410632 241.954937 244.254875 237.027866 223.181032 204.707984 195.446564 203.448063 211.352922 193.842035 187.615083 192.994084 141.271332 122.118997 152.231038 159.144454 114.652911 95.088818 104.312740 142.962756 189.963501 198.729172 138.132101 104.523284 117.895649 178.335928 188.140990 174.569518 161.362877 153.470945 151.097100 150.290112 160.618271 183.306187 183.741192 179.292449 172.737166 162.313831 160.891123 283.599197 304.957912 298.424020 292.046540
5.453894 26.756515 63.940352 77.788252 46.046930 354.292415 0.809085 32.451572 30.939233 19.682140 30.545547 42.570943 39.935658 38.382737 36.353733 31.640877 274.853096 124.114473 77.970189 80.659795 79.809871 98.570753 139.229027 117.414647 92.331733 89.143881 84.627054 91.671072 96.575469 260.769743 268.657451 268.117230 274.875818 263.548645 257.271309 256.438851 249.335630 244.888718 263.233570 263.031247 267.143224 275.285639 279.235298 259.132517 195.054028 221.893048 271.283125 271.752817 273.329453 276.878695 261.716921 242.790793 241.149710 233.689558 240.802514 245.060936 238.974959 189.171122 88.330631 88.283458 97.891131 96.856611 93.676092 122.645943 273.825016 211.946147 124.682970 126.548064 174.708325 196.164178 159.560335 135.147488 134.700366 145.081104 168.173056 178.858910 179.948390 187.610768 193.096456 196.369019 199.236283 193.969709 169.452919 161.804462 176.326289 193.239446 204.195838 208.928483 207.613687 212.136818 218.552882 172.963375 149.895307 143.189741 151.227039 227.535104 274.973120 280.345103 280.387861 278.011829 271.302808 259.915062 183.961133 149.162398 162.150389 186.579625 202.375332 206.766555 207.888274 203.473339 179.604115 136.444839 88.353972 76.766617 78.103295 97.292465 172.415937 185.227737 158.182016 140.412795 136.001783 144.055222 158.161502 149.228461 150.813338 160.901397 183.104390 201.896660 212.193110 194.323015 142.250996 128.843797 197.572196 242.128924 243.070199 233.218248 214.191556 202.350313 198.301131 206.481158 210.107656 196.133299 198.688637 199.077178 152.198658 114.942546 125.967137 163.855855 157.457504 125.876088 107.452259 114.930739 170.694728 194.080043 168.022690 135.051748 126.394141 144.176795 165.917143 166.192921 159.925836 152.889589 148.810425 144.656603 101.616734 51.709837 198.383929 215.375321 209.038332 1.795814 334.113360 318.261800 314.352618 310.331478 303.748893
38.669268 72.515341 86.836807 82.487460 37.536880 5.858443 16.613101 19.026155 11.068807 7.910081 21.302853 30.094592 25.253777 17.759090 24.359177 33.265125 33.054218 156.476791 98.765404 82.298213 77.118969 73.517841 101.868795 121.834795 104.150022 96.694634 100.145963 103.583918 102.485467 278.938525 289.183960 274.156768 268.628191 265.844540 266.534602 260.483510 253.251085 248.128647 242.557416 233.763083 250.706266 276.549501 276.748265 205.264614 198.091864 247.092249 266.478174 274.806357 270.327916 270.602313 261.766387 248.366220 228.069549 231.478650 242.401725 244.887040 228.299761 197.927409 116.725095 108.049295 114.309747 112.006870 109.862449 175.981691 275.738190 176.750541 122.106666 116.807515 139.562663 178.665739 155.629670 130.099339 134.594113 142.527940 160.014225 171.746508 173.407310 189.957152 195.525309 201.660073 202.821215 190.643176 168.357799 160.081799 179.185399 199.974216 208.302653 213.480171 215.448168 222.599894 221.574340 160.816229 136.824973 148.887121 184.331147 275.718800 285.902581 283.161227 274.238338 261.398088 238.868515 208.820119 165.682398 149.476019 161.040530 186.170430 202.779216 206.259785 210.528917 205.596741 180.228870 162.757784 142.157993 100.018747 81.713568 79.863507 102.477764 167.226318 159.749324 144.108398 148.482619 163.529788 170.215334 159.082651 147.644982 145.501745 163.222189 195.517104 209.905454 197.475025 154.338111 139.064171 202.714412 250.406343 245.029784 227.019904 206.708059 207.179178 211.566140 219.010533 213.869853 198.223233 201.732405 199.853765 161.896090 125.270213 113.706159 139.136296 161.427854 153.229475 125.479241 111.092340 141.927338 178.141973 169.200301 155.643898 148.129815 148.456116 155.020096 154.882237 154.178344 155.253428 0.424405 342.127768 350.810326 358.569113 1.767918 3.122888 351.302603 342.313665 337.579178 327.186852 322.788667 323.922269 320.734380
85.086907 99.040858 97.582847 85.286855 31.236608 0.654394 356.768434 355.399012 357.097685 2.905076 14.154497 23.481995 23.238229 17.532728 26.824535 40.164700 63.973656 109.966878 115.222710 80.816344 69.065632 69.316063 83.234553 103.279953 100.462539 100.576941 99.726708 104.475900 115.877454 277.968379 282.522442 265.340018 252.602487 263.110576 265.218551 259.261103 254.215970 248.405061 246.736246 257.889806 267.865833 268.393451 231.298124 190.609910 257.735226 273.060861 276.992771 282.498188 273.525405 265.957246 268.096611 249.917115 205.062790 224.739078 240.007407 232.895897 214.060745 188.603072 129.086559 115.936311 122.871271 123.460480 124.918427 234.005263 290.793058 117.385786 123.347407 125.776685 118.532868 150.131864 147.292438 121.989005 125.672057 133.038535 304.268237 332.041738 353.449858 8.739146 15.621928 193.474961 196.082746 187.927477 168.546671 154.985881 175.969329 213.876065 213.964835 216.104682 218.238413 225.532730 222.668666 179.850676 135.879562 154.608654 258.442077 281.164189 278.732158 272.751278 258.573215 222.707420 202.893854 191.593699 167.045255 151.859850 161.328821 187.858431 200.606187 205.692910 214.581699 206.942445 177.270090 166.363016 161.620926 131.542256 107.924327 93.662570 87.759153 114.620511 146.416412 142.689563 146.327136 173.744998 177.400715 166.414846 158.613213 150.208513 151.142760 175.539004 202.773850 193.632839 159.432024 152.768277 239.050051 258.233173 237.568958 216.418887 209.140634 223.756310 228.952177 222.696547 205.957608 194.732203 199.776256 197.486594 166.328053 136.292492 118.325360 120.894110 147.298568 166.922612 154.382737 127.332697 133.761855 168.115295 167.732883 158.282671 154.369020 149.129031 151.081903 156.425088 163.873597 316.727974 325.440855 333.970200 346.970481 1.269352 8.138793 12.238535 359.404483 347.320304 350.629581 333.084520 321.761651 329.648434 335.074818
96.069225 97.794121 94.635463 69.389129 4.841107 348.463211 337.154540 337.418445 345.033218 357.911871 12.585380 25.864394 29.669223 28.574408 34.631769 45.007526 55.065654 66.749192 90.000000 86.344794 95.740784 91.361048 93.930830 105.980685 109.055881 106.882130 93.603730 90.418464 122.063070 260.160157 250.084266 243.166504 252.292627 266.992905 255.593992 255.334281 261.796358 262.468466 257.781713 263.580116 266.174624 243.443871 214.099745 261.256318 294.439657 296.017329 294.751633 291.639412 283.187974 263.838196 258.068265 227.508091 170.500487 223.935298 235.139607 221.612787 203.554363 177.332494 131.753265 113.177528 118.044471 126.113533 128.568584 255.619727 287.991867 92.665424 109.375608 130.654428 128.677882 129.566073 136.008851 119.302207 115.598686 327.950688 320.758589 330.875086 351.412233 15.211309 25.068496 30.991809 30.519101 11.292330 346.138367 337.403465 346.353270 12.632216 24.686458 224.700931 224.448554 229.465322 222.741822 189.336087 150.501576 198.199553 261.517781 256.114715 241.721056 235.379381 216.407803 188.052696 193.377490 195.699435 172.361718 154.653597 161.143040 187.311190 198.489412 207.784252 217.452774 204.765561 175.293735 171.588288 172.136798 138.952700 123.583322 119.000474 110.490990 107.684667 122.881815 137.560475 140.125953 161.546728 175.061868 173.211025 170.741185 166.230897 160.156528 170.888643 190.074052 174.468336 156.150060 179.605707 241.046926 231.057025 213.294956 209.669043 216.888398 226.440459 218.363828 203.379684 191.872535 191.838308 198.430928 193.220304 172.789486 152.009666 133.185215 120.027695 125.916757 153.983358 163.045561 148.878299 140.788560 161.718930 169.432081 158.632183 152.762772 145.343460 61.192806 335.375829 327.995425 322.462709 324.369512 337.745434 357.766093 2.693937 13.050498 25.328320 13.800169 359.653736 351.587866 340.491185 336.084464 338.415847 338.625225
97.553084 93.884062 85.235747 43.669913 357.349615 343.253716 326.513167 325.696840 331.611126 352.137920 19.486403 32.066242 35.244169 35.929945 37.652133 44.430916 46.650972 45.699244 60.231438 98.191453 123.632791 121.618639 107.195413 101.743326 116.431183 133.136370 104.072576 80.818971 87.833402 247.153905 234.186780 239.235171 261.146232 278.899213 265.570441 259.451648 275.729565 276.733444 256.720251 254.496460 248.847724 224.542167 239.720945 267.446696 287.795722 294.419472 299.804348 299.258148 294.503317 263.412347 246.519498 219.125288 161.259680 212.064542 225.012775 217.363485 193.457598 164.374809 129.630967 112.320992 116.659385 132.782473 151.316898 274.481264 278.182852 98.070447 103.301103 121.909046 133.594251 126.074824 123.290568 116.380695 109.271438 295.774091 309.020608 327.921992 359.145983 12.738952 21.456851 28.316355 22.536087 13.642302 3.848436 346.139866 340.533195 5.978002 30.803538 39.553132 231.721842 228.884725 224.055378 202.225882 173.637189 224.672599 238.009219 215.751932 213.433171 214.270770 194.928576 175.913148 194.219937 203.198591 178.558840 160.804070 168.316191 186.802462 197.658555 210.265344 215.427596 199.418352 175.101713 174.793183 179.590352 142.771173 122.089610 123.281898 127.395063 127.320099 127.226424 137.688673 147.951490 157.219770 171.831754 175.426079 175.772273 176.421086 172.648599 173.699620 178.789487 168.905067 157.432878 184.781295 212.714475 200.982887 199.557853 204.594643 213.173331 214.932854 208.154983 190.432690 178.775635 189.478929 197.947902 194.087609 180.937633 160.999136 147.697094 133.619225 125.429162 136.037483 152.973248 154.927544 148.018850 155.348200 168.646739 173.459614 333.145910 339.966077 339.208808 337.239878 333.310406 327.103445 328.477171 347.914004 5.336537 4.164548 19.503730 29.187775 6.709837 349.689882 346.317308 346.153264 349.128376 354.367779 357.838595
95.448382 91.499580 81.767052 23.970528 340.267950 335.277567 326.462987 321.962706 326.595354 347.050422 17.145246 30.088214 37.364718 39.712149 41.595018 42.382688 41.868221 47.175669 63.866277 83.099801 96.936569 120.222480 112.921054 92.983759 96.399218 118.121619 106.633788 78.128628 70.781809 240.932459 235.519636 241.765177 258.507740 270.305575 272.080112 261.287441 264.760092 259.609459 257.243327 260.111564 253.055442 256.254376 277.166404 273.949534 282.377515 290.450254 297.966641 299.044695 303.351010 272.073150 244.272104 226.176413 132.709390 181.239975 219.453508 213.441310 187.010377 152.313389 123.364232 112.207483 113.987032 132.889965 194.165073 269.734399 240.069869 114.575934 110.918544 121.856869 131.331233 123.156390 115.663498 111.799983 102.865398 284.441893 291.838726 318.290270 15.059737 8.925119 15.751174 25.800553 20.268358 14.112358 10.948344 6.915808 358.574342 0.771123 31.664821 45.420682 40.602467 232.982564 227.308647 213.386828 197.141551 216.004820 203.185670 190.020144 200.399407 205.744475 194.936797 182.237758 197.251739 203.859959 182.732601 168.569105 177.638305 192.139214 196.824518 206.911115 207.508644 195.865170 184.763642 188.435144 184.794623 141.365141 120.323743 119.515551 125.521414 130.582538 137.305825 144.269266 151.270367 157.683947 166.983055 168.067230 167.569866 169.943139 170.987259 174.724652 175.999017 173.240730 170.853192 201.644435 188.561873 187.879866 199.237698 207.838134 211.610918 212.290688 210.176863 192.006127 164.687387 179.666419 199.837341 201.300139 189.417999 166.842382 156.128988 148.885346 139.997573 136.974471 142.238348 149.946460 146.300233 338.072170 335.471459 335.148285 335.592776 340.265813 339.903891 335.977279 337.501068 339.322540 343.914179 358.659229 2.989198 5.627766 19.132085 19.102308 334.209608 324.895352 337.562284 347.999548 359.230623 9.978130 16.235705
93.600234 89.941667 73.194112 347.237542 330.995721 332.179362 325.264393 318.298143 324.883446 343.136704 8.761179 28.611487 39.390869 43.853030 46.097853 41.518260 42.700559 50.941689 56.201236 61.716981 77.515283 88.165754 89.956742 89.078843 74.675892 48.406956 47.892485 80.625579 66.367587 59.520937 248.299121 243.360539 249.843012 264.142913 268.953087 259.194344 245.000521 243.213325 260.209367 261.017583 262.911336 266.134539 272.852585 281.850921 290.164422 290.762451 293.626516 294.173145 307.383298 316.666635 240.872839 219.630572 136.209639 164.726236 215.705857 204.299969 182.247343 145.470324 119.809537 112.451682 104.962032 117.198044 221.679449 263.386937 200.555132 129.825507 121.242679 125.968386 126.306541 116.790811 111.791560 113.258844 305.624037 287.394884 283.763135 306.634114 8.551092 22.440207 24.578793 30.094838 24.669890 20.992111 23.962489 18.670548 5.968801 10.923195 34.688554 43.583942 44.356899 53.937302 220.908990 216.715301 206.936658 198.671534 182.110116 174.671373 191.697930 200.100904 195.885406 190.368874 201.860485 203.533038 188.438525 189.021040 207.512554 188.892621 187.972125 205.373528 205.359832 200.181855 202.144337 211.033126 183.438967 128.675332 115.907626 114.919181 119.762562 126.114714 138.355835 146.244665 148.121958 152.548014 156.030816 156.251269 103.530493 344.146310 349.048961 7.896511 4.350940 341.148519 350.840685 6.017296 10.360704 14.222519 14.325960 221.259062 215.794210 213.216466 207.043117 194.936162 171.729882 170.006853 196.852437 204.143168 192.066334 168.490277 156.224081 153.829580 148.469646 144.457281 143.818119 345.688959 337.122368 335.129934 335.096205 339.123779 341.270377 346.077359 350.265486 341.493041 335.923390 344.843497 358.798307 7.437152 4.909062 0.896353 15.377134 32.507524 323.416316 290.213354 306.513784 339.640084 6.495828 16.268053 17.598112
106.686904 92.296385 23.392825 332.916679 331.866501 338.867663 325.985458 315.159066 319.171682 337.873665 9.828634 35.784435 45.766990 51.731044 54.253770 46.537590 49.465396 56.656901 53.896523 59.119709 67.995955 66.637070 73.430757 79.136212 58.586576 49.184916 78.153328 90.258995 72.573044 58.724114 266.004456 244.482697 248.508055 266.521212 267.915835 261.831681 249.527413 246.427164 258.490513 251.991417 253.811354 251.891519 255.951087 264.894498 277.837394 283.358029 280.967190 282.320969 285.040801 32.399840 230.435082 206.181808 160.726892 165.326632 202.761227 187.439000 168.718698 142.682895 119.803426 109.930468 101.759156 103.873832 247.994532 259.931726 172.058587 136.229010 126.797120 126.576649 119.450310 118.465678 120.758974 117.615921 302.110054 291.078953 284.084802 302.377920 359.650148 31.336518 26.319098 16.009431 7.982446 11.237824 22.515683 19.290046 8.425105 19.364454 38.094087 48.681318 60.335488 60.961490 75.599608 213.253567 209.613048 190.798582 169.491039 167.727889 184.944494 201.160967 202.692318 203.384985 212.360938 204.562518 205.488291 229.211028 224.992327 177.300684 183.706400 205.253163 212.249261 224.986975 229.446166 223.971535 180.062928 115.220204 105.343713 106.064074 106.101572 111.955002 130.461296 140.715708 140.808339 151.117678 326.362020 331.841316 337.525042 345.610941 352.501452 357.239438 355.274880 347.211595 347.387720 1.569848 13.436932 21.433946 27.898693 30.324298 31.936237 209.224571 204.915221 197.208978 182.450473 176.080367 192.705917 197.899855 184.910663 168.247322 157.988257 156.298112 153.343623 139.642126 323.635615 324.832940 329.494521 334.617561 337.894779 340.394789 343.793911 348.169887 353.149733 350.131867 344.810291 349.162320 0.194846 9.668826 12.099780 9.690254 38.226948 60.375187 342.163561 280.063748 279.453717 301.646153 353.112863 13.946234 15.967670
114.111752 42.351360 342.454215 332.414114 333.953994 336.873695 324.799793 313.005476 317.039163 337.455053 19.416204 42.515068 49.659787 56.063105 54.275112 47.411030 54.108632 59.429528 55.502344 59.682399 62.449938 58.361870 63.408786 68.745890 68.234348 82.271946 99.009067 100.313529 84.455258 62.308132 47.015252 256.048530 254.325754 267.806719 272.229297 263.113402 261.897528 248.675482 251.783638 245.106983 248.331411 254.819924 253.128239 250.971206 257.865631 271.894074 268.905759 268.485846 249.588053 155.127927 145.325258 169.430944 162.865932 174.315727 182.141546 171.679939 165.803189 152.639855 126.055894 105.162248 98.733121 104.262197 237.235889 229.053218 154.290046 137.338973 128.523349 117.004933 114.138211 120.044772 127.921603 286.326854 301.004947 288.484757 280.562978 296.128687 342.246554 16.338288 14.305710 14.783870 18.880948 20.781934 16.141562 9.005556 11.165889 30.748234 42.054982 54.091313 68.702646 60.476894 52.590154 77.596986 205.823526 195.023842 166.084549 156.557638 202.619865 221.697438 212.014423 217.629005 221.635992 224.682655 239.537634 245.191159 196.787006 164.977718 187.912759 231.006622 251.915962 255.440457 229.714667 220.132459 186.062794 119.834655 102.712755 99.578509 94.208475 93.887135 108.880421 124.781931 136.206585 288.941637 313.676537 328.360492 336.203929 345.903555 347.911390 343.602798 351.199942 355.699602 349.344813 355.575260 15.164796 28.434127 31.654880 31.279963 32.670483 33.654911 44.819636 193.816040 184.319504 185.646453 193.223305 189.251913 181.001357 170.186766 158.522499 150.394831 327.324583 328.160892 325.375222 325.526317 329.767550 332.318651 335.748689 338.022128 343.968673 348.672889 351.453834 352.891691 352.292150 354.168923 0.480034 16.687239 33.331174 51.579224 75.884131 51.995541 348.274639 283.729954 277.575763 284.440725 322.883139 7.951791 17.850318
335.602174 342.971522 342.717312 345.290862 334.178622 326.847020 319.901966 306.319330 308.002759 337.541339 24.541741 41.382499 48.336295 51.977831 47.023609 44.634636 50.854851 56.366354 59.354882 62.264065 64.091809 62.576575 63.965268 68.477595 82.822364 89.347378 106.264704 108.221558 89.680934 64.637219 61.414124 257.798342 251.402957 254.042407 268.156164 260.812377 262.076358 253.519641 249.593391 243.855075 249.912190 251.582939 243.776035 247.468819 253.360026 263.640837 264.466329 264.942921 248.631523 161.457352 135.198451 147.207912 156.227651 161.236642 161.386910 159.897133 161.899742 163.439897 146.854663 118.419518 98.077026 93.125445 198.449212 208.532287 162.336217 134.827682 125.554158 109.134133 118.706786 123.819556 131.279412 299.818126 301.461010 289.317889 280.246377 293.133082 319.135848 349.210634 8.026803 33.050918 36.505721 12.743366 8.303763 14.570571 22.142916 29.209793 36.454071 45.693396 53.896788 51.358158 45.956537 38.363115 25.254522 333.195719 332.498134 334.965769 348.908355 16.716382 24.914173 224.472693 225.000000 229.492381 231.909751 216.883476 179.662118 176.245240 253.341415 274.844475 270.225937 238.519295 208.192912 205.652226 179.916248 137.900832 108.952315 101.785236 91.436084 82.355648 84.434901 99.691047 165.709675 298.797622 300.223807 315.385182 330.817155 340.475030 342.230475 334.374917 337.826181 346.481349 345.928320 353.179230 16.488815 32.571569 35.708693 32.891096 28.241127 26.844054 24.707723 20.584113 10.766882 5.675040 5.129847 354.997800 327.963288 336.220009 345.025843 343.549516 336.945922 330.521432 325.048028 324.417479 332.843585 334.390096 333.518441 337.203636 343.154361 350.263012 351.113299 352.945904 356.306581 358.035610 8.548470 44.331580 70.334038 82.583584 52.107312 16.315557 6.873307 290.691258 271.326424 274.574516 290.065748 356.738914 19.359880
336.508033 349.227740 0.329434 344.829932 331.505346 329.552997 324.582945 302.967486 293.181946 324.316199 18.872981 40.244480 49.505036 50.721419 46.512367 49.017904 54.879971 57.613928 61.152640 60.838738 63.669397 72.337333 66.264125 63.313322 67.262931 71.168547 96.832509 99.597336 82.895664 72.481039 69.366293 225.787094 245.454716 239.920659 249.869891 275.671467 256.000799 251.045448 242.823273 244.533355 243.476152 233.140486 238.867837 254.577486 256.559777 260.731072 261.641678 271.321015 309.694014 86.472050 124.183347 139.832671 145.802367 149.847660 156.349435 155.648118 152.788272 159.488339 159.471439 143.836446 117.124238 89.951184 105.264315 205.314821 205.607765 139.335057 122.459948 119.098448 124.243882 126.000261 302.436351 303.003602 301.463451 294.949715 283.103726 287.860833 316.653978 352.886796 32.412307 51.287006 7.760284 347.547505 9.132091 35.278203 31.577093 19.406559 27.295968 36.458594 43.632222 34.398688 26.758945 22.879994 15.853359 357.593774 341.997094 340.771153 352.083938 21.463850 42.945716 48.939415 224.282372 224.836468 220.826498 205.053381 197.111573 250.437358 282.145630 281.528983 254.036631 195.231715 194.914555 187.919711 168.988718 150.945396 118.929167 105.159455 88.881957 74.701140 68.702518 87.265225 293.854848 291.101739 291.271644 298.497411 315.904653 337.795247 330.158032 321.445508 322.791760 335.511245 339.762808 344.249648 9.520022 32.488824 35.595282 29.352936 23.317813 16.516799 11.488674 11.757693 11.340517 13.595989 9.214523 357.962760 350.259983 342.985545 341.429880 341.415111 339.225652 335.677485 328.387795 320.059943 327.488951 335.470339 331.805739 333.175972 341.373220 352.936953 357.128802 356.863853 359.978710 9.145223 38.710527 76.779936 86.965671 62.695598 355.825290 4.958671 27.982463 332.439992 267.132473 264.763899 266.413819 305.952221 357.966874
350.030401 353.572445 353.556279 343.983873 330.935001 334.712173 344.749855 325.259994 295.186665 307.132657 9.978981 37.365260 46.380018 47.582590 46.735447 52.133785 57.049548 58.307603 60.477178 60.918762 63.188984 67.628173 60.701895 52.669682 48.081111 48.448772 71.300027 78.706801 68.521944 80.347759 65.812843 69.472117 247.436969 237.588456 242.051144 268.145928 252.857855 244.294321 229.438716 235.595839 228.331122 230.173289 253.642769 259.583589 258.126575 259.690458 261.562410 266.961757 312.948131 57.893326 89.945947 119.359252 137.918641 147.927890 160.653564 158.491922 147.770198 148.477040 157.321900 156.377806 143.108125 109.237193 97.955068 206.440198 229.891235 166.530222 121.889689 126.235614 126.822232 134.828559 305.308724 301.656490 299.956977 298.364927 287.535945 281.762467 304.746708 0.697060 36.737972 19.747459 346.844545 348.253480 32.287487 50.517360 10.787119 9.973175 32.351059 50.682111 44.183750 20.737909 20.479910 14.984366 2.100688 350.638170 340.068930 339.151002 0.638675 36.902741 46.081724 43.851571 36.892554 225.164690 217.367853 214.587455 228.486861 241.820332 237.611834 226.787097 193.720150 167.477036 183.015270 185.255158 161.346547 150.592940 128.521833 104.504355 85.099405 76.415794 72.047843 86.263541 272.010231 275.162821 275.667848 271.325452 258.849276 283.501153 303.695755 310.777978 316.053758 326.769375 335.512159 343.184349 4.944777 27.208061 28.083451 18.720817 8.397881 5.468360 15.215978 20.707269 25.578505 37.110259 5.598479 351.832912 356.891189 343.306162 338.494391 339.522615 341.571319 340.376014 332.664606 319.791393 319.881231 331.976775 334.547427 330.390188 331.645244 346.037053 359.643392 4.235712 10.858189 32.874204 67.858794 83.407036 77.599287 2.441818 345.635906 14.521084 45.380099 23.470167 276.080961 263.386323 258.301412 259.368422 296.135520
0.708152 356.925937 343.719929 342.328102 332.219680 327.402197 351.751551 357.029741 331.155589 307.309059 348.479422 26.011602 40.466624 44.090288 47.784308 52.555198 56.990060 59.440332 60.791521 61.672469 62.130790 61.695184 57.917684 49.966627 40.607368 45.626258 57.098627 58.185556 52.632494 66.083755 64.117009 54.825277 262.067810 241.727428 237.425943 240.213867 231.097788 228.567669 226.567566 222.464307 234.951513 248.988072 259.329851 259.028798 256.417036 255.264404 256.880060 251.737317 247.324730 96.194160 99.443172 113.523922 124.464868 137.663124 158.719029 165.929812 158.155528 153.849794 154.467909 159.361958 160.770362 142.871411 118.776080 194.704602 229.813833 184.813172 132.572903 129.016294 127.357902 305.757393 303.538039 299.734009 305.059761 302.679926 290.533754 286.015882 302.305091 1.529436 31.358044 5.771184 335.916008 347.362098 44.441898 39.176403 352.124457 17.436485 60.715879 72.706455 18.284510 2.198559 22.543183 17.632776 356.824742 345.191485 341.114241 350.166938 20.863559 43.622923 45.378078 38.270807 37.396028 41.732874 224.967811 224.343761 220.751588 214.107455 213.328933 208.754824 190.090134 171.265118 187.324361 193.261517 160.670460 145.457363 132.038927 108.138082 94.971815 92.049854 91.329078 92.979830 254.782195 266.125351 261.334146 244.574171 232.149667 261.842103 292.047159 299.865825 306.252686 316.445475 324.405017 332.204113 2.175125 25.001949 22.779199 12.812249 6.795291 16.527856 38.367624 51.078453 68.947691 66.402684 350.367282 342.305477 349.047748 338.970763 338.300131 339.491844 341.105648 342.368015 339.324319 328.570611 318.452337 322.547974 332.548524 335.911681 331.695868 335.870071 354.976581 11.602969 34.680989 69.500733 86.599534 84.010522 42.291855 343.416986 348.632888 38.371420 57.573888 39.282297 283.211104 259.711344 247.179455 239.970027 248.314190
11.577183 3.042759 330.892452 335.658782 342.709688 327.418229 337.942545 0.847162 5.496673 343.963960 329.561920 22.552927 46.196408 50.115594 54.024477 56.206733 58.815482 59.072291 60.437096 63.231743 65.844557 66.079583 68.310719 57.969065 41.550806 51.466599 56.395191 57.912194 59.309703 61.893730 71.488759 59.128180 64.983107 245.801433 234.434538 227.729650 215.946115 206.575277 231.879561 217.373554 251.673991 262.420599 256.985295 257.059869 255.456994 251.856744 247.741287 237.203228 214.090960 155.264486 130.876126 126.397340 122.795670 129.539498 145.329525 162.364027 164.036975 162.323488 160.905654 160.621848 164.801986 165.012765 155.528042 193.091893 209.995952 172.773629 142.608896 134.392842 305.735034 307.582676 299.570661 305.753887 319.652501 323.172883 304.922928 294.202709 307.660304 0.403485 18.234221 6.532232 348.359836 344.684647 47.879116 21.942681 355.681549 45.280919 73.004308 62.728203 345.222094 340.687635 14.755339 5.872548 351.498088 350.289118 357.232104 23.401545 43.460532 47.687867 40.520309 37.217909 40.605819 41.589643 37.267092 19.376864 209.389096 211.726981 213.247815 206.244943 198.145998 188.117575 189.331703 195.815539 173.997666 155.927287 150.453594 137.775366 127.732144 118.622300 116.006785 107.952924 277.055609 273.949688 269.580837 260.383296 260.999194 278.869508 288.328152 288.951179 284.552912 279.596009 276.208795 260.198921 236.119717 24.800544 23.142179 17.138163 32.531713 68.122349 88.949308 98.721479 98.469231 39.618166 330.569314 343.489559 346.351518 320.734971 328.845147 337.616961 341.731346 343.365284 342.730809 339.145542 329.999692 320.381296 321.275617 332.787931 336.634227 337.727803 353.363693 29.046638 71.462156 93.335663 97.955492 69.959853 0.687867 347.241249 11.385611 44.631349 51.202803 39.002867 331.751502 260.351955 246.030439 239.829149 238.537683
24.174361 18.193279 337.179195 321.631083 342.934711 339.257057 330.383210 352.059052 18.993752 21.689667 354.403303 20.037048 47.947232 53.081753 57.259166 62.413366 62.163137 62.219614 63.961872 68.039615 68.894276 68.232453 73.307654 71.336609 56.935873 64.888410 62.256129 61.719602 66.187434 59.187619 62.627664 66.346471 65.145804 244.461212 230.171577 219.220701 213.481552 223.026478 237.415920 206.911036 251.493610 264.585870 258.398020 260.072488 262.396890 257.144366 243.381778 224.613976 194.404258 154.229424 137.729639 133.050408 128.047778 129.332574 138.936020 153.385155 156.789549 156.571936 158.429160 160.200400 163.726031 170.006144 174.604661 199.840860 197.681350 174.815846 153.332462 307.219882 308.917232 305.713762 301.505989 306.443675 319.618101 334.199047 331.617713 321.741860 322.062385 345.709675 352.834090 2.635819 11.468646 21.977915 44.413926 359.469038 0.432462 36.630359 53.171886 37.532475 341.712599 333.661737 2.146426 359.715588 0.074286 13.026564 28.581801 47.411030 48.217303 44.937107 40.159512 43.463229 47.448082 41.872993 33.483504 42.145887 53.878015 211.057285 211.337454 206.948732 204.543888 197.167116 193.251533 192.619423 178.774820 168.403885 168.821348 165.014564 152.818368 139.797389 131.721360 122.168322 294.673964 285.917143 288.641575 302.348997 306.251992 300.108736 285.694085 266.672778 248.031029 224.359322 209.779047 201.679039 196.272943 190.053624 176.443436 155.549616 134.376041 118.027895 113.953654 110.639329 68.144933 335.002719 326.917925 353.660877 5.834579 311.186464 309.628960 322.493019 337.589307 348.627995 345.685265 337.883924 337.254992 335.470583 325.864485 324.332384 326.135116 330.805907 357.924833 52.849450 82.233336 93.521123 83.493515 8.269403 348.109813 359.008069 24.956595 38.742324 39.697870 36.746627 24.987685 303.550410 286.166536 278.280066 264.623902
22.986794 21.572792 352.649758 311.483730 328.193791 343.274765 337.634790 352.993052 27.250724 29.789069 20.224090 26.255432 47.199218 56.060067 61.585993 67.731516 69.127291 70.737753 67.809774 68.896084 68.353662 66.624010 69.331242 67.360610 63.423599 69.978603 57.618938 57.112623 61.006606 49.046607 43.428419 57.804266 56.057816 61.241601 199.248321 210.586943 221.923636 234.366555 225.972742 212.770787 262.871399 259.267015 257.449998 266.916135 265.966242 262.897630 241.415362 209.142904 179.001530 151.776980 133.968462 126.499343 129.080724 130.484422 136.985485 144.581609 147.594307 151.171230 153.139395 1.250089 353.315417 1.564386 9.987577 3.732774 353.972248 331.795179 324.152277 320.802990 315.684891 312.250003 311.948812 307.101062 316.684088 328.465208 332.311199 343.850447 354.413255 347.961530 341.861251 351.254524 19.941299 43.906400 28.313093 336.735488 350.757632 27.376427 45.972708 28.782314 345.550191 347.609938 2.642920 5.400842 18.727272 32.670250 40.729113 44.688305 39.428755 33.426903 34.892238 45.019455 49.462580 38.578845 35.224286 40.992413 42.988608 42.238385 140.153909 209.611532 206.736395 201.985374 197.863383 187.462431 176.075484 171.391689 173.419555 170.199406 156.020216 145.573150 126.935793 318.984072 300.927712 290.061649 289.544813 300.866152 313.733379 318.054527 307.750314 259.349288 227.340145 209.748078 202.076265 199.620979 196.228700 187.706605 175.287591 164.750100 154.306508 134.643854 116.792347 63.023621 341.380169 330.864874 331.777392 1.206927 17.161763 315.197838 296.891663 304.433509 315.824875 338.596184 344.503191 336.179775 340.216003 352.170993 346.005432 332.478075 326.444988 325.200821 0.822260 58.642327 76.332219 76.425280 27.668059 349.662510 354.324054 11.672610 28.763885 34.777676 37.618081 48.148392 43.005918 331.158382 310.178527 313.859025 307.860504
344.187530 9.656177 1.412260 319.683917 308.125681 331.599509 343.975260 2.537000 31.228650 34.456391 32.429418 37.683360 55.789667 70.694696 77.652117 82.207001 83.224144 83.022725 76.349745 72.555906 72.981344 72.307380 70.566310 66.886148 64.023648 63.141389 63.788233 64.329948 58.347568 45.307331 38.853374 54.260018 58.154291 52.024623 38.941759 272.121096 236.749643 235.220716 226.977168 249.623565 268.173356 250.774599 255.942717 263.445966 264.812818 262.985117 239.904413 191.672478 165.802482 149.496996 130.575519 126.278487 128.685415 132.198797 136.452113 138.817519 140.686884 319.074873 327.810296 337.016104 348.356227 1.098187 10.618714 13.711992 10.893004 354.055345 339.291178 335.290105 326.966117 319.064315 323.663858 317.132170 313.361896 327.224065 329.027154 345.321103 12.954627 359.392528 337.915447 351.978149 27.638436 44.111675 20.380723 336.557587 341.827627 33.444358 53.553000 17.582219 340.399922 353.711399 20.934560 23.950239 24.650278 29.330884 32.000001 30.373633 24.496862 24.873450 33.124068 42.238199 38.245677 32.060023 40.423284 47.932307 42.226792 36.819097 34.941475 24.902642 6.271599 203.484396 198.431670 182.173480 168.882939 169.861073 176.991644 179.961879 178.745548 339.826882 335.468527 332.564630 310.845125 296.717636 296.585844 300.219970 307.845567 322.856126 349.330803 357.016493 312.556253 248.723526 218.305142 208.678562 199.902144 180.841192 162.096372 149.244400 138.612439 127.685680 50.646226 335.959220 333.561444 335.130056 338.227240 8.212306 22.657341 332.191597 289.382696 296.138136 307.545909 320.818231 334.271778 336.604076 344.517819 359.102710 348.959276 337.358169 335.416486 328.967488 357.444501 59.130894 68.160591 54.900741 3.486577 348.332496 3.794054 20.079672 33.916807 45.054436 56.879025 66.881693 47.712862 327.604352 307.791655 314.536936 316.648089
298.174446 344.563763 1.494486 341.642466 310.361921 311.988570 344.229189 23.494645 41.147888 44.046330 44.854718 53.653395 71.288373 88.662734 98.505976 100.444260 95.500985 89.985802 88.331463 86.465394 87.301820 86.130690 78.646171 71.592839 71.427143 76.820543 84.136029 65.868059 54.559116 53.366198 42.982024 42.203041 42.321449 31.231403 24.427476 32.065683 265.324809 236.386376 235.282167 248.811840 246.660223 240.999247 255.521729 254.640129 262.972188 263.781898 231.730197 164.105921 147.986232 143.071121 131.476775 129.147113 128.918924 130.752274 133.513897 131.830091 320.512751 321.190758 328.668505 348.634574 3.512440 7.211497 11.056821 12.234747 359.644592 347.565396 340.351187 341.563805 339.838273 321.481731 318.257003 330.550917 322.669755 323.578108 333.259243 350.069252 20.228041 0.696285 331.217354 352.413865 38.004771 53.852723 18.262372 343.107356 354.527678 40.922051 37.888544 357.871503 345.529482 8.336256 33.015369 29.918067 22.910896 20.797065 20.086604 14.075570 13.697995 23.805266 32.906467 31.722295 19.463754 24.335014 40.610240 49.031375 44.566914 34.000232 23.031823 20.916677 24.130472 27.237805 27.943307 17.371721 342.851431 342.134534 342.122471 337.689973 339.313937 343.271347 347.313095 346.550720 313.798832 300.889730 299.942163 303.770241 307.698129 320.672617 345.959746 5.994451 12.072391 6.166355 349.047151 307.369997 293.150594 80.128583 104.181248 58.204741 49.421289 23.884555 337.699310 326.300454 327.426147 336.342665 344.065137 0.917256 15.548924 358.723448 297.453944 289.739725 304.395128 318.630011 332.692893 340.346176 355.469254 6.825989 348.493410 332.673407 337.261560 340.439253 3.242399 62.947556 67.541365 49.477944 356.089620 349.533138 13.204004 30.144106 46.001614 57.887844 59.665234 54.983663 29.075634 322.359659 303.907907 317.607748 327.357335
290.707594 308.849690 347.771539 352.254084 331.565474 310.078226 337.896383 39.552785 54.794546 56.182830 56.259596 65.678850 79.609650 92.151960 100.889994 100.992343 96.428977 88.203908 88.864940 88.255859 85.943451 85.911780 81.035901 73.792081 69.950863 65.161024 65.157994 62.965492 64.913579 61.756407 33.014231 32.179194 40.666403 36.033912 36.146360 56.596368 60.087810 237.595220 238.061373 234.540340 224.237767 231.540293 252.567816 252.054854 256.140133 254.494245 212.884758 142.988164 137.719061 139.762656 133.265561 129.302504 129.658151 132.122006 126.048441 320.477552 318.523366 323.356184 332.327523 352.142809 358.838453 4.106639 10.941349 353.633968 326.171477 329.333323 333.196225 341.289840 355.500776 345.445235 311.271947 318.511641 330.666133 328.522888 335.896951 0.293507 20.440227 2.157027 333.771450 0.326318 64.390856 64.249317 356.875188 340.090676 4.079030 25.472464 11.837127 354.827787 1.030191 30.367919 37.506900 19.910898 7.930218 6.565338 8.299188 12.022277 23.825580 35.052088 32.338343 4.029682 357.482510 23.067627 41.946086 47.460758 46.063834 38.508811 23.229244 12.453076 15.449836 21.306974 20.869182 8.108852 348.698156 345.516533 341.108126 344.456261 351.815635 339.545156 340.327816 347.632047 311.443403 291.962982 289.701341 292.264770 295.243944 301.669144 327.219706 5.521385 18.365091 19.415381 18.700475 7.202440 351.994225 28.085600 18.215145 358.295426 10.452979 358.037795 338.876632 326.363375 321.783080 329.120381 337.765327 346.659189 7.038819 16.022106 330.159871 290.340971 293.408395 305.870381 322.275976 341.854630 9.157868 14.529417 356.927061 336.713503 331.577743 343.656111 20.756111 74.774854 79.881611 59.650296 337.951201 339.882370 19.847685 41.523528 56.147174 58.855447 48.288300 41.866220 33.818406 332.815502 298.093649 312.692089 331.475912
305.773412 304.461717 327.931046 353.099498 349.824948 327.891779 347.773637 48.269996 57.132144 57.050785 61.356953 68.758925 74.933301 81.930732 84.842895 83.937710 87.660510 84.818644 80.612704 76.163436 73.674083 76.445360 76.333751 70.514163 67.384572 70.759153 72.061536 74.068541 73.832734 65.902222 30.647732 46.315967 46.480681 47.178605 58.173325 65.961066 61.430081 36.166585 233.260692 223.047308 219.028151 230.996295 240.340704 246.551189 247.227818 241.032531 198.652107 130.618337 131.160954 137.751633 136.834312 132.041196 129.627756 121.502135 318.972314 318.053318 320.350570 328.935069 333.335637 329.637337 337.836004 355.198772 16.954791 6.582552 312.698957 293.067426 299.898658 317.964278 352.024474 0.355217 329.562417 313.098834 324.824668 334.046400 341.061291 0.529223 17.121760 5.766667 351.918512 34.073825 73.767744 41.073410 338.777149 332.763604 354.687949 12.060131 7.392817 4.090564 16.678480 32.984386 29.476233 8.425408 351.358065 352.303001 2.486492 22.141362 45.449487 49.185551 23.417638 342.345630 343.332934 24.169751 48.239317 54.927858 48.221560 33.834345 24.592269 13.879297 14.678521 24.823765 22.148536 6.759081 348.294763 345.674518 335.981343 335.409883 350.682514 340.915178 335.573246 347.711457 332.163457 282.733416 270.827151 270.751084 278.152347 281.237840 296.799628 345.960498 15.276093 18.819814 18.277824 18.837728 24.138990 35.347998 353.020506 341.815668 349.743753 346.579230 338.996462 334.234628 327.770422 324.825548 332.684095 342.156078 2.939299 26.388040 353.138090 297.682369 290.940128 299.111675 311.375710 336.082558 8.906111 16.649055 11.546870 357.345345 335.712628 340.232334 48.741888 83.790048 88.510137 56.791710 319.125995 320.272310 17.526082 44.771622 51.894872 48.625840 43.515046 47.159222 51.811928 345.316644 295.660941 299.682095 317.785449
316.337154 312.211352 318.811159 348.872143 2.381856 348.185293 7.371295 50.082986 54.786161 59.526802 61.683737 64.869660 65.786764 64.377247 58.686457 57.126003 59.947465 62.718067 61.641412 61.445955 62.253679 67.359236 70.856408 71.737557 74.370199 80.672302 82.200804 82.189325 78.655490 62.862613 41.946075 37.813773 27.684296 39.367045 47.164966 46.265300 55.978449 56.460790 211.036969 219.208056 221.961625 230.845326 231.504655 234.499961 237.228014 237.309877 200.047008 122.372264 124.172405 129.296129 134.056867 135.748634 133.765840 319.705257 316.425875 316.121707 320.176543 329.769795 332.708974 328.225025 321.758029 324.608981 359.586360 11.683801 351.427265 286.845932 258.639300 255.255838 271.492745 334.172441 330.373263 314.069211 318.127859 331.208722 344.409389 0.472194 12.274223 9.292899 14.877488 52.475241 65.773598 8.405238 328.292909 330.901799 340.888367 358.922813 6.555510 13.305536 26.887118 33.468562 28.106270 7.348097 344.569151 345.098429 8.890843 42.170840 58.482285 49.311637 3.775151 328.449122 336.585455 32.823509 56.887400 56.186913 42.916700 26.592872 18.951809 18.623140 19.792090 21.403843 16.522344 3.772012 353.663940 352.920549 346.609352 327.932867 328.466634 335.668587 334.893121 341.645576 357.066864 317.966108 268.600946 268.979572 277.701633 285.071180 294.419637 321.528179 1.924371 15.553132 23.964872 35.622079 51.845986 48.661936 328.757397 327.272614 342.071447 343.099350 337.346144 334.635140 333.853798 329.346035 329.576524 340.113652 8.932930 35.740362 1.932951 296.569033 289.420847 296.914027 303.108258 326.396438 8.186348 17.052121 15.623735 9.632803 358.502412 7.098643 78.766605 92.372592 88.294181 28.149247 330.698572 313.078570 2.412721 37.230195 44.193280 47.923272 53.903514 66.328998 64.137804 342.140429 299.467284 293.691308 301.386215
323.401685 319.143795 321.382997 347.856699 6.973676 0.437547 25.652530 52.337515 58.458756 64.329135 61.696585 58.578905 58.658377 51.259667 44.486685 39.877828 39.487933 41.413683 44.535790 51.052439 61.327434 69.131897 69.333134 69.229049 71.160489 70.070561 72.181111 82.203179 78.639533 53.084140 31.173271 0.098244 8.805247 31.367557 35.643041 39.985136 55.342943 64.686121 54.376271 221.049523 223.548040 229.827009 228.866614 228.526167 234.057023 236.460001 194.962939 125.301655 120.236604 119.449150 123.834836 142.728433 296.832151 308.694456 312.067939 308.979024 299.441816 300.985925 311.196877 327.168536 332.165846 316.201833 317.061399 355.952215 8.027238 354.400827 290.793832 244.684329 239.068934 253.798890 283.031901 292.519449 299.174826 312.847781 333.381916 357.543725 10.164082 16.754855 35.090500 59.393790 59.823166 352.747611 313.874049 321.087678 331.756307 348.707825 7.800955 23.047377 31.913356 35.726586 31.929112 9.294991 351.454553 353.044117 22.379517 55.298045 63.609534 45.407815 0.661274 327.321132 334.945010 31.839584 49.997130 43.755417 32.286415 21.925520 21.998110 21.982842 16.762554 21.562711 10.512802 356.945839 354.834073 353.506167 350.236505 340.337307 323.582212 321.073364 331.403115 322.989235 352.831763 4.210956 290.223445 281.576398 286.048089 294.332338 298.854157 317.866576 352.397277 19.831441 42.510447 62.658572 74.078484 41.115369 314.882899 311.017775 329.069157 334.115851 331.563037 334.522468 338.010179 332.698269 326.656184 337.333614 13.590371 42.502146 21.830394 291.054130 279.835584 288.709413 294.475752 312.296301 359.663922 10.889384 9.568154 9.699529 17.350259 45.053951 82.579139 93.200204 62.626501 353.574409 346.854667 340.533792 351.569262 24.744798 49.293733 64.325341 70.368451 72.258766 45.211836 336.125943 309.662996 301.050138 297.417708
320.205481 320.267494 327.489978 356.577171 9.381818 14.378085 45.686703 57.497026 61.645365 58.848835 53.287580 51.694133 52.201218 44.724751 37.984024 36.444788 40.406281 41.946206 48.194199 61.924391 72.155269 72.968891 67.019684 67.964563 67.066276 60.178125 63.359088 75.885251 72.078247 42.402265 6.121235 350.076857 353.273203 19.431266 33.263790 43.738072 55.390915 57.972501 56.969140 69.797519 222.580491 230.754421 227.823345 228.750104 233.220754 231.889342 186.365145 128.072428 118.872827 112.695592 114.033063 263.946659 296.532935 297.039567 299.738084 299.589505 293.715084 285.842473 306.599394 327.793146 342.814544 339.107485 318.094659 320.918439 351.777504 2.774933 5.564679 330.764788 255.026002 245.167873 249.719195 257.753418 262.993825 267.885497 283.181818 330.197147 12.469211 30.042160 51.357110 64.955571 57.047443 345.946076 308.792892 308.645560 320.588980 341.373127 8.497168 28.470925 39.821318 43.842001 28.354468 2.529070 359.622640 14.612883 36.380454 66.251127 65.076223 27.477973 353.485345 334.078280 335.429697 14.477098 33.772652 33.924251 29.908787 23.502553 24.326583 23.501330 7.329353 5.750283 6.686209 7.670011 355.676954 345.422872 347.926615 356.146745 357.606752 322.961375 309.970926 318.004480 346.221359 15.105540 305.830277 277.372615 280.305557 286.925963 292.820162 310.171891 352.287255 44.089428 67.791277 78.395935 78.700484 5.876472 312.072215 296.978078 305.841540 318.308857 318.443244 323.841983 334.120651 332.421901 322.292018 331.366104 19.116620 45.975445 36.196745 298.731524 268.094833 272.660703 280.315346 294.112280 333.253678 4.270654 12.838339 18.982428 31.200515 52.560136 75.301094 72.328950 6.309768 339.678122 349.770288 351.299780 355.746359 29.485911 64.571007 78.756879 75.113341 59.909094 18.923246 330.546327 312.588559 308.461856 306.623554
310.192461 309.200600 319.025792 0.552855 20.545671 35.674029 53.280048 55.940490 53.450329 48.507921 45.741008 49.725567 49.258795 45.677483 42.007374 44.378065 46.667974 51.466413 60.988047 70.389729 73.869694 70.580168 66.142465 64.939062 56.612282 52.358933 63.063764 67.140968 58.195907 22.403861 350.863380 342.506745 344.571583 2.380617 38.291510 55.080478 64.110326 52.414407 50.175604 55.844811 36.531652 234.863059 230.439488 232.638406 233.195051 228.903250 192.739260 130.375164 116.665160 109.024308 110.303909 295.531881 293.456799 295.600273 297.145259 298.208026 307.990063 296.269715 302.432033 321.467250 350.342345 357.615583 344.651357 318.829668 318.315599 351.401946 11.720851 13.696746 353.390094 280.772164 252.706793 245.415905 242.376883 241.687170 247.589884 257.245666 337.701522 43.523855 62.275036 64.581472 49.488683 334.897962 301.298969 303.671771 310.254330 330.705761 8.495003 39.755306 48.462405 35.500950 15.807934 2.515363 4.751112 25.974744 51.775819 70.467222 42.608541 6.463276 351.987414 339.018588 339.387465 2.146524 23.978415 30.677981 28.380642 26.162683 39.405650 38.149202 341.011119 348.557753 10.373391 22.965784 0.903139 329.957248 344.310521 6.944195 16.588786 354.952697 310.932777 316.119916 348.105593 26.410752 350.317840 267.803444 264.858555 270.208546 280.387982 288.497814 4.637221 67.798366 76.720316 79.496598 70.774082 338.078526 313.964584 304.596505 293.066957 298.127964 300.532163 297.483617 306.038395 314.440878 314.017752 320.431187 10.629834 43.077507 41.275867 358.906702 261.857002 258.417634 264.640605 278.611543 295.827614 339.048028 11.929101 23.374558 36.880849 59.169073 71.136001 33.579496 352.362940 346.083401 350.186440 344.816633 356.097869 42.984684 69.485324 74.615758 64.206018 47.120381 5.218726 324.334768 308.875518 303.424168 308.112503
309.935320 299.287244 298.654555 343.424936 30.912445 51.241831 58.392984 55.854149 49.674343 47.039619 47.085500 50.784210 50.916775 49.603307 49.827713 51.971075 55.031881 60.247056 66.956880 69.041557 66.578170 60.295928 57.705716 53.309806 46.285282 47.504697 55.996331 55.169202 47.559444 4.234254 348.788979 358.753042 5.277651 248.587031 74.938424 70.850895 73.337140 54.973468 48.114368 54.335902 46.481457 17.482375 240.471695 235.796180 236.017424 229.052298 201.454492 138.020615 117.819290 109.710340 106.324623 296.454228 286.331066 289.165578 293.583690 307.351311 308.394403 301.803694 296.992301 304.785899 336.106897 352.217345 353.210414 344.361799 320.946071 328.429531 2.282155 13.913135 10.037151 357.314883 309.888442 254.072878 242.309808 244.305438 250.679852 257.373188 275.821359 36.512890 59.011033 59.156563 45.960953 352.836972 285.908683 287.314889 295.265725 317.107777 17.350915 48.000767 36.216422 19.379771 11.345089 4.447967 14.506002 48.417840 67.324457 64.000572 7.436693 355.026233 353.787345 345.275374 347.420520 1.363928 18.794768 27.357630 32.810827 51.470776 74.378728 40.527664 317.587402 331.294856 12.332555 35.274069 17.722682 323.117377 332.717373 8.891664 32.569464 10.426045 303.095523 301.615050 342.027057 29.396463 25.013972 302.149637 262.235705 264.474869 265.189279 256.285512 215.713072 82.232316 76.838275 72.037321 53.696412 329.856396 292.016140 303.002527 295.987945 289.143162 293.348819 288.807938 291.110080 302.259408 310.006681 323.421019 352.556956 26.838039 39.794559 34.691447 288.691445 266.249964 272.850250 286.969586 309.022422 327.123552 351.752598 16.290595 39.134843 64.959002 58.747834 357.654430 346.194829 354.966536 1.416948 351.156766 3.210372 51.996294 69.786860 65.854458 48.464569 38.452666 1.159807 323.128874 306.925014 293.516473 292.788273
315.602074 297.797337 277.436058 267.968712 64.251752 66.117016 64.161866 57.990993 57.010771 53.213824 50.506428 49.827813 52.245709 54.133673 54.946949 57.769461 61.473310 62.954181 62.420633 58.227165 51.589974 47.115840 47.893704 49.016540 48.432078 53.200696 56.902982 57.728618 46.984144 6.631532 358.122611 34.620868 83.126442 136.561134 119.385224 75.216832 67.611011 61.864250 49.750721 53.512859 65.284379 63.082243 236.258315 241.741366 237.992426 230.830904 209.443440 152.570664 119.268933 116.207178 305.039466 294.717441 280.042697 279.161967 287.983415 305.001168 302.636120 299.177788 293.018313 291.785563 304.533149 322.353278 334.399387 342.249857 336.880405 330.954765 350.607838 8.666367 9.472366 9.131468 8.234769 328.903529 265.673515 261.547460 268.047348 275.131165 285.935438 9.890548 56.015865 56.903875 40.812372 15.578343 297.191888 276.477258 277.177337 289.960159 7.916779 29.073581 17.130884 13.435505 14.002611 17.460701 46.050681 71.597907 72.947207 40.198940 342.048116 346.600298 357.169824 348.996593 349.445145 2.035504 19.358362 37.392605 60.680978 83.638986 92.993601 355.816601 309.077899 315.880086 11.585416 44.226464 21.782260 328.391832 330.270063 15.481643 45.370292 21.215533 304.453851 279.208152 281.785888 21.210454 29.429753 7.147611 286.930460 261.550298 249.859565 240.467248 219.703440 106.992483 76.893137 64.393502 45.858017 4.092163 284.552165 274.801035 282.046183 283.197203 290.481507 295.801892 295.817060 297.859472 305.100648 325.890116 349.692567 14.344042 38.937974 41.785418 348.054885 289.233323 288.795506 297.936159 324.443675 345.585216 355.045887 7.988864 42.533225 64.760940 32.906523 333.252676 343.446953 5.248849 6.950305 356.587042 12.892806 53.559825 63.174105 49.612004 34.712712 35.143824 0.489115 330.801399 322.302693 300.564764 282.512258
327.910299 282.142583 218.605330 200.180801 170.326345 98.723452 72.109308 66.300196 67.940793 68.004368 61.058738 58.783639 60.748765 64.409126 69.792491 75.120278 78.041706 75.265366 65.874701 57.668715 50.010586 49.224885 52.855363 56.659909 60.118634 67.421350 69.362637 69.877636 44.059483 17.774595 41.739839 73.060914 92.425195 101.842076 151.634682 73.911179 55.207801 53.925229 60.610540 57.833874 65.718904 57.711133 94.647971 243.519685 233.909433 236.123716 220.465444 176.156699 116.684231 120.972313 288.450790 286.770490 281.096136 284.872027 294.357233 300.327772 293.826375 292.707068 290.391788 287.166522 292.201849 294.818284 298.915161 312.374511 326.424257 331.821410 346.066380 3.277540 8.716220 11.867344 16.968820 10.519516 326.222880 284.223101 275.160925 277.056896 285.727203 359.723211 56.547748 50.134117 30.982027 23.310161 335.950209 288.303157 280.003863 283.656215 326.337794 5.432806 8.435044 13.307551 28.105149 47.010592 66.758895 71.507765 59.880800 9.789591 337.120437 342.535244 354.208683 347.844056 347.597038 4.485087 34.800345 61.726339 81.452374 86.156631 75.412312 326.381497 309.709978 318.306233 10.427489 41.993808 11.242168 323.821357 334.825802 23.154363 47.852934 24.128610 330.080110 290.473010 261.740253 304.515536 6.863975 16.660093 356.724156 266.748118 248.760864 244.004385 231.267129 162.741226 95.787166 75.372588 52.581166 26.102008 326.096831 265.832761 265.440302 267.778640 274.348663 287.287679 287.594957 282.034528 281.008553 295.037526 329.869727 14.542944 41.112618 41.794970 5.516981 291.983954 281.507302 289.822690 313.967193 346.521191 1.809724 13.316833 41.615838 55.218184 17.937842 310.752135 328.241449 0.759417 7.774214 7.289668 19.090537 52.200359 53.247741 36.028772 33.649320 37.198678 356.632025 328.481663 334.154024 327.917300 304.793381
64.043377 149.314970 178.770976 190.700839 191.827371 177.094032 128.950878 93.148951 86.979608 95.366224 113.369113 104.272733 83.774292 80.958162 93.832728 106.863210 110.513099 113.806456 109.288523 93.149861 81.141338 79.414704 77.953951 72.093195 68.994668 78.940554 88.120237 71.657189 28.349569 30.536387 61.360938 87.615238 86.818231 88.680054 154.320544 97.842457 52.173982 47.199218 56.382344 70.067796 70.329006 70.093524 77.161681 213.205415 236.946582 243.856744 234.620295 187.208356 118.317490 128.337057 286.143740 279.832279 281.940882 285.363321 297.162439 295.829719 286.971782 289.976331 286.699950 279.124283 284.579189 286.844538 284.471540 285.457044 294.845199 306.345466 325.550895 355.704058 9.420442 16.385110 21.901740 14.870049 355.164037 323.721094 287.280298 273.240202 275.531336 332.491628 49.075299 36.644086 24.506317 27.054942 355.859529 307.227953 290.630157 289.696801 308.287572 347.025399 8.404965 28.373462 47.245107 57.867454 61.741108 57.647325 36.611631 355.764496 342.919032 344.805257 352.124120 350.147066 349.384540 19.694791 65.815182 80.418154 87.297882 83.275436 47.758597 315.781258 305.347448 317.904858 5.970379 33.264515 12.080089 320.209623 329.616616 27.571163 49.791960 17.281084 341.931274 334.652678 296.512662 300.590017 339.471734 14.369838 24.353241 333.273816 267.948798 253.310455 230.015692 181.709613 131.308906 102.589605 75.506026 38.816515 357.732045 277.079556 258.247549 256.314912 257.191979 265.784004 270.037838 272.439046 271.737444 272.862735 281.100798 351.482221 40.452828 41.180220 26.061147 319.613783 267.198788 272.733805 291.366832 323.543546 349.125600 10.137135 35.281375 48.338992 28.348269 316.018130 304.494417 348.671202 22.571371 23.792629 23.667624 56.485990 47.818042 32.156672 38.502753 38.258656 352.907399 319.478540 327.930634 340.873115 338.164747
111.347545 124.874314 153.629475 183.677584 195.638505 192.735291 180.079497 141.965632 120.767129 118.672437 132.220208 145.241935 128.434061 98.631814 103.142169 114.879180 126.060354 132.350546 140.311520 140.153030 133.974462 125.517783 120.523118 104.676683 87.765965 86.848983 83.316756 22.857357 8.720943 38.237337 66.749390 83.350759 84.785072 86.295373 106.830566 212.778426 54.720593 47.238340 54.262051 62.713019 66.552273 75.392342 73.700352 90.510038 253.457836 246.969848 244.639233 191.866335 126.567365 173.916208 288.152855 281.319656 279.829391 272.673989 276.083689 287.179127 285.093985 284.404298 281.955667 272.714097 275.783109 279.736693 279.357195 277.724444 278.199391 279.884743 282.885786 308.916854 0.876167 25.761916 29.848928 13.642998 354.442394 346.509302 326.072637 286.779647 276.194103 305.501429 29.721036 26.222380 24.477600 20.241309 0.674398 325.335291 299.248064 293.198092 296.572037 326.221662 15.746338 43.635931 55.749614 59.334976 54.460900 50.420122 27.779140 342.942454 339.664578 348.031221 353.984189 357.162788 12.797371 68.935802 87.423600 83.882772 81.634571 74.670838 22.820160 305.580249 297.894205 307.940703 348.078790 22.667166 16.751401 333.310777 327.112760 31.242312 54.730877 15.347147 344.098751 348.101797 315.265678 308.353283 335.542866 22.016297 38.345222 8.641775 284.344096 248.181740 222.888731 191.611486 142.365845 86.610676 30.406484 354.580276 2.423612 341.647390 272.962343 253.984376 249.671570 255.730788 266.430497 274.708584 275.258658 270.504478 263.493849 276.278532 24.326461 30.121652 26.960229 14.679447 294.750376 273.102383 285.136662 310.507586 331.497855 358.145186 34.404238 54.506072 37.772999 350.336371 329.862454 357.861152 17.566701 18.799498 25.205617 54.474379 36.001113 28.168875 40.744229 35.656099 355.014070 319.638035 315.240177 332.398435 339.455961
113.948264 115.773852 125.188543 165.121165 191.684434 197.270632 198.882536 172.942398 132.839817 126.252564 129.091547 151.631144 164.399319 131.240551 116.799214 115.841607 123.597412 132.440437 144.381901 148.495394 145.027822 130.864319 112.075248 90.524032 91.120673 77.036579 30.928418 355.172700 21.952320 59.498000 69.648651 74.389011 71.583108 63.955441 67.403255 121.855132 213.787179 69.795813 56.141847 54.247167 51.137385 59.275573 65.465548 56.746770 277.744711 254.156918 249.676863 176.013213 138.291630 300.848194 293.063253 285.765650 277.994292 272.319282 274.788844 285.884380 289.857755 273.394191 262.497679 259.215148 261.770572 263.709479 265.170799 265.854361 265.702913 262.887481 260.472008 262.919269 283.463745 27.863116 29.545047 6.726863 351.332589 350.077105 349.963893 324.705124 288.321069 292.016210 5.696790 23.217900 18.071695 4.767808 5.605314 347.713505 306.565703 296.511369 295.958171 306.080291 15.897105 55.328121 62.379295 55.842264 51.413428 50.075073 24.635210 335.125798 325.580523 340.469468 355.903088 17.284221 61.327912 90.631757 95.342286 88.669849 82.618044 71.583510 15.958806 308.606946 290.925628 295.786385 327.958063 7.859585 17.448657 353.733263 333.943635 41.926263 60.081810 9.158792 332.466216 343.942718 316.994840 310.990791 334.614238 32.556762 43.632809 26.863563 334.864423 260.417207 247.039654 252.967522 322.795870 3.654470 358.023647 347.986182 354.046343 5.476275 349.384962 274.205038 252.380559 256.792925 266.442047 270.825722 268.730389 264.894020 263.494451 275.111075 327.156681 1.610344 21.751559 24.325442 348.076154 295.664554 286.574672 307.744386 329.332900 350.052491 50.948835 64.611983 30.204832 359.526818 352.487630 357.453861 8.620257 14.899347 19.465327 25.609079 20.889424 22.568845 42.183706 32.859704 0.150070 327.427481 304.394989 309.661137 324.336547
102.165651 112.804607 115.149382 137.601678 181.454439 202.006082 208.305287 189.082276 145.097892 128.690565 123.919448 140.492394 169.861250 154.371431 133.400772 126.412832 123.673415 125.964970 133.472187 135.063282 98.642403 10.946353 15.860039 34.383990 49.156374 36.988251 11.330537 18.305399 54.970502 66.212895 65.101360 61.066167 54.209856 59.408818 68.744421 87.538333 143.577717 144.809138 87.352554 54.871781 51.137314 53.842839 67.863632 76.832477 269.557912 263.611421 245.031945 158.637266 204.723643 302.250645 294.095842 288.963886 283.124762 283.575452 289.551888 295.678858 297.562627 280.647706 261.363294 261.625741 257.624825 253.001303 252.449569 253.120517 251.906901 247.316699 247.794052 245.938772 238.167100 262.143708 3.957596 359.228765 352.586557 349.717205 352.431338 350.386695 322.072768 301.794020 340.082260 13.070565 5.276517 359.118654 15.845314 6.990369 315.456076 299.763910 300.545884 311.873347 17.081868 53.457077 54.092328 51.217509 52.238371 39.781563 19.578709 341.990713 316.127321 330.409059 6.754269 59.478741 86.186522 94.935735 98.150834 99.495156 91.240194 64.325167 354.691950 326.547547 300.958759 288.497824 304.974159 349.753827 16.926753 11.099989 359.867081 54.435206 59.832511 14.009512 327.410134 331.176234 312.699896 314.091050 344.947472 21.497430 29.978358 25.299297 13.256866 339.496586 288.322320 299.133031 324.206820 334.577497 342.384539 344.926449 350.308899 1.957271 12.476802 0.608312 279.130664 256.128518 255.531312 257.144601 256.329730 257.577942 263.702569 276.185164 307.919117 340.382847 11.965408 19.442230 356.356194 330.369759 304.092044 301.755531 323.618134 15.733131 64.821907 52.512839 7.174450 357.552635 358.992836 352.627580 358.431210 9.576738 22.733060 31.615144 28.083582 30.773251 47.130371 30.397199 5.279363 336.361487 297.687734 287.938334 300.583317
92.843674 100.125658 102.981665 113.298192 164.698621 199.682981 200.976478 189.360684 164.715691 138.431110 131.107757 134.189625 160.295372 162.176527 144.520347 135.187703 126.454030 117.673466 93.540277 350.777703 342.397349 355.160290 14.357686 32.717911 42.581978 40.998501 33.406773 35.941360 38.903720 42.092913 45.723953 44.994729 46.873341 55.788974 56.871638 49.979386 43.614467 84.663125 104.649693 78.195398 59.900131 57.789576 71.561901 85.736983 259.674742 256.441487 211.718793 183.649598 300.590243 295.876847 285.341639 290.138581 294.284543 293.911322 298.503322 307.648421 306.251172 306.475835 294.620676 281.948292 272.357906 267.242174 263.900976 259.207262 253.017029 244.639434 241.973885 236.948583 237.095533 252.367878 293.658594 333.933568 352.237658 353.092070 352.938357 356.792141 344.322628 325.207450 337.218157 0.289837 359.474921 5.429006 29.064339 15.361055 319.993032 301.717960 301.193973 315.536974 9.792146 46.144222 52.409369 53.645341 44.324753 23.268671 19.656366 357.117375 321.126410 327.832088 36.957523 80.149988 84.918713 84.892931 83.780285 82.183793 75.144074 22.377523 329.297989 323.721004 323.708858 306.223666 299.413848 325.303491 13.571293 22.535597 27.110805 62.674330 61.917750 16.082396 330.710694 320.702776 304.682940 309.224546 343.882290 8.857518 24.993898 27.295878 21.385309 10.403041 329.257970 308.033815 326.170769 324.269860 325.561873 335.065796 343.961123 350.526204 1.967123 11.970281 359.221594 274.000250 249.349276 252.527932 258.514149 265.839071 269.462930 271.989750 283.713447 310.381823 0.726159 6.702751 345.714746 341.379840 332.281256 307.125547 303.061034 23.209737 47.901615 29.018269 356.617504 354.955681 0.836899 346.510011 351.763953 11.238243 30.516735 38.039234 36.597531 38.963352 39.455217 30.899667 17.896405 340.162480 293.235891 274.527517 276.813163
89.725367 90.577753 90.758323 89.827307 112.817262 174.760764 186.222410 185.858939 175.340008 146.563531 133.320657 135.140871 149.317255 159.343453 150.116474 138.172640 116.776318 56.410906 336.045985 329.868920 340.264903 4.488212 28.386315 43.644641 52.303025 47.909607 31.527753 16.486606 14.353089 26.345455 36.008719 43.015110 51.125070 49.520290 38.906368 22.614374 27.860102 66.172105 84.572675 103.271135 81.451869 70.859336 75.272958 84.566361 220.156000 219.819981 212.232881 283.950561 302.022769 287.533483 282.615022 295.998470 307.727256 306.292212 298.581135 297.627962 298.800688 301.849648 306.821491 303.697801 295.731799 288.371615 290.670707 288.550578 274.422094 262.061029 256.804576 254.883257 259.684574 262.843265 268.235757 282.924198 312.688483 339.977020 356.746939 5.020768 352.248363 334.656598 339.875423 2.368011 3.921384 10.982601 31.914278 21.157664 328.973286 301.068185 297.188906 309.259540 8.800629 47.375648 53.272571 49.189532 29.206887 13.973827 22.438176 3.355843 331.833584 341.653864 63.219422 78.765660 75.480633 69.676863 61.677644 57.624561 47.976782 14.899419 330.880765 304.394374 309.558526 315.811292 312.358334 315.857978 356.898637 25.796194 44.248661 63.738230 60.621589 5.721385 333.574233 325.301943 306.943986 306.452558 334.054743 0.801503 23.494504 28.369930 22.470359 22.317613 5.417528 313.550727 328.490446 337.063077 321.600374 319.019417 331.608884 343.303914 350.090196 4.087318 16.734165 3.714938 267.527084 261.811536 266.755710 273.253339 276.724295 275.890803 276.516492 283.651201 312.560700 340.676816 335.213902 341.807198 353.628063 336.513394 308.500199 336.886329 13.229269 21.334411 4.214073 346.113878 350.544314 345.124223 353.853036 22.025975 40.793969 43.583079 38.734225 37.266822 34.852812 27.082251 25.410139 9.695694 299.428801 261.560997 253.296418
93.014580 88.914113 88.678960 83.785158 86.103541 110.828367 156.309668 180.180509 180.684123 157.154914 135.453020 131.131796 131.604265 128.914202 115.798959 57.519420 3.508293 351.747539 332.467686 321.284332 337.810137 11.076550 38.416244 52.993679 55.304846 41.986206 21.369625 8.299250 5.019522 24.509327 46.115112 58.357452 59.434780 46.893335 38.003407 34.060110 52.705792 75.101511 79.690058 83.163998 95.494135 82.599383 80.761100 85.038568 76.181794 239.036243 286.346676 304.830810 299.640639 283.763754 286.872470 293.795459 309.163695 317.719259 309.544388 290.249885 277.303449 277.662767 285.468642 298.160977 304.223989 291.655128 294.693894 309.141745 315.047724 309.673594 301.067849 301.033920 300.902955 290.910067 277.875763 270.836156 271.927107 285.527977 320.506357 354.492237 349.850246 339.779954 343.256622 0.651215 9.092359 19.657349 35.021749 25.287871 342.453625 305.045668 295.020063 300.873213 357.531176 46.729979 51.174651 42.503164 22.574354 14.118700 23.468607 2.302014 339.495053 11.232825 69.117771 71.699742 68.873658 64.693645 62.259991 61.206065 46.756046 19.139175 339.993114 307.473203 298.661342 302.909043 313.205850 320.903879 343.784953 36.952129 59.729882 66.087338 59.400380 3.885480 326.891397 316.424538 308.726672 314.463830 335.776021 358.266600 21.410694 24.612824 21.601498 30.893423 26.190202 329.748546 322.977071 344.530388 334.716066 316.583487 320.505117 334.733942 341.486749 356.809428 17.860508 26.249148 331.681955 270.915058 272.500305 274.341056 278.486507 281.135393 284.554309 290.625382 306.058462 320.812842 321.750608 332.205955 355.746331 351.782544 330.821213 328.438188 359.070961 18.825997 358.320168 332.962644 341.016584 353.068452 6.087992 25.651756 39.349394 39.168074 36.241014 34.071264 22.305150 19.928025 30.547044 33.365728 12.988508 256.102680 234.390219
109.337107 94.046886 90.562714 85.624625 76.793019 74.892430 84.634369 122.408419 167.251013 159.020214 133.457471 111.979715 13.439714 2.365666 4.617638 356.348019 350.491333 354.928452 349.008498 322.580120 332.087172 19.615319 46.888261 55.732701 50.915406 31.825944 11.977039 11.874765 25.518427 51.291363 74.581178 75.647712 64.388678 53.215401 49.629168 48.587120 50.907634 48.169073 43.488521 39.131964 71.357326 93.008120 90.591316 90.281878 84.621125 291.977726 296.956193 299.313178 290.974447 287.004216 288.990371 289.459076 293.459970 299.228052 306.542764 302.918209 291.069382 281.832973 277.146174 277.041395 281.790366 280.394905 279.569719 287.997528 304.854456 312.789648 311.441450 310.075673 315.372139 319.104545 312.573087 299.712115 291.202122 284.471985 283.818053 310.452555 332.642424 336.092376 339.049128 356.084608 15.481905 32.400673 38.444093 22.093787 353.030382 317.313579 296.515792 298.699258 348.455211 44.702056 44.971599 33.585470 21.012782 17.989739 24.613763 1.318385 345.481355 34.586868 70.484929 71.454702 71.688240 73.552553 77.577587 75.221317 43.461248 15.396368 343.953317 308.435899 299.630706 296.202823 302.554877 319.751372 357.121681 61.717940 70.027694 66.291933 56.481760 7.692402 328.557525 309.843488 298.226749 313.601065 340.449237 358.220007 15.498821 22.147988 26.184159 39.187883 37.430244 343.715449 322.586026 340.146955 340.915506 323.173682 312.431820 321.992770 334.436020 352.108692 20.305042 43.809513 26.119156 275.817168 272.384477 271.952709 273.542478 277.492689 282.975625 290.074943 307.315070 328.044692 327.588859 325.931718 340.188943 329.163926 326.667834 323.613901 345.538420 11.190798 354.978136 329.084172 326.574567 340.922300 9.891367 28.642775 30.519936 30.130773 30.836111 24.622795 15.542780 30.846100 47.835879 49.091160 41.338484 357.186746 211.896946
137.848515 109.944771 96.402600 93.257740 79.790082 72.682912 71.590435 78.910920 102.835443 136.128603 43.020481 348.215177 343.262844 352.989865 357.021431 1.196837 353.373229 349.352268 0.082831 345.463966 338.618962 22.240038 48.036290 50.175966 39.310119 20.749343 9.098907 20.133441 43.457690 65.576441 83.209598 81.689551 65.865339 57.070759 54.149221 46.574934 35.315848 34.144089 31.383677 36.219655 60.917479 97.955460 102.979031 97.733194 186.170175 300.129716 298.423143 284.887843 282.332668 285.687236 284.935480 280.364392 270.306626 260.711285 270.377156 274.531234 279.725298 277.472631 275.057249 268.068665 265.588335 269.702568 266.550764 261.488217 259.874849 268.972710 283.235394 290.336839 297.581971 307.469641 313.471402 312.295942 310.353665 311.554545 304.277287 300.919062 310.745940 319.616177 324.363737 348.045725 21.010772 35.769988 34.709568 19.557089 1.314654 336.173238 304.932657 297.656524 338.236536 32.233169 33.863558 29.848244 23.248166 21.811036 21.950648 358.664386 2.361163 59.517188 73.223153 75.340555 77.366707 80.522703 80.323477 71.505825 20.515350 9.547644 346.880395 303.225799 294.412362 291.802895 294.967211 311.476662 25.973109 72.950721 65.510094 57.929015 50.251172 4.903518 334.792690 321.620174 291.547827 304.037533 337.521964 1.789668 15.265849 22.158979 29.964091 46.070580 46.815537 346.019663 319.985881 339.207472 347.432839 333.185641 314.736306 314.819795 326.428889 348.292647 31.957691 63.891819 49.281821 294.845326 265.074180 259.625838 259.768395 260.635166 263.846450 271.388622 281.792340 316.537922 357.228770 345.813058 315.894152 307.186830 313.006004 310.608059 318.433138 353.411615 350.249432 333.254604 324.355679 322.220554 354.740433 21.822433 24.461704 29.298978 33.815123 33.376636 39.693530 60.346209 59.927711 50.017948 43.494355 47.485940 95.930575
164.151228 138.155522 108.014927 105.884848 100.123964 93.109111 95.815089 96.722407 91.178051 9.125141 327.152826 337.155035 347.922677 358.859007 358.659243 2.264972 353.986847 342.862469 0.856269 359.584878 355.306480 25.337669 43.278337 41.590212 31.961825 23.121769 19.486631 36.170255 58.009287 71.700254 78.026591 75.389439 65.444854 55.973755 49.406963 42.306608 37.349349 33.584667 32.315481 50.560918 70.695154 91.144324 101.510564 95.537135 293.446901 303.385341 296.924508 280.153613 282.406037 285.873109 286.930694 282.043509 278.413843 280.482438 277.973067 274.587430 275.583798 272.921338 273.712193 269.333800 269.971727 273.268684 265.487382 254.226528 248.221353 258.116105 265.909874 272.156808 275.526975 284.216180 295.507572 300.574967 305.105478 308.597760 311.227504 303.553797 302.488564 310.145737 309.620258 323.422380 10.676495 31.729894 30.067790 17.113827 6.060334 352.426127 325.468521 301.593180 319.762424 19.544888 32.997030 32.698581 21.933056 20.303964 16.866203 3.574735 30.388202 71.673431 78.928978 82.544172 84.368127 81.904366 75.356135 49.395974 6.233646 7.926114 354.162370 307.092714 284.560987 279.896305 282.877918 301.638850 47.773518 60.945396 49.415822 53.755086 51.943554 5.399188 331.198014 334.490121 296.759185 292.180418 325.204558 358.353380 14.561650 22.538418 33.511331 50.697050 48.246808 345.109375 319.466775 337.662031 347.008209 341.403655 326.184929 313.924915 319.998669 353.581647 65.988148 80.048697 40.350524 341.745829 284.768522 257.010131 252.293720 246.574386 244.833607 248.152427 251.870506 261.546140 358.820027 339.695526 320.908579 301.587542 297.852291 296.156127 291.660510 312.124654 326.847207 330.826688 336.715148 327.719394 314.246812 355.731532 28.959966 46.129719 51.506012 53.867399 59.618103 64.579936 64.458778 61.377700 59.018921 64.688361 73.567781
169.689922 154.533418 125.146267 113.350474 111.512476 105.801184 108.034693 105.275725 49.216241 325.758189 318.506576 327.550115 338.765317 353.685427 358.163743 5.504849 3.475118 347.373736 355.854351 1.753363 7.506286 33.834531 45.204063 43.828550 41.699382 43.338897 47.730129 63.189168 72.924620 76.677622 77.360155 72.780302 65.218792 56.677052 50.976172 47.202354 54.679100 55.108454 62.661475 74.334440 84.573314 91.319888 93.314961 88.888000 289.270453 298.369686 292.860551 285.833483 286.177145 286.736216 284.932352 286.646868 293.557619 303.654349 298.354730 294.365281 294.519948 285.413508 275.145936 269.687532 270.519322 273.647298 268.542638 258.887099 260.007899 269.179691 272.553612 273.077850 269.808376 274.392126 283.798392 289.865940 294.254284 295.895024 298.035002 293.717934 286.503694 293.727908 299.915960 302.121210 343.065733 23.125148 22.068663 11.743864 7.404817 1.511529 347.839241 325.612125 317.601954 6.017587 34.743043 30.140363 17.064316 15.116736 16.825292 26.208779 70.438010 85.595862 88.539294 88.698467 83.998347 77.648035 70.732438 28.548064 356.458093 357.726008 359.958444 337.393496 290.165996 276.074119 275.648586 289.360563 22.199607 33.154315 46.709749 65.537449 62.400514 2.335179 326.719466 340.460240 310.899740 281.856560 292.791342 337.616738 9.826089 25.878713 37.232881 48.897067 41.973834 343.690948 310.826426 330.781677 340.137937 342.627867 338.789042 319.754941 320.571432 32.576530 84.516753 77.553035 0.726443 352.060335 353.933909 296.893543 257.339478 241.189206 234.947851 237.093692 243.039460 249.821426 306.406294 336.916519 327.522792 318.288362 304.375756 304.058094 297.961381 296.953409 302.508555 306.163022 331.681815 1.151667 335.177934 177.227158 123.439869 105.745079 92.601306 83.433103 74.974931 70.917414 84.043952 90.970571 87.938901 86.066861 85.646433
161.021120 151.059183 134.816817 117.939059 114.165898 112.025084 109.499865 71.547620 341.917370 315.815129 303.321148 313.455685 326.413615 337.763139 352.050948 5.935373 9.184612 4.392120 3.689322 4.236209 19.747686 46.415323 53.554897 54.666311 60.946962 69.928341 84.615808 86.233241 85.370708 81.359854 80.182179 75.309672 67.002769 62.334314 52.457468 49.236630 55.065203 55.927911 72.076390 88.802906 94.524263 97.269013 94.333878 107.235316 281.514105 288.746675 283.409756 285.831129 289.918499 286.838102 277.321819 271.588591 269.719361 276.103903 283.040384 281.203909 284.650992 285.286943 277.652541 273.065645 271.781383 272.836168 272.911490 270.290166 271.185177 274.445750 277.573597 275.775991 271.425707 269.391666 270.632935 276.385544 275.871497 275.470185 280.264302 281.567314 276.299087 275.750871 286.958999 289.987113 294.670462 346.686001 9.101043 12.815802 12.788028 2.963802 353.530180 347.433000 344.163211 8.318349 29.899184 19.513841 10.388416 16.368897 34.001586 61.636592 84.348609 87.679643 86.232358 83.250327 78.967970 79.592192 63.607912 3.493893 345.806545 345.100161 0.404663 2.913102 319.101306 287.946355 280.818212 292.161802 350.808889 31.027213 69.512802 79.884165 54.614344 348.381099 327.557440 344.322972 329.225364 300.227114 279.854348 298.878378 351.885233 25.317438 38.221215 46.643569 44.136348 6.226012 290.690117 303.284250 324.241271 338.082835 348.089322 335.653032 331.433878 55.688495 79.253115 53.828543 334.232045 341.297132 4.763202 3.403334 325.665358 274.756037 247.668420 243.330638 247.819621 254.734842 283.623053 330.897030 333.319732 330.684461 323.901716 320.356121 317.798345 309.998811 307.532595 303.289054 317.966367 355.252432 24.275953 93.847779 116.719262 112.464270 103.929958 102.630418 100.002832 89.827988 89.198768 99.137952 115.902535 107.503141 100.127882
128.998642 134.643594 137.283008 132.451241 121.978595 114.353885 88.734485 340.164075 336.390530 328.611166 293.551760 285.157848 297.224016 316.772013 354.342232 18.174985 17.801626 12.669066 7.309314 16.443688 54.280195 70.657306 67.969731 68.871215 68.701180 69.621784 81.699554 93.327492 88.313648 79.910316 74.888464 71.741087 68.102160 61.758797 54.249111 56.016777 56.422970 62.172890 70.972787 86.681226 91.394552 93.980595 91.931421 136.697156 271.816702 278.221743 274.852283 282.340129 289.321103 283.446033 268.875537 255.124476 246.134844 240.809627 242.293553 244.878292 252.136009 260.841181 269.092522 279.811034 284.345980 283.281762 279.427084 274.322992 271.406424 268.658615 269.991591 268.048373 267.930811 263.904515 262.932113 264.024862 261.763977 266.105499 274.253989 279.659430 279.104423 275.897466 283.389691 288.992965 280.521301 288.426129 329.475993 3.443705 14.247006 4.239496 353.485763 353.958156 2.514950 21.349435 23.539868 8.352530 7.932537 31.624717 62.573804 81.644461 85.814902 86.064834 85.133943 82.497186 84.098558 78.858048 31.831912 348.732481 347.032114 342.119194 354.779632 5.549185 340.517968 308.030320 288.904858 291.720681 345.076628 58.146137 81.756320 67.240083 16.799718 349.306722 344.178313 350.807417 324.618655 324.953042 311.466974 288.274046 321.749091 20.606741 42.046883 53.350608 52.713181 32.644751 291.636540 277.772960 294.588917 318.845178 344.664406 349.823523 358.679374 55.043694 68.606025 26.094002 319.518365 328.816212 357.899088 7.559320 2.749966 354.314782 327.009101 266.554496 255.925204 258.099947 266.608778 308.159102 334.018264 332.938208 331.237594 328.534120 328.060299 321.843981 318.221915 322.577661 337.506358 3.701012 25.805013 57.204901 73.738631 65.976127 70.330577 78.457830 96.940184 108.440576 98.888982 99.866949 107.284766 105.858210 100.331512
48.118209 74.759892 97.208836 123.487729 124.321363 90.500056 347.009140 326.583373 331.787049 347.257413 327.275556 290.612354 283.476746 286.485303 328.319299 22.498854 24.343484 23.761749 35.618997 77.204006 100.395240 96.764632 89.914797 89.801380 81.887355 70.653739 67.087653 76.393656 76.944068 67.953986 63.704416 61.501898 61.388012 65.318130 67.545713 66.243092 60.751174 63.974140 72.160078 87.085326 87.189124 83.618687 80.200399 70.497551 260.074696 259.934563 271.244844 280.853668 284.866300 275.998813 263.324241 253.377942 247.657475 253.871613 261.278669 256.849624 257.651403 264.536157 271.198538 280.570320 286.865689 290.794987 289.850342 283.122801 274.302487 268.336373 265.883441 261.144931 261.879070 263.641108 263.179913 259.273016 258.490989 267.928555 275.660076 281.129737 282.816199 276.938026 277.440595 284.436239 282.312168 273.171160 278.748311 299.006176 348.609404 357.345041 352.693264 359.477825 18.232351 28.241694 25.059083 11.566346 19.109119 69.734303 86.929682 94.246915 96.918479 97.485286 95.148693 90.466708 85.717571 58.723469 2.826410 346.778023 352.272787 342.967263 343.669821 0.368190 350.971321 327.134625 303.769694 294.023326 344.554479 74.090176 69.004095 23.946009 358.823950 355.646780 4.353953 9.739520 320.934760 319.747109 337.010886 305.190131 310.684084 12.862323 47.420862 55.383095 49.296287 38.039093 340.181230 273.548152 273.333469 289.045880 320.750496 349.460177 17.321085 59.311974 63.777876 12.754617 304.531779 310.387040 344.862683 3.489911 5.040458 5.657848 8.253341 339.054524 273.696951 263.071594 265.206655 289.364365 321.838350 332.535233 336.146508 332.704401 331.253579 327.636523 317.887428 318.229970 324.717655 353.064890 34.374669 51.915541 55.043600 63.576914 72.697329 79.365535 88.121916 100.599254 103.697105 91.807594 76.049294 78.535533 91.178998
51.133328 60.017876 69.109724 82.561452 85.488191 340.592898 330.500514 324.666930 324.748320 342.604232 348.607022 321.853003 297.755329 290.951789 302.407494 14.824653 26.846580 43.838961 67.994184 92.684243 107.578975 104.945942 97.742645 90.860456 88.926320 82.510744 67.926625 67.052529 68.377665 63.453672 59.550237 58.183108 60.164229 70.024767 72.243172 64.323500 62.112894 64.387690 73.207225 88.346956 83.286945 74.147208 74.869799 78.779767 256.202612 251.169170 262.804657 278.653068 280.334299 268.413579 258.513556 259.112361 264.917577 278.674998 300.613695 309.431465 289.457534 279.795908 279.248646 280.671020 284.126785 291.134460 300.643043 308.888805 302.520532 290.519584 282.544450 276.780274 273.845806 273.903715 272.013265 263.638060 259.573097 264.618725 272.506740 274.230650 277.216628 276.841693 271.056780 274.934536 286.502778 275.041856 257.707138 248.884680 268.092553 309.030530 335.796981 2.643593 25.975519 33.671362 35.079703 36.607075 86.315114 107.663754 102.675140 102.151737 102.583144 99.328402 90.763957 82.615809 67.963642 20.512944 348.109763 350.923280 0.291460 341.392529 334.835545 355.364192 357.665293 339.901103 322.403006 313.375515 4.744951 60.790469 27.766021 2.495763 1.834766 6.924014 26.908876 26.991550 317.936334 313.956030 342.057060 316.699062 301.335260 7.963022 43.251021 44.693100 40.385327 38.919285 16.653285 286.738348 266.899670 273.019029 293.266024 339.301458 31.165592 57.990716 55.340478 16.926700 290.361064 279.351702 303.393542 353.234813 5.742797 3.862727 9.810225 9.126506 325.380038 272.889950 260.706982 272.002434 299.719295 321.108038 333.986345 331.850025 332.767821 330.959135 319.096273 308.858375 313.097363 331.154463 61.757309 75.168882 80.310422 95.026334 104.443476 100.402046 93.668752 88.355183 85.224196 75.589121 72.612891 82.136352 95.163471
69.471809 72.976192 77.910481 77.037553 24.734303 323.395169 318.553419 319.596492 321.167955 332.206857 348.590317 338.107190 307.786570 289.150357 282.314349 357.039886 36.301774 57.764300 69.268000 81.101364 88.181805 89.422047 87.486675 83.176719 84.239619 93.490804 85.608583 74.543443 74.286671 71.947726 65.188710 67.102619 68.597815 73.813521 69.684931 56.663636 67.142236 70.141228 73.303739 79.989917 75.061465 74.619245 76.521625 81.857766 257.957122 247.981879 252.321834 266.652018 263.032167 262.063536 257.766874 259.442655 264.434653 262.738383 264.871064 290.308442 305.110142 293.115625 285.918747 283.121448 284.881710 289.910113 296.157098 303.820797 308.412560 302.621195 294.437495 293.026056 290.466232 284.242154 278.521998 263.936438 256.750899 256.984714 258.467856 257.947874 264.299703 273.877481 268.342694 270.490761 277.034051 269.410381 248.232050 246.727998 255.154663 259.235430 254.650400 247.229621 24.391031 43.656943 53.470850 72.075812 102.425063 113.382886 110.502182 103.548515 90.728625 72.497153 60.735819 59.773602 44.294071 358.023878 340.968955 354.173750 6.666060 341.583270 327.619783 350.941757 3.085583 347.313432 331.487900 334.422511 16.575933 34.545165 6.360255 358.295915 8.166441 23.431205 46.864256 29.598249 313.401771 310.461387 349.076878 336.087782 283.605108 330.595274 29.556679 35.785019 37.740255 43.262477 36.867241 324.108370 265.901718 265.164624 274.068627 307.545767 23.579256 41.952176 42.297315 26.570401 329.217678 275.274343 269.379519 294.305566 343.151215 356.014050 4.241896 11.653313 3.778140 316.147639 257.069073 255.434771 266.803017 285.863700 311.791938 321.324169 323.004015 329.641652 326.291470 316.714723 326.466137 39.236284 120.224575 119.534687 108.063342 104.930215 113.409259 109.315701 95.085417 77.302862 72.168011 89.149261 104.843308 110.838308 110.888782
94.593446 95.812950 92.403249 71.697456 350.015640 315.243058 308.424199 311.217979 318.187760 329.108111 343.614087 344.346848 309.765804 254.991735 245.848352 268.973422 53.047390 66.766207 70.148606 74.356948 73.771034 75.899394 82.705929 84.756146 81.387484 82.095891 90.050847 85.889491 83.851673 86.043435 82.456158 79.936737 78.952845 79.705884 74.122978 68.581386 76.023008 72.209270 73.365063 76.460733 81.210304 82.443369 77.798852 81.063274 267.012976 262.574432 263.469317 261.080560 248.550754 254.550934 262.072088 259.289357 252.489321 242.287061 236.208458 237.180045 248.954536 267.445231 280.458381 282.569260 280.851602 280.673907 282.232157 278.832699 281.547828 283.635711 277.525071 277.446829 277.477639 271.171020 259.814642 248.901897 254.975518 257.877108 253.404783 251.248054 259.542485 263.107508 256.052290 254.768849 242.464645 229.623889 229.846847 239.937077 242.845374 236.512271 221.007958 212.029481 205.746781 105.994237 75.656379 77.474418 86.999558 97.954800 101.455030 81.295066 49.165846 42.347741 53.604206 55.663097 28.437234 347.599544 339.341529 356.060701 10.875472 345.515737 321.616929 340.732032 5.578866 354.727980 335.842335 348.009699 21.656787 23.217452 4.409799 0.678334 13.551516 35.356332 55.651071 25.322763 315.737899 312.651244 352.411039 4.292043 299.953447 303.503553 9.547024 32.056210 42.716353 49.195853 46.544646 22.741287 273.418962 262.884418 264.291781 277.524750 348.053409 29.612845 36.083865 26.920984 6.791000 322.642641 278.097075 269.847618 285.849656 322.246527 349.438501 5.597429 10.888050 10.287069 304.540761 256.353337 255.069348 270.171755 294.571165 309.339966 309.651728 318.739288 326.164599 313.974152 337.704319 96.299053 117.334445 121.757109 118.072487 119.287752 123.146391 121.429566 105.863400 89.823098 88.733633 104.639815 121.180875 130.885226 130.513204
107.102093 105.461218 89.727536 31.787765 337.092941 315.779115 309.107672 308.052468 311.252325 322.856319 358.055520 35.363035 186.006369 220.454815 230.483167 228.174431 161.433940 98.941240 85.745671 78.320129 69.206351 70.534133 75.371560 71.839040 65.937479 65.155070 78.315796 88.791639 89.424519 87.980555 87.960314 83.368747 83.172388 79.088391 73.835632 74.728448 79.027584 75.668246 77.037361 78.522676 85.905000 85.642332 75.830293 78.014702 271.261612 291.140801 302.434420 282.799533 273.355433 270.927035 270.498737 266.479042 253.471352 253.002306 257.664216 255.386489 250.979225 251.665575 262.706638 265.519525 267.540414 267.586312 265.790486 255.708753 251.700635 251.722045 252.831311 252.939378 245.592255 237.359167 231.060474 243.333394 260.494665 262.964566 256.414047 252.244441 257.259416 246.757212 235.302836 228.935110 212.366723 208.166424 213.735968 222.759638 227.925310 228.504329 207.656469 195.722127 196.832266 186.804171 119.240577 81.819636 77.291422 80.804390 70.823068 33.819837 35.272614 55.293296 61.753833 46.719725 11.647519 341.389391 338.230778 359.949891 11.908598 350.276703 322.819661 331.008086 0.320865 358.926119 345.263349 357.856268 20.032729 20.136978 8.620749 4.899991 19.799843 46.841141 58.278355 14.954676 314.822169 314.610521 354.694067 17.001585 328.095667 300.014951 346.735110 31.543542 46.940161 51.728743 50.656349 38.225263 313.536232 268.411157 260.606919 265.036568 299.886697 15.529684 32.219005 27.572350 17.743504 3.579216 329.673673 291.832664 277.300018 288.512280 319.587467 354.287620 8.752821 14.264153 4.477974 299.892058 264.372321 269.115535 284.820611 302.568554 296.382457 279.096782 293.726835 285.794538 139.763642 114.055538 104.212612 91.735705 100.124672 114.695048 127.261562 139.068372 139.599783 129.647283 120.037045 120.350200 127.294608 133.565215 137.876834
99.297636 95.330296 64.869273 0.728784 331.283043 311.916512 306.154037 306.831767 307.810189 315.134716 60.576555 102.545337 150.468100 204.830632 229.100047 229.342789 192.511873 127.453435 108.020378 86.911085 70.697189 67.331446 63.396122 57.895216 62.127301 68.535914 80.183518 93.395737 95.814914 92.168147 90.455996 86.838767 80.217897 67.286329 57.466090 61.170771 74.805712 80.269013 78.670803 76.376417 74.847500 75.502030 74.885041 78.681644 260.452654 274.115666 299.384826 301.179245 291.190326 282.591075 272.652601 265.807316 266.162102 279.203568 296.088511 313.404120 312.163131 275.177945 257.305911 248.365858 252.657767 256.675279 247.228053 233.810139 231.976581 233.347825 238.662765 234.613267 225.026186 226.232510 235.477181 252.318152 260.767485 259.363905 252.266431 249.898589 244.736476 224.232469 214.760507 210.373802 200.158997 200.518076 209.637354 217.331546 226.015147 221.830470 192.327198 185.695558 198.268369 207.321817 183.011760 100.252637 76.803414 65.337168 40.263494 32.401787 58.570682 65.527258 53.768976 31.971669 2.031987 341.584594 337.594904 355.282119 12.853275 359.536095 326.178472 322.659206 348.635733 0.205056 358.721017 9.127772 22.062040 23.800639 9.692543 8.255865 30.479000 57.191071 60.238997 10.940817 308.936281 311.610193 355.214348 24.744686 348.102428 309.822450 333.083311 23.519218 42.842118 49.042499 47.308629 35.743550 359.607313 281.569394 260.192686 260.791669 273.869565 342.724913 27.247893 28.435341 20.098075 12.136027 1.340912 344.749690 318.256880 289.749174 294.851412 335.053417 3.128548 9.188492 5.775290 349.815204 303.779270 282.949930 290.363919 303.654181 296.707519 280.799784 289.616589 240.237741 130.322582 103.156567 69.148306 72.072823 91.436183 98.434300 104.300277 126.011032 144.555146 143.251124 133.339089 124.695545 125.143078 128.483224 134.627412
81.909119 67.621860 13.298315 338.104740 330.366658 315.871653 300.086729 293.224985 286.226675 255.824539 113.547774 114.680581 138.452894 209.089134 234.016846 228.716024 191.646860 140.104728 120.357860 100.588981 85.668794 72.117061 68.443727 72.889734 79.759697 81.466184 83.092759 88.162683 87.353090 90.625888 94.061816 85.671150 71.426250 61.127895 56.881029 59.721885 64.991114 77.546568 80.307962 81.809949 77.506311 71.303938 78.160538 76.935193 333.285352 249.574784 244.345352 257.226927 249.357775 252.399536 254.350831 255.414132 269.157306 280.181105 286.487241 302.061944 332.565300 334.400472 293.544764 268.284667 253.939334 241.041425 221.207117 214.724761 222.146316 229.700783 230.304933 222.074446 223.787353 237.885367 247.031922 252.319593 254.391949 251.728038 238.253074 233.837003 222.099726 203.760987 199.365150 199.799361 196.099492 201.273814 212.106922 219.734144 224.933343 208.231563 182.671582 187.289301 211.092801 225.678965 214.016255 94.959987 62.640636 44.895079 37.239307 51.689034 62.689487 56.473599 39.442956 19.119295 352.117731 339.394893 340.529034 355.733588 16.978689 5.924627 329.239328 320.774453 339.637236 357.574256 7.941722 20.020067 30.213379 23.407016 8.223015 16.349312 45.158137 64.893123 59.821863 5.224189 307.963218 312.006896 356.426709 24.267906 351.618461 319.678176 331.513436 15.510288 38.367107 45.711063 42.431504 36.009338 26.297723 323.950100 267.862759 262.582419 262.463992 289.991068 13.531923 22.714782 17.220150 13.083169 2.830786 358.973597 358.536075 317.296345 282.126360 302.754747 347.443239 357.096488 356.365043 355.047478 336.436860 309.538617 309.844349 339.465461 334.907781 318.322855 328.871825 42.630890 61.728679 34.460816 44.438524 81.110512 95.406658 97.967086 97.659557 107.876463 118.280845 120.687415 113.461136 89.458294 80.385301 82.133540 94.891666
72.820566 34.744574 348.012707 334.580362 330.617967 322.535911 301.109166 274.162492 241.250727 177.137595 121.586512 111.593106 125.059237 206.915772 227.183998 221.843526 191.928811 148.046436 123.499788 111.249201 97.838327 88.352567 86.700390 87.780837 87.774832 86.913863 83.100019 74.046749 64.002082 70.007093 80.143529 74.151114 68.935866 73.645312 69.424637 59.814744 58.965809 73.059489 82.697995 88.305586 85.686948 78.303014 84.919367 78.684284 73.208087 226.115248 226.454848 222.582991 221.226572 240.317824 253.381285 256.755214 270.124744 279.494643 282.777342 278.208880 278.711887 295.395189 299.033721 305.593323 287.963542 252.807687 233.636712 232.780678 234.765802 234.486652 226.420430 222.280222 233.783179 243.222336 245.997037 249.041369 249.304632 235.492182 217.788776 214.070474 206.342010 197.869852 195.142190 193.982332 195.036049 206.684609 218.131154 223.256356 217.456043 195.447067 181.876201 198.947102 228.014448 236.398885 241.817738 301.202560 30.074421 35.874638 45.622383 55.295562 54.931228 43.688004 26.332553 10.549327 345.276521 336.278077 342.846732 1.145501 23.463735 6.352640 331.751009 319.792776 331.689827 359.469714 22.821623 34.237076 33.876457 19.098065 12.459296 28.662103 57.792711 67.551234 56.881628 357.383933 303.326026 308.263203 356.115224 18.963892 351.564755 324.326562 335.612389 10.418055 33.739454 40.220175 39.008622 41.824371 41.018988 11.384469 287.230212 265.533137 257.233768 265.468651 330.894127 11.745056 14.565227 15.795929 11.216920 9.701048 12.879219 353.061614 288.558025 280.004267 315.251365 340.326819 350.271233 0.491605 341.599694 319.316587 319.900902 350.028135 358.476109 351.262432 355.007577 1.452555 358.247500 18.588020 64.540655 92.709428 96.122599 98.170334 102.914447 96.267565 64.233445 40.230723 34.494626 39.073508 45.656806 47.952740 51.363805
37.417951 344.997646 332.959290 335.814381 335.999107 332.317165 305.714953 235.423466 200.738583 177.537183 139.662658 112.835837 115.977727 180.374690 216.039049 217.912761 201.014151 168.609420 130.200164 108.825042 89.023906 95.347213 96.335975 95.744158 93.631693 90.114034 86.538141 70.201372 61.126058 69.759645 75.942326 74.343297 74.388664 77.664591 73.257761 59.624959 61.270365 71.592188 79.805545 82.707353 76.761156 83.795596 92.185288 85.339455 77.366873 190.528466 220.107571 216.305273 226.352415 243.469013 252.511149 258.869512 266.330778 272.077833 280.744641 265.806713 228.666936 226.914301 242.524132 267.479718 293.142801 311.025794 311.161489 297.384366 280.995340 263.710843 245.620722 238.024341 243.193011 245.334919 248.853940 249.771174 237.908928 211.351025 202.326991 205.093805 204.282372 197.794812 190.152035 191.518934 201.864706 216.584237 223.628518 222.275954 208.682626 190.314747 186.613325 212.799817 232.392831 233.765387 242.547145 262.109845 328.366931 35.777214 52.572729 55.289964 49.449263 31.293119 18.794429 5.520955 339.313234 332.989436 346.223485 6.885501 21.354249 2.760741 339.417011 326.465647 331.436575 9.396951 41.055784 41.216792 29.100787 16.676189 17.326951 41.307493 66.237239 67.913308 54.818405 0.437233 301.510391 293.847754 341.946494 12.528034 355.301120 327.691755 337.155576 3.482768 25.521412 36.942281 47.542560 55.440436 50.317895 26.070235 317.183986 269.244282 259.330697 259.712075 282.336175 352.961442 15.843861 18.555336 12.810600 16.167137 25.231653 16.462892 316.587182 280.501782 290.447641 326.422108 352.290277 5.139299 349.009638 307.908229 304.479588 323.102963 341.776436 356.611351 11.895948 7.271179 5.432540 45.052158 80.017858 92.373596 91.042772 84.607821 80.189852 38.224893 11.447339 19.166638 31.633199 40.291717 38.095641 38.885240 38.802213
340.217270 326.837078 321.600761 333.743699 341.664028 0.977197 67.746619 171.248074 178.894145 176.326323 156.498846 129.617572 119.197486 150.360064 208.566976 212.888766 204.088464 190.172305 167.587662 140.226374 86.609469 85.225211 87.811509 96.484065 98.389511 99.446971 100.060160 91.032875 85.334028 83.570333 79.183187 69.807514 70.272243 75.004921 73.895319 65.811562 69.225544 74.865378 79.569877 81.371382 81.737852 87.511749 89.670604 81.991566 58.469270 47.939256 191.415840 219.577646 236.844821 248.861364 254.513989 260.939825 263.239743 266.605381 265.133850 213.015429 196.037584 237.847705 276.894189 291.268103 283.611523 287.182881 318.998191 324.745787 321.544834 322.824997 325.235272 289.691153 256.126075 249.285324 246.049054 236.673434 213.731935 195.895785 199.145125 204.438127 203.387072 196.933326 191.546218 197.382096 212.800202 223.852371 224.712434 215.742110 200.674272 190.231911 197.852639 222.140135 230.651403 232.313939 237.795685 245.549922 265.543764 32.149080 50.504813 46.613256 36.023101 22.057210 18.115556 4.057012 334.773329 326.011370 346.603361 13.855663 10.127934 353.697946 346.239029 340.898824 349.569602 44.500299 54.745166 35.946134 20.855931 12.561111 25.415966 58.449951 70.938476 65.229159 38.224814 359.847774 328.389010 301.516425 321.437401 5.482207 1.059772 334.534541 337.068672 1.996243 25.798180 49.536097 63.884725 59.571635 42.531741 26.488738 358.104327 286.492335 266.096514 260.028872 264.536946 304.732625 10.517446 16.869315 9.501110 17.283409 29.664855 28.866907 353.819848 300.835613 287.516458 304.253234 348.503437 14.028102 13.294073 338.044199 297.310116 292.907036 303.240045 334.788702 19.862847 12.724356 20.074827 65.250634 73.401345 70.925958 70.103809 63.962354 43.516433 8.420386 9.168091 31.978322 46.704917 46.486101 46.992184 51.163750 52.730695
342.984819 323.117832 307.223571 322.857029 1.864549 60.120556 77.221455 90.546401 140.378875 162.507069 149.144420 132.063250 121.573157 110.575482 182.972345 205.798151 204.568376 192.151186 182.739336 190.370742 146.035135 98.043955 89.449158 94.601184 99.847780 108.865763 117.106609 121.629262 112.109665 91.851890 71.783620 59.409420 76.040080 84.054155 78.137599 72.659831 74.467717 75.295619 77.315958 83.935255 90.114644 87.815582 84.610014 75.262764 49.327314 37.290885 36.589606 287.780289 248.554423 247.718464 249.512490 256.955039 262.356589 261.761996 234.833936 193.198010 246.972762 285.143029 306.756985 325.074671 334.092419 300.953271 298.814290 316.922749 321.949513 328.130637 347.892571 357.853746 310.064801 260.192567 241.504591 224.398801 205.578624 198.791034 206.035445 209.641315 207.854652 202.315223 203.731398 223.146757 232.693540 230.842462 224.686079 211.632459 200.121122 196.791234 210.724916 228.611470 232.301758 234.553893 239.804976 244.516988 252.411834 280.238897 26.135972 34.216499 27.496955 19.419678 17.745837 5.727389 335.838410 320.917076 341.231986 8.320313 359.785549 348.114265 349.642728 0.273255 41.674953 69.632225 47.751369 16.590007 6.007611 15.713982 49.917148 69.936040 66.408145 51.649098 10.975929 353.112396 347.148926 333.105142 330.839338 355.797774 359.141381 339.460102 341.428224 6.375737 34.705367 58.248261 58.072577 39.257675 28.356326 28.861581 20.659407 326.550533 274.482387 265.568190 265.166974 274.780163 333.389268 7.989179 8.913166 21.431041 36.540063 38.265381 6.234480 322.130428 300.114614 290.626488 322.410169 13.212597 25.122864 18.352756 350.051749 312.442454 301.811702 299.224419 8.308717 2.334047 38.389253 65.629726 51.603875 52.254516 54.513396 50.661888 29.746459 12.325889 32.187563 61.185817 71.147836 73.590686 79.251242 77.468171 78.034456
346.586575 327.956321 301.965572 307.094545 40.315453 57.455016 46.485790 48.133462 59.874690 78.982012 101.031584 89.682937 85.392893 89.365662 113.927960 172.010673 191.213829 185.882510 187.702243 200.413391 180.818552 149.614386 123.589758 105.084562 107.335496 112.501098 121.186579 140.413630 138.409182 109.438861 73.906553 78.046490 92.401218 93.463633 84.752185 87.016844 78.611635 71.442806 76.636517 86.970817 90.156688 84.997185 79.928536 66.757772 29.890425 24.314027 40.807606 44.608949 255.248808 243.151376 247.025382 260.095096 266.117699 251.700671 215.723218 232.573249 271.741838 282.313866 296.805701 318.511029 353.534501 350.340107 313.583037 307.654628 313.448785 321.648863 344.390769 3.777535 0.254125 332.348954 290.881528 273.473479 251.529749 252.428741 262.217219 271.908841 280.602426 277.103691 287.688136 306.208460 296.083208 252.827733 233.623468 221.446933 216.457032 222.556819 233.303914 238.296078 238.869565 242.375742 249.558133 251.251618 253.735042 261.336853 295.634679 17.145665 19.142442 17.615960 18.404491 11.714973 347.740227 322.104829 328.457016 352.348760 348.918336 343.002914 1.937786 49.987304 71.372464 53.943719 19.943784 354.545235 359.696851 36.733833 65.081000 64.339942 56.971735 34.923390 352.372613 344.778418 347.445751 346.512480 351.682534 2.743278 0.113770 341.224840 341.008525 9.185639 38.425814 48.621576 36.927278 25.097611 34.800880 46.377794 36.564054 358.967853 287.555564 269.090980 266.722342 267.916187 292.188368 346.871258 6.849392 26.110835 43.200348 47.146559 5.642490 321.433699 320.012590 308.318214 311.457247 3.659146 32.897517 34.730159 12.050397 343.245077 336.046390 337.697419 348.895991 5.845705 30.729419 22.898800 28.662066 48.541133 51.499857 46.815333 36.727463 41.089729 68.431560 88.688982 95.622937 102.452741 107.441979 107.644627 103.786771
345.422880 342.224761 315.966040 291.693794 10.478309 31.133402 33.399860 45.551173 49.990377 53.495241 68.877051 89.137117 112.160903 131.325500 132.627471 143.829175 173.480647 181.020814 187.208741 194.539266 178.880007 167.746291 163.008925 135.439663 118.225457 116.914280 120.122231 140.233756 158.921808 158.788404 127.616037 109.709096 104.384671 103.520325 107.017680 114.156059 103.416183 83.758086 86.047811 89.988937 91.900196 84.789811 69.380981 50.967272 23.310935 34.216370 60.917864 65.059071 145.043600 245.080586 252.193655 260.516706 266.893307 242.178028 230.190452 259.562525 268.675634 271.135767 273.920154 284.607114 328.868922 0.069754 336.492313 307.594277 298.380251 298.744489 315.760225 347.877727 4.001356 358.180421 334.651968 333.869247 342.896933 336.101764 321.307489 321.497093 332.819894 333.734317 322.430621 329.444845 350.881682 340.821681 295.790601 303.270940 316.299429 318.711151 283.738038 250.245574 246.844265 252.875755 259.594144 258.992148 256.493784 249.878284 240.064721 253.627114 337.712125 356.745594 10.974506 16.831847 3.734322 333.494311 316.591686 327.042438 335.384112 346.842579 56.216601 69.514013 48.209908 23.282713 359.422688 353.247849 20.679430 62.504044 65.558032 58.427855 53.512158 20.766151 337.157380 331.211306 340.609780 347.408800 359.063988 12.772328 11.489302 351.907888 343.910515 9.234633 37.361381 42.716978 37.955198 47.622299 67.820852 58.445477 32.354235 11.290129 318.570269 273.030253 266.732808 267.621008 283.244525 322.667232 357.898533 25.958251 46.033414 51.654266 5.447765 314.931605 319.474680 325.240307 331.562418 13.182652 48.672187 47.290610 4.648292 344.100575 344.090033 341.605658 344.416713 6.736845 22.388508 12.889295 23.359746 47.358196 52.377470 52.799761 56.004226 64.470194 82.766492 97.969741 101.161563 104.105277 106.524650 112.380135 115.440974
351.762497 358.235738 355.847295 318.691944 344.718603 16.341908 37.272761 47.618625 53.161051 67.061033 97.022963 125.819518 138.994052 144.436879 146.027417 145.204045 161.874324 175.817338 181.399016 188.884243 179.221130 171.304585 176.337708 163.344801 133.376855 121.427303 120.955101 129.636644 154.752483 168.913088 157.884721 133.059628 118.263492 112.168171 122.988773 131.625456 131.706700 109.037476 93.127228 89.301981 88.010705 75.456529 56.832013 51.373166 48.639046 60.945396 71.446408 83.044338 100.185843 258.247939 262.832461 264.320366 268.212880 271.113786 273.531016 268.874459 264.434179 263.939248 258.436100 257.115381 264.369200 321.255273 329.134930 303.636748 277.919703 270.565376 279.036275 309.471527 354.682009 354.936772 335.623912 327.172971 338.432304 350.788973 334.902017 318.659119 328.661390 341.269573 332.192062 330.155696 354.160705 1.865990 331.481579 319.022066 333.922492 354.233385 6.309058 292.829739 258.920433 260.847016 260.850959 258.572565 247.860905 231.216292 219.745306 222.017428 251.736163 284.139234 339.427881 23.930373 12.295129 340.136757 299.524880 277.804412 266.159879 242.075839 73.034170 36.665953 21.116245 11.212969 359.881031 10.036427 53.021289 69.956560 63.752081 57.053131 40.440408 10.669696 334.265070 318.981067 328.191385 340.368467 356.657082 14.397584 17.753410 9.322329 6.290885 27.925300 53.054691 63.302170 74.373754 84.049469 75.155734 31.314680 16.094281 16.710482 356.093927 289.346770 273.796309 272.776137 283.325283 314.234721 352.123588 23.376129 45.507665 50.800136 357.737385 309.534155 312.422034 323.358526 345.942007 37.869943 56.910953 43.608611 2.076642 333.157965 335.812828 343.548179 345.492084 5.863652 19.796277 16.011913 29.389253 49.021069 61.706278 70.249769 77.314931 81.640665 89.849412 93.193116 95.478592 91.392598 86.609952 92.126140 101.630406
358.262147 6.192869 14.582755 341.852214 336.647640 28.085199 54.349296 61.440696 83.283861 104.462137 115.884864 126.860769 137.249675 144.504795 147.393014 148.623517 154.109533 166.624146 173.739242 182.942167 179.648569 174.161450 179.254598 174.518596 151.582864 129.742066 125.927899 119.771788 131.574973 153.896641 157.996189 141.358867 129.368787 122.200560 126.513154 135.697505 137.783860 127.285315 100.839909 88.891149 79.706299 64.344454 63.504652 69.707643 62.835015 57.251726 70.086103 87.096181 88.671372 274.170749 272.378906 272.425374 278.556128 298.412240 310.857572 294.835469 271.856550 262.279713 250.673114 243.351555 240.018712 248.654022 274.110451 271.783974 264.063005 268.196394 273.195723 279.980491 316.586072 341.062374 333.732672 329.502685 330.068873 345.297462 339.324062 316.495005 315.576397 333.847172 333.570676 328.545344 350.528253 6.924157 346.337390 317.953221 324.388719 358.871880 25.116388 12.797534 286.090655 268.973860 257.952628 248.523721 231.071019 216.311271 212.053380 223.948322 239.866210 235.021911 193.271716 168.271366 171.843651 225.860807 231.305446 232.217992 246.828998 263.369159 318.100353 356.608137 8.039390 8.454384 10.038076 42.928382 72.275758 74.703559 64.549140 40.068017 22.494956 10.316128 340.280505 316.514626 320.786634 335.375992 355.857261 16.199523 22.294227 27.039651 44.764935 68.075152 84.299400 86.487606 90.442068 78.069212 26.787127 3.329296 12.491845 23.598452 18.426039 313.263131 279.848808 275.856356 280.357962 298.924632 343.082784 21.305484 47.349035 52.982751 3.183520 297.799838 299.128269 317.408800 358.203818 47.292944 56.546839 35.344080 356.229553 336.348315 339.925387 341.991827 347.339858 4.130104 12.380757 18.547600 44.144599 64.506099 74.453075 81.036385 88.253430 97.999871 99.257203 93.489474 94.941741 93.425836 85.576986 82.522472 85.974827
1.423827 15.110898 31.713145 9.453891 315.693860 86.612427 99.116259 105.190962 111.862880 123.315802 125.886447 128.300337 133.082447 138.582175 141.168401 145.956728 152.428624 159.371063 160.649333 170.956703 178.341901 174.184773 173.636683 175.045612 164.045819 143.466941 138.770837 128.622343 120.835718 126.261646 137.577360 135.204372 130.811132 131.335576 136.022393 140.325499 141.807896 138.564879 118.595708 94.371793 78.520865 76.942164 93.099679 82.086900 59.322982 61.363249 82.462469 92.774277 98.503205 274.193666 273.625854 274.044066 273.391494 273.430977 286.285313 297.819809 284.155990 260.533579 243.852207 239.762928 239.091169 237.331215 232.568159 239.492878 257.030270 269.610152 270.445711 269.037879 285.647680 312.869047 318.002518 323.770453 331.189419 339.921640 343.379833 324.775567 311.195080 319.251742 329.293863 328.905090 346.503188 9.959690 355.001456 327.209346 324.020156 353.497697 29.887187 28.244342 328.226634 280.968559 260.170241 241.162944 222.684316 210.009002 214.416731 227.846759 232.679286 217.082062 183.541858 177.298750 195.167742 204.674300 221.345757 243.512025 265.824550 282.518878 302.249769 322.126234 350.697229 10.103053 35.191720 67.053276 78.996168 81.533488 49.728458 10.739025 12.194299 12.590851 348.977077 320.038698 320.169131 335.951997 355.722365 17.505620 36.177166 55.086532 70.927040 75.610403 80.284916 77.052321 67.290708 38.394336 359.509033 358.116513 18.891047 34.669387 35.635921 335.418998 282.900439 278.710291 278.725167 283.882785 320.485667 21.331898 51.816320 51.708919 14.947126 307.598749 297.251273 308.117661 1.889644 45.588753 50.887294 29.018262 351.877779 324.982386 337.992414 349.129129 341.991827 357.975991 15.906648 45.939191 77.824037 89.370640 80.490592 79.232769 83.966021 93.371506 95.761352 87.202007 84.000663 92.789705 104.988201 103.213501 97.250502
349.965075 18.006176 47.837514 56.704754 138.268794 129.664449 126.886540 125.658122 122.156906 127.117791 131.177009 130.633070 132.164203 127.030914 116.093668 76.216053 53.087672 74.571315 105.557916 133.246759 172.666379 177.330728 169.197462 170.867412 167.012992 153.107248 154.270892 151.919335 137.270548 136.725817 130.213658 124.826542 128.704976 132.082016 138.955483 144.942259 142.293111 139.416921 135.383854 113.480498 95.315503 93.903608 94.284213 69.275724 62.177439 83.183965 93.946153 96.027155 97.387897 278.618754 276.979950 271.086381 259.605184 245.986313 243.118871 245.603190 247.873791 240.370453 244.205805 251.573905 251.583685 237.238113 222.255165 232.247404 248.881501 256.589247 258.445264 262.849033 269.736258 282.864808 295.833500 302.038511 317.233113 328.655724 339.819680 333.267744 318.462960 313.822772 319.548434 328.289704 348.440436 9.446819 355.164694 334.184400 332.363657 0.313478 35.199516 34.758098 1.199446 304.396250 292.507349 270.566990 233.235912 219.411796 228.572964 233.817886 228.675127 211.492221 191.280625 189.985873 198.082532 208.248195 233.921134 253.878581 270.937105 286.440841 299.852588 307.887125 330.748001 16.100037 51.109525 61.432713 67.909410 60.966141 4.518143 354.020994 8.664324 11.843103 350.254932 321.908580 316.978222 335.415691 359.546720 30.895923 57.561323 71.783061 79.236831 69.234588 61.346800 59.482846 48.140374 17.230965 352.201768 2.711522 35.723286 49.775110 45.848300 350.552264 285.666978 282.804866 285.068137 284.470657 302.478980 13.363591 42.965194 42.449490 12.729236 324.548887 307.500329 310.801987 357.535227 43.010728 48.772345 33.189431 4.283819 326.960523 312.743543 322.973526 302.379653 246.604130 85.381772 95.227325 100.437227 112.574801 96.616774 80.017082 76.133062 74.143733 72.772267 71.413073 71.103218 78.589720 89.530822 99.020941 104.102766
357.878904 25.119933 57.721453 62.084206 85.412615 105.395957 111.624823 119.674696 121.050646 121.936754 129.788270 125.599170 103.024771 32.507334 2.912981 0.278217 12.064119 24.899279 38.032884 51.910244 67.153550 128.878892 156.704438 163.123639 165.363823 156.211103 157.275646 157.951218 146.433430 150.301092 147.462947 127.861250 116.654112 96.108700 76.828044 94.073714 101.352004 89.428115 103.274871 108.936094 93.337195 80.746490 61.122782 58.083670 80.700666 94.534199 101.432501 99.883980 341.876250 288.239240 281.560806 273.566798 275.345508 273.881935 256.501204 241.181097 233.217549 237.687654 252.964531 257.451555 246.546872 218.588925 219.628679 239.083927 243.472397 246.914068 254.642633 262.549586 265.981261 276.148190 285.857849 293.664564 299.094698 307.394638 319.293766 327.374184 321.933403 316.482976 315.539605 324.802048 348.371222 8.310031 350.022382 335.236826 343.358157 15.139161 38.851457 39.326677 10.040070 313.057212 306.183678 324.574770 337.738991 318.156377 288.056474 255.033536 231.410952 213.275727 202.091781 210.053509 208.749381 217.715357 240.655288 258.341608 272.059554 284.311112 292.506421 299.807540 317.413942 18.296218 44.577383 51.820154 54.634663 34.846835 353.848001 357.178753 15.586580 8.747733 347.747398 321.962246 304.832516 322.701897 6.429542 47.987536 65.435118 70.993034 73.351543 61.582848 50.728303 51.304451 37.685884 2.753621 354.715197 21.867720 47.221515 52.426724 43.782364 5.232549 289.305442 279.083891 284.485191 288.847947 293.215043 348.704698 33.841513 38.498670 12.400689 331.841058 316.237556 320.143031 350.808156 42.474531 48.156648 40.728250 13.491167 325.382479 214.668678 173.734530 172.949288 176.638686 165.087655 133.636072 122.230493 134.565594 137.417661 106.637252 82.973681 69.106468 65.928136 69.699163 69.354222 69.811167 66.601591 66.439561 69.190648
13.750256 42.603739 64.973523 61.731047 60.298590 68.213025 88.477655 107.491928 113.384168 111.857265 106.622312 33.185162 349.565835 349.342934 349.136533 349.204747 10.061624 31.797463 37.675348 39.037991 37.858776 39.127296 42.603838 44.223580 71.907550 92.548525 81.665402 116.387940 115.465010 114.595145 119.811737 90.828134 25.115967 10.285821 28.754883 39.391638 33.718833 47.197692 68.811606 74.093352 65.524556 69.554748 73.011210 76.698608 85.120873 93.347840 103.050135 105.765623 270.922036 281.290537 274.631091 272.178887 280.143136 293.781843 287.909916 250.451838 237.917141 241.908961 248.963959 243.182120 224.959730 217.242810 240.579772 249.149915 246.731814 254.825515 262.646655 266.287342 269.941539 277.768043 284.395619 289.465740 292.543562 298.034388 300.572393 313.083563 314.750783 310.499948 309.299277 319.892057 349.080126 6.299386 347.843158 335.866551 354.913625 27.216457 40.398625 39.294936 16.559675 325.418487 298.838583 303.931125 328.727770 336.866371 343.401549 340.418174 279.618044 237.178167 235.524245 246.616483 241.085176 238.593178 248.033544 261.927399 270.865918 277.684670 280.805631 286.592760 296.618224 349.051240 29.618327 47.050917 46.752900 23.768852 353.203009 3.440592 24.913785 14.265054 354.463856 327.203895 298.066786 301.959112 5.133798 60.994601 70.385524 75.093166 73.163364 53.252064 42.430759 47.728322 28.082723 351.812866 354.669466 28.528154 47.482748 49.845748 37.876560 14.715262 301.923532 275.364960 277.717516 286.515996 294.120888 317.945923 25.188403 38.784142 16.786967 333.455481 323.187718 334.178039 1.994840 46.076209 52.197865 48.656986 45.244528 73.205702 142.346705 150.754760 161.099824 176.155375 179.486632 160.608028 138.970608 143.193580 158.780590 154.080440 130.195397 99.688978 81.346345 71.776092 69.718634 67.142549 60.694601 55.606506 51.710369
35.274791 56.586722 67.940793 65.882366 63.355975 81.183768 97.784611 106.147971 107.514767 101.870787 14.963459 340.748896 344.557345 348.439387 347.710091 351.367405 20.713482 39.820003 38.396348 32.485037 29.481206 30.463180 26.021329 24.179566 24.398879 18.033913 24.494542 37.836317 35.108917 27.900792 17.746464 1.625944 357.292869 15.048981 35.052798 37.106907 41.853262 62.062666 75.522700 75.144501 80.114199 91.719598 94.723112 85.217909 79.797404 86.398086 98.813020 103.613087 268.303936 271.175318 264.158969 262.573430 256.679163 242.595028 218.778461 217.604059 233.887015 249.421926 247.533584 241.309326 237.665907 243.625987 253.676604 254.376289 260.765869 268.508579 269.220149 268.200441 267.562937 269.253123 272.661325 275.157853 287.483093 298.906104 296.255451 301.491111 303.755711 301.579064 302.936852 309.617330 334.899601 355.724788 350.778190 343.524148 5.776911 35.442520 42.717830 40.721607 19.187958 340.393843 317.848153 299.994169 303.469963 312.672056 323.634475 350.358623 1.161576 338.403745 313.407795 311.601456 332.943787 320.519391 264.677746 266.066042 268.513386 270.339447 270.010998 267.278235 268.440182 295.447308 8.725739 42.009610 37.194944 17.370737 359.089132 17.207672 38.326205 27.019895 9.040500 338.448820 308.880131 302.670386 11.275868 77.511319 85.405051 90.695638 79.096676 42.431264 42.723889 48.836471 20.979119 343.841646 348.376936 29.012285 47.829378 45.000000 33.465987 20.153091 322.747294 280.850825 279.025969 288.495365 297.747818 312.608953 10.568344 32.268896 14.339401 334.219600 325.955907 346.508262 33.027889 64.427318 65.375463 58.652818 50.795554 51.686646 70.547513 91.639142 109.170448 154.124249 175.278794 167.931699 152.129800 146.587546 157.909253 166.982548 166.159305 155.728240 130.317224 95.954934 89.935679 88.904041 87.464440 81.931512 74.656538
52.326080 67.436998 73.437396 76.034711 85.169106 107.499479 110.158312 108.600831 104.891000 45.726848 333.143500 330.184539 337.693795 347.001569 350.849466 5.255511 34.429002 38.656939 31.905651 30.648038 36.213198 34.315131 19.701887 11.800234 16.481894 24.659979 29.405254 26.617956 25.106921 19.517007 8.806925 0.706245 6.636733 28.010991 40.460562 45.456116 58.334505 71.739821 79.626507 82.219939 87.738501 91.547672 86.403415 81.271929 80.310920 83.732790 93.876639 95.518767 279.675168 271.758251 264.921085 262.070412 246.503445 226.947735 228.373059 249.346397 259.884763 266.108666 260.654116 261.698367 262.720963 252.001305 254.419757 262.356974 270.411970 273.848678 269.670237 266.687805 262.034883 260.235158 259.318226 262.840034 277.291865 293.960314 301.985498 299.819353 295.362314 293.539198 297.442922 303.121587 318.741274 342.507089 351.480136 355.906972 24.942843 46.382997 48.205928 43.721124 18.964570 346.381136 334.109216 321.968743 311.510094 310.499168 305.123991 309.254408 341.102712 341.212865 331.625292 326.833913 349.041936 9.936774 302.133010 266.202179 261.843311 259.911721 257.867158 251.361194 251.745642 263.067565 284.693628 33.086125 32.260478 18.769251 9.711199 39.401509 60.482781 46.604419 12.508453 333.460476 316.542978 315.766006 68.402884 97.104685 99.566491 99.732830 76.256079 35.806486 47.281388 49.510512 9.480273 331.933497 341.426608 32.271473 48.619693 46.758358 40.265319 27.882239 334.780209 286.588876 273.989104 277.244590 286.474505 301.761527 346.790067 27.143469 12.985464 337.894359 329.974435 12.049440 68.675951 79.886048 78.331746 62.604791 35.432191 40.549828 43.705615 46.198089 63.263319 87.346916 131.322191 155.478102 150.090999 143.092378 150.576799 164.935202 169.282954 172.221803 171.314796 147.092585 126.534947 123.569698 128.256713 129.710955 123.735532
70.984315 73.566171 77.215074 85.649346 97.861181 110.333906 112.323239 106.843725 95.388559 332.257826 323.159065 329.089616 333.429264 347.294914 358.381226 12.743249 34.363519 37.158627 38.198301 40.752482 38.997547 27.861849 14.749663 9.109021 18.406798 31.092329 32.956868 33.876907 30.154966 17.514775 9.981645 8.049010 14.842584 33.769860 47.009554 56.183571 68.402270 77.773621 79.177166 79.974377 82.788539 90.532969 89.260576 87.005482 88.071407 86.104098 90.748349 83.600872 286.747640 274.895213 273.934782 275.408669 281.574336 286.882070 287.121996 276.599917 262.905646 255.713058 257.851103 253.044502 239.225690 246.246159 264.753970 269.760052 269.990175 269.225392 269.003937 267.920970 265.401299 264.841239 265.294330 267.793186 275.062063 285.510109 299.684110 301.039605 291.413462 285.223901 286.262697 296.281581 306.889484 323.946395 344.462562 8.331029 42.556213 53.255845 49.998221 42.353120 17.446174 353.352119 344.366210 331.262643 323.819939 328.785675 333.502956 318.953124 312.390227 318.071633 321.593190 326.303172 345.201899 14.502028 356.156169 268.698311 251.959022 249.286017 247.458261 245.474444 244.338575 247.532205 240.774051 284.405839 4.385964 13.833826 40.076590 77.820756 81.844675 55.031740 3.219396 321.730806 315.635970 339.306061 110.795908 111.278813 108.362857 100.553393 64.740485 29.172444 48.153376 49.338755 4.981549 326.640696 336.476975 31.054528 56.169718 61.499103 54.830204 30.318896 337.480272 289.559307 266.889423 261.124129 265.047371 273.027673 293.415199 12.336583 1.221610 339.911629 348.195885 59.801495 79.153679 82.262117 77.135955 44.512839 24.361208 32.927863 35.759807 52.139839 71.666384 76.372713 80.214141 93.925735 101.069427 100.724693 101.279752 123.962916 146.324529 168.244173 180.222757 164.190409 142.927602 136.025876 139.320224 143.425140 144.421648
72.736766 71.880014 82.922642 87.116327 98.093326 103.774204 106.616298 97.888389 0.598787 317.140572 316.621530 333.806336 345.922255 0.621198 31.015720 34.986844 27.955171 42.802767 46.244479 41.532139 30.403979 18.696559 10.340808 14.905462 30.512450 34.991135 36.923510 39.859031 28.474008 16.497004 15.367024 16.520685 27.378717 45.248956 55.921722 67.771830 74.947644 79.759709 77.196782 75.501952 80.244886 87.550421 94.087402 98.857714 94.666858 91.771312 93.218089 94.039034 276.035484 275.651181 275.653727 276.215636 284.142347 291.740290 254.278179 235.626788 244.789693 249.636307 252.922313 242.010016 241.969743 268.335973 273.881674 268.545802 268.220812 269.663722 272.538212 274.131365 275.348345 276.676105 280.368067 280.465844 282.066072 287.042287 289.290539 288.798979 288.199770 283.400742 281.009667 288.147866 297.440242 312.508412 333.165957 11.868370 45.965533 48.703889 44.322698 39.511602 16.188262 351.475027 346.711425 339.769142 333.551998 338.659912 345.820229 341.110504 325.293433 315.574915 315.131593 322.359277 339.304549 11.704914 20.924152 317.972056 247.850076 245.089604 244.338729 247.197088 243.813951 245.109822 242.931167 249.921630 284.594974 48.110585 88.151316 93.647665 83.516926 40.994803 349.131139 320.375329 322.882533 75.766446 114.783913 118.016447 114.825850 100.084293 45.842900 23.015627 51.835646 46.642794 2.182630 323.468269 330.004657 37.291473 73.590676 75.706646 58.443921 23.381505 341.476711 299.480529 276.474815 264.272851 256.785485 251.492888 252.202617 286.038999 324.698662 331.622786 17.984586 65.124586 70.136690 69.002035 52.338984 25.454757 22.503970 31.320399 49.592655 68.500138 72.072920 65.680150 54.840767 44.516026 40.142051 40.185326 43.766540 54.182541 67.797097 82.763530 139.424359 158.942926 147.622483 137.976663 135.751129 139.303434 141.262941
64.060341 72.454648 83.951589 86.685236 91.759237 93.877049 94.595562 73.501142 327.447668 313.466544 310.161868 331.754586 14.077666 35.800099 48.659461 57.796173 75.138854 78.221003 49.028264 38.595064 30.108214 20.101828 13.540237 25.285875 37.161140 40.007663 44.942479 43.675972 29.621582 19.931570 21.414666 27.443229 42.604716 55.296830 66.017596 73.506047 77.165129 78.533273 77.170875 75.180914 77.977723 80.824000 90.139892 100.632842 95.401820 99.133268 99.498625 108.334687 273.378342 277.439770 273.886472 266.816884 250.688550 218.959435 207.839711 248.452529 264.092173 273.991233 280.709679 283.027971 283.785490 281.390278 269.133889 265.265538 270.594193 274.454455 276.991564 279.318398 282.064672 283.978545 287.397108 287.462817 283.715245 283.700297 277.076821 272.377463 281.106126 284.789149 282.924061 278.770588 282.504890 302.087388 329.674627 10.222680 42.060744 42.857575 45.612382 44.413874 14.874228 338.706559 339.406283 346.213117 347.190210 348.063874 349.391288 344.412187 329.632671 313.498281 310.204790 319.806860 343.096037 10.224401 27.311279 23.885510 285.509283 251.253426 249.834666 250.414613 250.638301 249.471902 244.254399 240.767250 238.595550 109.960132 90.398700 90.721608 77.272869 26.674753 332.615503 324.789366 354.154047 89.944194 97.990517 102.342741 99.161008 81.762140 16.987624 11.013612 26.008937 25.562727 3.517029 330.531355 332.750321 68.030889 87.028636 74.543004 45.812940 15.322320 342.659026 314.182045 306.023367 293.627959 272.946208 257.865888 255.853252 272.769973 292.730741 307.606450 20.730386 60.405107 63.940820 57.155955 41.186896 31.815295 30.423515 35.709546 57.935349 62.769914 55.108646 49.911492 39.402077 31.299184 31.661198 38.539013 50.593729 57.561972 62.090812 67.144265 78.931559 105.201871 120.922704 124.862196 123.586576 122.673010 120.680717
55.741196 67.197013 76.569516 89.798255 92.677807 91.679694 85.781061 4.648210 318.598450 314.441609 309.899032 308.971345 27.378218 55.347791 66.834824 79.334009 112.830416 149.619762 73.715514 55.660865 54.594147 39.171961 31.502695 55.085972 64.218123 61.189855 55.600423 50.033109 40.658102 33.895998 38.038154 47.784534 60.484596 67.219566 74.273609 73.014299 72.691223 75.645111 79.386354 80.651475 78.798754 79.752072 88.597710 101.835507 94.685520 102.348323 101.511372 90.201037 281.741889 281.264509 273.487581 255.840756 230.225762 228.014812 264.936973 288.479711 296.519470 293.198591 293.673988 296.038128 291.607872 269.651172 257.267914 266.214741 271.361272 273.240255 275.684169 277.663423 280.069063 281.109419 281.280537 280.159102 276.573707 270.777701 266.860667 274.791831 276.488787 277.016365 276.626749 267.465970 272.121874 286.827530 313.916900 20.886757 44.949707 44.794401 51.590695 43.309879 7.627866 329.744937 327.617544 344.603220 354.827535 359.671096 3.939032 357.079278 332.227011 309.928840 301.892796 306.653051 329.766434 4.678217 26.945662 26.022762 2.485831 280.111336 257.765433 253.751137 257.342257 256.331116 252.600922 250.526902 251.428795 84.409492 78.701821 84.129575 75.468768 332.849288 311.668108 324.294811 30.958856 74.418843 69.875786 63.162688 54.515145 40.718277 355.663494 339.545005 358.130000 16.010410 15.525098 352.476666 2.964793 81.226023 81.665396 57.013295 32.593612 4.609154 331.584627 309.752907 311.531212 319.319558 311.830469 287.488844 270.873745 279.282906 289.996676 303.720012 2.698607 57.806094 64.684457 54.221495 36.592665 28.618702 24.424397 30.329512 55.275906 52.239751 48.812950 47.451374 46.293434 54.595564 64.618134 75.788458 82.421229 84.322877 93.823914 102.726410 99.189410 99.301252 103.989075 104.602709 104.173517 90.346289 64.542721
47.034550 62.896931 76.154540 92.048163 94.541445 90.091991 75.084396 327.338321 310.631774 317.688960 324.190249 285.415552 67.564865 76.673856 92.651837 103.035129 117.647583 157.546510 171.440244 119.833824 105.051370 86.041924 103.701153 119.157173 110.629880 99.891470 91.334946 81.764115 70.105632 64.807324 69.671899 75.381641 82.032525 83.652487 81.129220 76.742091 76.179677 77.927408 82.200430 84.787851 84.433829 79.870872 91.658978 103.449263 101.815387 107.073464 103.286583 316.145763 283.818189 281.418706 268.871036 248.981959 250.454192 270.070330 284.407415 297.753285 312.410708 308.295363 296.649248 281.973655 259.578322 245.652380 257.015464 264.618624 267.245950 268.442096 270.182584 271.181189 270.262522 269.838257 269.252724 268.178774 269.261882 267.638573 267.739407 275.343166 272.682090 269.170852 264.340338 263.676447 271.201667 277.294246 281.024176 23.258989 40.120912 47.052797 51.275186 37.393012 8.948092 330.679254 320.467735 335.454788 348.234070 1.070390 13.699413 10.584392 340.660572 317.479218 301.979993 299.581353 316.919744 350.254901 18.609883 21.315674 18.064200 343.876334 269.131490 258.598328 260.077112 264.955385 269.241449 271.665159 275.714455 332.618586 76.796450 78.602704 69.699074 316.377607 301.836660 314.374950 46.518187 58.881770 52.075247 50.594483 46.600810 30.370953 354.431719 334.836615 351.721370 19.646309 23.755019 8.658020 29.595859 72.147371 59.375394 44.718074 30.424159 354.785692 323.395804 298.119241 295.557751 311.036685 323.595831 313.312730 291.955565 287.791433 290.169340 303.669953 357.874534 58.967061 63.164016 43.829289 21.345554 16.824296 24.604384 44.809802 59.383051 56.251516 70.400919 79.022406 95.780395 109.177497 116.875594 122.415128 119.245045 115.863932 119.041208 125.818380 128.278546 121.220294 105.102132 76.116256 41.922353 14.116610 5.153176
55.808955 73.014492 85.249832 93.084499 93.713170 84.437044 47.233386 322.228507 304.719222 311.368058 1.023660 172.222793 136.989624 100.575995 102.459089 112.768940 121.439241 146.703831 169.668417 147.900092 136.870741 129.189511 117.415558 125.928933 129.514681 128.983950 126.596236 126.339814 126.114862 118.575646 104.763405 97.524135 99.253405 98.059048 92.752908 91.245130 88.683193 85.719286 84.461536 85.154064 88.775708 82.027974 90.223727 101.176482 110.609630 112.111686 107.671649 286.114513 286.031744 275.634025 261.211519 255.409846 267.560811 274.338065 277.354996 283.922045 296.022194 299.569946 282.080065 251.802263 239.718482 252.359932 264.193064 264.801757 264.701789 264.634611 264.053540 262.316916 260.986876 262.046146 263.828568 267.008427 269.129412 271.235216 270.262083 271.580330 269.156170 268.300128 263.590014 270.531321 273.469557 275.419771 268.958971 315.489053 22.643583 41.422193 45.686601 35.746833 15.273153 340.287084 322.482094 332.207268 345.564971 5.390435 21.094118 13.941802 347.371778 327.197218 312.176124 299.305525 309.627311 342.573102 7.402211 17.495897 23.774151 13.091568 295.974765 265.859610 262.851986 268.179620 274.646831 280.971489 279.171436 290.103865 73.389913 70.577047 50.364104 319.969306 303.930134 308.842454 65.284547 57.859254 51.335405 51.212523 39.051759 17.431256 350.529349 337.605107 356.454613 26.138298 27.009893 23.249974 53.116381 66.251850 48.477623 46.098731 31.750347 346.317614 316.848827 284.374942 273.383250 277.710438 296.609833 297.091007 288.374233 279.185127 278.875672 295.455678 355.440660 79.551696 76.561072 50.978334 26.995501 24.183296 48.933238 63.003607 64.810700 96.842368 112.582005 110.374734 112.216589 120.008847 130.911433 136.078246 133.604048 128.543110 125.935594 123.537857 114.554017 85.453476 18.472718 5.296093 4.779285 3.357934 1.476610
75.313513 90.715144 94.667599 94.951167 97.488809 85.156619 0.252960 323.074990 320.887489 330.473873 77.436331 122.333673 141.861982 111.750362 100.967778 106.072498 114.317277 133.701187 166.546105 146.547938 136.390901 142.465191 126.971433 123.885639 128.463193 134.393127 133.257744 135.180104 151.601810 158.775556 148.930201 127.109615 114.685835 110.261797 110.556739 107.883739 98.666654 91.268402 89.501832 89.813307 89.127248 85.186231 88.751167 100.653281 113.303893 115.639110 128.773194 285.953528 290.974358 273.992904 266.154627 262.847617 264.200006 265.029840 268.493486 270.925859 265.896655 255.996955 242.864138 241.774180 250.774541 265.040927 269.883296 268.157917 265.500067 262.642050 261.055030 260.452011 261.931593 262.867736 263.807372 267.373808 270.225240 268.826702 269.127121 270.820823 274.570887 272.677424 270.995883 275.761922 272.198980 272.232247 280.352572 303.391695 357.185861 36.786214 46.620352 34.715413 12.569923 345.869381 328.983363 332.225250 349.257538 8.176383 15.668935 9.231605 357.071562 339.848724 325.420602 309.041819 309.968379 331.298867 0.919290 12.619766 22.069431 24.507405 335.707330 274.607419 267.171974 267.489797 270.000000 271.376004 259.046295 229.099827 88.003157 60.730476 25.213643 328.723822 310.933930 317.103137 83.493507 60.514127 48.081158 43.507085 27.948571 10.103495 350.185736 339.541192 2.475787 31.564264 33.201405 46.345877 71.702305 63.704546 48.156405 48.384559 34.136127 355.879339 322.056575 280.979197 258.069838 246.610006 241.634327 241.942816 247.071186 245.017001 255.548041 266.486517 153.002062 127.921689 132.581223 140.189795 148.007335 147.687056 138.923744 108.859152 103.882818 120.715014 131.124475 127.416937 116.866348 113.390333 117.227535 125.019277 130.119907 128.471261 121.470372 89.584237 17.491541 358.948508 349.213549 350.724872 1.172724 9.706409 13.497547
86.446227 101.173167 101.008961 96.199403 93.752781 54.031206 328.779836 308.047569 324.625966 30.821706 76.265674 107.316064 127.130924 100.182508 95.295087 95.701582 104.240103 114.071265 161.593373 155.452857 121.252744 131.713764 122.236787 113.864562 120.334452 129.438095 134.213364 132.179204 146.755063 166.368939 169.585965 158.225963 135.532011 121.384368 119.833966 123.009557 113.434458 97.094242 94.927955 94.256058 91.396150 89.234861 92.821178 101.133124 108.664919 109.316715 204.461644 288.379830 292.529263 281.984877 277.404957 273.124052 262.107596 262.016077 265.084591 262.434395 249.652853 238.856115 240.567107 251.911704 262.061684 267.468768 268.566526 267.269792 265.484168 263.093980 262.389319 263.049414 263.537344 263.488181 263.752071 266.192496 267.297004 262.064328 263.826545 271.790553 281.957473 277.640082 273.301495 267.273203 264.595567 269.040278 283.785584 296.518524 334.346513 42.105156 50.943061 35.791119 16.834370 345.761415 330.987540 332.725742 345.667283 8.467974 16.236076 11.335125 4.786414 350.580500 332.058009 313.658939 314.239317 331.100331 352.852879 3.496821 15.897866 26.751964 9.529706 279.436216 265.749345 261.290768 260.178664 250.566185 235.483686 216.896984 162.688354 51.471051 10.880441 337.171640 326.200944 69.956850 51.271418 24.417266 28.073871 25.386233 15.784804 5.394602 355.634193 353.202669 21.508022 49.552915 60.458743 75.004242 79.861742 59.855610 48.504613 44.859953 29.302736 5.980199 347.180061 314.873005 265.958765 237.346469 229.075367 229.315275 231.227531 234.623224 242.178345 222.081872 149.503468 141.689801 153.518375 168.536099 171.381130 161.018650 158.253477 147.347709 133.339088 128.915863 135.437848 139.738700 134.524329 126.692065 118.635888 115.620689 117.644132 117.128398 57.521996 349.197188 349.027340 354.880479 350.708345 347.619243 2.990041 23.196428 31.760895
89.497486 102.120963 103.050272 92.555412 72.394985 13.498490 336.004873 303.081969 284.199513 66.108908 79.978517 92.606945 137.507049 94.198081 83.941939 81.221744 82.888340 92.047107 133.074088 165.328818 135.800570 125.259989 119.714275 100.647265 102.415798 114.836182 128.743128 132.072168 133.999201 157.221122 172.571279 172.902300 158.573245 133.927876 121.806584 122.052982 128.904813 113.037931 98.714389 93.320460 97.456828 101.736569 99.907255 103.646299 105.931363 101.979667 300.827066 293.694808 289.532465 289.203160 282.969386 283.470796 273.900494 266.375852 262.030731 252.224299 236.526015 230.064905 241.457063 254.161243 262.119551 263.353396 264.690830 266.377461 267.596262 267.918492 266.391531 264.235075 263.810781 264.493728 263.802787 263.569135 259.948191 255.981764 262.277891 270.510304 277.627507 275.849237 268.300603 259.618989 266.380402 275.248090 278.782967 290.401547 317.768228 47.693709 51.989258 36.567223 14.649193 341.257610 327.345949 333.168796 349.719065 7.492126 13.609442 18.701936 12.607123 359.856920 339.969915 310.025946 307.137740 330.190430 343.620040 353.832778 9.794139 27.790813 31.615959 311.065585 256.272560 254.096821 250.810365 239.893473 226.077605 213.549817 194.423096 181.752592 312.267068 315.074378 27.484859 30.963757 2.091899 5.921271 6.526490 10.235321 13.594907 16.241762 34.781760 78.566813 118.945457 119.876885 103.897897 88.899321 76.183863 56.041129 45.111182 38.236577 23.830300 6.701295 353.680134 345.196900 332.681796 282.679116 261.010483 260.189131 263.958884 260.232415 251.040520 210.833952 142.155147 140.664306 149.691356 162.445145 177.462076 173.562438 152.246109 145.264008 141.220298 135.117627 133.829924 137.830935 138.962372 135.140726 129.034069 118.875758 106.669326 43.382641 333.927868 336.091546 350.636666 1.048497 356.849367 352.097039 13.084003 28.817911 27.053509
93.254884 100.965758 103.249263 93.169287 53.640229 6.421976 351.876037 339.267108 326.714989 111.570652 92.025694 81.263568 128.855843 147.309577 99.483546 91.592968 90.163558 90.835957 101.218731 142.640147 151.788171 136.067004 127.821795 110.533674 100.242593 104.388675 111.904004 124.718699 127.189966 140.210787 164.540262 177.315521 174.699372 148.188946 128.670169 118.341452 120.977917 125.963148 109.369174 97.358424 103.317549 112.960064 105.789256 104.864718 105.837050 100.211391 290.574243 292.339180 284.748749 288.751997 283.254333 285.069185 282.612492 272.106692 260.401247 245.420874 230.416870 235.707879 244.983887 249.092735 255.313169 259.382998 261.774640 268.477910 273.753762 274.782550 272.542664 270.187037 269.352309 267.994470 264.113413 257.902364 249.535037 249.173658 258.270041 263.695570 263.066758 264.370841 268.389060 271.722861 276.886032 281.643521 279.050594 284.438042 283.416969 57.461409 46.447146 26.230877 3.558121 341.872189 328.127840 335.058466 349.833310 359.585626 19.112258 35.571798 28.949719 7.165657 349.137557 313.241574 299.281099 318.538346 338.987521 353.965546 7.269954 22.158013 36.326026 27.048428 258.959060 250.609494 245.117216 230.407285 213.006294 207.515478 193.294265 198.138578 244.574427 226.104670 215.973796 274.031191 294.612204 332.590571 352.654275 25.998110 55.721367 77.874531 100.218731 117.344624 131.291572 133.612814 121.230108 95.956990 74.776761 58.218971 43.896365 34.860640 23.521028 0.134497 343.985757 342.667441 348.125385 341.988069 322.956614 309.797485 309.165668 307.105160 293.838740 164.570321 119.555422 126.462248 145.803600 156.587527 175.490204 182.690661 156.234581 138.319383 136.921212 136.505707 132.971467 132.509555 133.955622 131.301007 127.814348 116.843691 50.614108 335.216748 326.783877 329.720836 349.021612 5.866107 6.053548 3.237461 14.205115 24.160071 27.575955
97.086700 98.160598 97.025968 89.219155 24.604364 354.824875 351.018725 353.089115 29.962518 78.057008 88.100507 75.584837 94.211681 149.348831 135.776844 113.327608 106.121016 90.922160 77.070529 77.992498 92.367304 109.275045 116.740725 119.258659 111.052016 101.782274 93.731779 89.620629 94.331337 107.607087 137.049529 169.521772 183.641061 170.209843 139.204183 132.360881 121.338786 116.497587 115.916855 108.688720 107.655291 115.728210 111.775391 103.650419 103.919695 100.765446 289.695321 288.497888 282.980193 285.737241 283.344547 278.849042 276.796701 273.741978 270.145555 259.870408 261.343582 265.828692 260.929957 260.292645 264.988348 268.649605 265.919672 267.163693 271.475797 271.309103 268.929345 268.208638 266.569602 264.235331 257.827112 245.989999 240.304506 247.294539 253.072487 253.331188 252.456167 263.146416 273.471048 278.342003 279.220424 276.682833 275.364650 267.416377 228.817188 231.170175 19.443670 9.264524 353.773336 342.725234 332.967180 333.308105 342.054367 0.249054 32.905791 45.223811 34.965992 2.871713 349.914150 327.928094 305.716606 309.931780 330.770478 355.155523 5.271252 15.475888 40.405422 42.436584 352.216015 247.720704 237.463464 216.920195 203.574220 205.268386 209.175313 241.466930 256.730988 228.883453 235.271202 245.119307 249.911812 244.604871 195.702560 133.088079 95.612203 85.851274 85.772587 96.259660 111.300611 115.669453 104.303598 95.618110 79.985214 59.296375 41.190779 34.998638 23.655226 354.041319 337.507900 332.136433 330.857547 334.903537 336.342917 333.009066 322.178464 305.778781 294.831059 117.782211 107.834327 107.123159 124.208909 145.841022 170.585888 182.056062 161.845452 140.765529 133.397561 131.476984 128.299732 126.056766 123.500820 120.802324 111.451020 42.815702 332.785047 325.098221 323.854745 325.576221 342.342981 5.408249 11.516490 12.812708 26.718494 46.936209 62.881587
100.985868 94.218349 86.996551 69.728395 347.727923 346.583093 358.736605 13.488982 41.975641 59.953746 65.108789 73.091335 83.335830 105.600932 126.383440 79.681085 45.272979 37.008659 37.908470 37.534126 40.885874 58.401061 80.484192 88.422217 85.379052 72.587685 61.337218 56.207756 66.261132 72.076582 79.230455 106.966276 166.325188 180.787120 156.802140 144.131851 149.865232 132.308387 119.299528 117.639157 108.559574 107.505381 109.264073 102.769624 101.405411 266.943989 279.112278 274.396941 277.019291 286.154851 286.833608 274.115358 271.624860 274.798703 276.797303 285.575163 297.321368 297.143841 288.018903 282.988603 280.242379 277.179394 270.641583 265.023772 263.284938 261.446513 258.761460 255.806272 252.010698 250.420171 242.404225 236.274714 244.570466 255.605779 253.051911 250.714250 256.699056 263.539034 267.522653 269.934218 267.152431 260.824680 252.664455 230.251033 235.734707 277.226283 332.300527 353.371714 342.147077 330.954298 321.181695 334.136035 353.851949 6.426429 35.127196 44.286577 31.053421 2.704971 349.411783 335.998463 313.556873 311.897788 324.764643 350.442532 7.442778 31.887594 62.599310 57.390049 45.522324 237.945100 225.395137 209.927364 206.333520 216.288066 237.864499 256.260259 253.244798 236.498081 225.416115 235.465338 238.796478 191.216261 171.841280 160.512205 105.692590 69.489667 61.624291 61.585454 61.886054 71.955989 85.384028 89.707620 81.291338 60.456137 38.870224 32.550655 17.181837 350.451620 337.374036 327.658695 314.578508 311.535262 319.361219 340.800842 1.181830 188.191614 174.478475 145.706815 119.663687 106.595286 102.251180 113.651359 148.943274 170.823260 157.545506 143.865269 134.908180 127.602942 119.241947 111.642786 109.084444 89.772827 16.264264 338.564840 327.827314 322.507070 320.155964 320.074674 335.749938 3.592575 22.162869 47.470439 77.893376 93.635434 99.644448
102.706506 91.108377 80.656532 41.317674 319.317095 333.439822 18.097332 23.204792 34.770895 45.083432 44.724330 58.091235 65.759468 50.957922 23.059052 355.919645 9.535168 26.402647 33.940731 31.792751 39.489640 54.358397 60.306139 55.708168 48.202793 45.076178 48.650337 61.496835 70.532560 68.532084 69.861011 74.440519 93.610005 148.183508 158.281852 142.812968 151.617009 159.553354 144.181650 135.346259 126.141371 115.528121 108.030436 103.415680 100.330578 280.368286 268.044743 260.813651 267.608368 281.849877 285.968822 280.184851 278.475043 275.771454 271.302725 272.248385 273.518302 274.728646 280.621738 287.201403 285.286739 278.158601 271.493721 264.446273 258.758683 254.530055 249.365029 243.099081 241.396763 238.578948 235.734435 244.926454 259.951236 266.094257 258.390839 256.097145 259.953900 256.838575 257.049936 257.570919 255.070826 250.242274 235.514028 228.250658 252.835845 261.741634 265.243342 291.658617 313.201073 290.413954 284.292308 312.021979 17.610257 24.365334 25.604709 33.042261 17.861254 3.234752 0.124340 348.404932 318.130894 317.706859 330.513414 7.478076 44.623472 81.822402 94.361145 89.152804 76.399457 123.975385 207.000667 211.006094 217.872423 234.762906 250.369988 251.935892 246.874069 216.928430 214.844519 226.463072 203.956815 169.536654 188.425270 208.348616 164.212681 44.488992 49.710269 56.119834 60.675297 73.775898 87.207547 86.298053 81.829092 64.644179 23.936802 16.550827 7.793620 353.744765 345.764389 335.338539 321.403440 314.740157 307.998104 330.179927 114.692083 142.387364 161.270073 157.992628 141.399535 127.719414 115.930608 104.673801 109.661445 144.017695 143.359296 135.802782 132.180752 123.488194 114.471565 101.150270 80.223538 0.434215 342.368775 338.286283 330.576345 324.718346 322.757169 322.786594 331.428887 16.347375 72.555352 94.300707 104.625405 109.137191 107.537331
106.260961 93.286379 76.588316 13.538425 329.356556 312.680259 1.973686 5.538783 23.648200 33.500820 39.303801 52.529495 50.665607 32.850796 17.522898 346.636327 5.520078 35.141823 34.478552 34.575379 52.463030 62.140549 63.544168 63.787334 58.838121 63.100891 72.034028 82.667506 84.758566 83.288865 83.438885 82.590946 80.632401 89.173611 115.136995 115.826090 96.457361 120.475480 139.710835 138.847783 132.326987 128.894237 118.449612 108.447707 102.555799 276.129672 268.240762 256.510684 258.062146 263.910368 266.131380 275.607354 277.758634 270.728880 264.384170 257.628271 248.496664 249.821524 259.518904 268.225340 272.874004 277.306039 275.274769 264.596209 253.787751 248.390098 248.364544 249.502569 246.868816 244.618472 254.319286 265.202536 270.129672 268.638944 266.913160 266.436749 267.129407 264.980519 264.147132 262.458091 258.459965 246.541935 231.624309 240.680124 249.145542 226.725032 210.165832 215.992886 217.206462 218.739285 249.252082 254.250261 25.828351 13.751845 3.432204 11.746303 9.632810 11.728480 13.203012 347.549816 314.444457 315.355769 15.945396 104.712518 132.393682 117.995523 111.550738 117.695225 111.423449 118.772193 188.248184 217.107548 229.999191 243.265264 244.318646 242.690288 235.647686 204.963601 196.200723 208.338536 193.733006 171.457625 204.443955 216.509045 233.513988 331.650410 60.945396 63.397756 63.492629 64.404617 70.527366 74.530627 65.045782 30.881616 340.424747 350.542340 356.611576 358.084743 356.333770 341.942112 328.710899 330.978512 348.916743 112.856787 125.727772 133.712491 146.496070 151.540212 147.123842 140.002319 138.611219 127.463516 111.110721 119.500415 132.457025 125.514235 119.732514 112.356289 89.267230 55.993742 356.492711 333.068484 335.185293 341.466628 338.254685 329.346490 326.250453 329.332443 356.911687 70.976862 97.447417 103.073626 107.580865 108.969479 103.946883
111.227554 94.732560 46.287713 355.360486 357.081901 345.505136 339.781872 352.364242 16.141193 32.999160 47.699154 56.463833 45.960118 33.402366 29.087640 354.879335 4.111441 45.938320 45.753188 58.694438 65.671038 62.573183 69.552646 81.938604 93.009572 100.638690 100.175747 95.219420 88.705739 78.586150 72.269680 69.392367 64.118131 55.038922 48.166825 41.243795 45.730943 65.828858 76.561331 81.196640 82.645120 83.105134 87.821620 99.075030 101.128606 275.894333 269.020895 257.274853 260.291856 259.831389 259.878149 265.622613 264.887582 261.429022 262.505228 270.217303 267.794375 263.629698 263.340483 262.737973 268.825030 273.665487 272.890828 265.698208 262.169882 268.038229 279.802063 291.900767 285.848058 274.032489 275.613000 275.887221 270.414904 261.124160 263.508939 267.513565 269.630785 274.395535 276.170047 276.649801 263.664686 237.697006 234.554794 243.719244 229.729848 204.228698 200.376435 202.625528 198.977987 203.896179 228.941162 229.487209 226.688753 293.409081 330.398597 349.632329 6.548992 22.214692 18.762487 347.964214 315.533535 298.122444 102.372155 110.637136 138.154392 134.665462 122.772545 127.095905 124.878706 123.861207 176.583092 219.668392 233.738877 239.876812 235.333960 232.354201 224.423067 206.793292 181.601280 192.819817 206.598834 194.042396 199.169470 234.194099 261.469234 276.827138 71.904410 61.368647 58.521826 52.143348 48.915629 46.735705 37.383962 13.659657 336.458036 329.834992 343.888796 355.901996 356.607637 345.521752 335.409761 342.285312 66.814516 109.493535 121.008027 128.789669 137.424227 140.179818 141.189084 139.675266 142.127121 137.976811 121.924288 111.718811 119.444788 118.257286 88.461498 45.535033 14.629160 6.528306 343.056342 320.215416 325.395256 339.949220 343.041677 334.157893 333.768606 344.840900 50.721659 92.998818 99.545377 102.793765 106.820309 109.570927 100.803333
98.863309 75.117018 350.242108 341.518094 0.651147 358.962455 348.521096 359.199371 18.829746 39.134629 55.610710 55.615879 44.296345 37.649653 41.869246 32.019695 34.596853 59.358051 63.145871 72.361235 62.253204 62.201108 71.373360 79.520790 85.844818 92.303695 89.736146 72.841734 55.769933 44.617973 44.562429 48.447588 47.042777 39.156061 40.445255 48.861984 69.340480 69.680123 60.187787 59.581468 61.056009 54.526492 66.016559 82.015639 87.596759 261.578745 258.088889 263.822768 267.415215 267.991513 267.328695 262.830136 260.939829 264.948630 270.806095 268.685991 261.406698 260.315420 261.777782 264.449738 266.859114 260.732870 255.787942 262.584101 274.033251 281.736970 286.627645 294.372640 306.134153 290.724227 275.748691 272.040785 268.916155 263.493972 263.912900 267.856239 268.799220 270.916388 271.161000 271.133727 249.230545 224.651719 234.412528 233.109642 210.151095 192.014360 193.845682 199.374799 199.881367 202.647735 219.741844 226.238984 229.052798 241.317187 278.636290 309.465669 359.010192 26.517850 23.582258 5.772416 335.323769 174.500509 113.859122 99.703754 111.051193 128.683287 125.997613 129.176911 127.200452 126.210388 167.702169 214.969719 232.655570 234.402843 230.849105 229.490394 223.401790 219.618830 206.270343 192.655322 204.085451 189.633549 207.589157 244.583290 246.463132 226.586247 156.609956 71.501562 56.749305 45.093402 41.645424 40.388214 35.599220 16.502898 348.954844 322.769130 329.109978 350.900639 353.576697 342.985268 338.965055 126.430441 123.468711 118.895461 119.519243 126.346125 132.247601 135.841434 135.805154 133.393534 135.679496 135.209473 122.847633 108.251598 87.549009 34.375079 0.768790 359.454622 2.595071 4.014403 346.110258 312.009328 309.510050 325.979949 337.394775 335.297983 338.984531 31.521886 97.818515 109.669996 108.620599 108.104574 104.276007 101.922526 79.552182
74.882714 14.103174 337.828465 339.883170 354.775421 2.813510 7.886343 14.458105 26.139806 50.819582 63.607712 57.699518 48.963831 47.199409 51.334068 46.862252 57.999147 71.477843 70.266400 77.147385 71.888098 81.357465 82.713870 79.095462 77.629591 74.913865 50.454454 36.147557 32.625027 37.469230 48.204099 55.400099 51.874639 49.696301 60.898341 77.701386 97.623950 102.486886 93.115545 90.234978 93.664184 79.100271 81.173164 78.175917 78.287528 227.024765 252.037640 266.244275 264.468636 255.623317 254.595086 253.872660 263.984124 275.868746 290.777029 286.091725 267.021768 261.238251 260.773956 259.037210 250.418743 248.418176 253.936119 262.773757 266.545213 267.370096 263.900255 258.643177 263.572977 265.692299 260.598538 262.997019 267.455633 269.370954 269.230174 275.759868 279.357849 276.024388 267.743465 253.358112 221.169043 221.517630 233.682574 222.301990 202.178021 190.255414 193.940754 203.448882 204.328494 204.579538 222.689882 232.202791 234.444726 242.791157 256.235879 256.989269 254.561484 30.534513 39.735579 47.092420 54.955338 117.217038 113.792554 95.816985 94.324538 110.787905 115.775246 122.703757 124.202748 120.145895 151.228819 212.329522 232.600316 233.464882 232.806873 232.190020 227.332454 228.148376 213.825547 170.506099 180.282062 193.864278 216.300994 228.995562 229.703615 229.309258 222.548579 93.322839 50.968767 43.891619 46.207672 49.563502 44.819100 25.208185 0.601928 330.157038 308.172390 334.399771 358.864890 27.848499 113.998230 137.225651 141.683864 134.443116 127.377558 126.160915 126.214617 126.862307 131.466665 126.644742 123.356830 123.760056 101.334234 42.856348 4.196335 349.374094 346.157872 355.884570 10.261531 16.494702 2.240571 318.223092 304.329487 316.581044 334.635855 341.133242 8.183750 91.479603 106.307418 113.492212 116.012339 115.660017 103.775197 65.949425 18.262691
356.352516 343.231893 337.475009 346.737039 1.629928 11.820093 20.032058 27.582029 42.420994 60.087342 69.375523 67.315442 53.834388 57.523262 60.332386 56.012944 53.044764 74.632836 86.589254 96.029329 98.039092 95.660226 89.065794 78.861866 77.827467 55.275816 28.618066 41.322358 55.730298 69.535131 76.028625 75.447079 73.172589 79.363211 88.199371 93.460039 102.879002 118.096291 119.143116 111.231100 112.565735 100.622940 80.362789 69.385963 70.881688 102.540749 252.911458 256.463964 251.026136 236.341805 235.826250 247.518968 267.654505 273.673444 287.317471 310.015951 323.001404 299.170027 276.936100 260.922946 251.269880 260.868748 267.293580 269.857427 264.921233 256.763123 252.615235 250.260870 251.015036 259.058207 258.905606 258.779833 257.775771 258.864061 262.376908 266.519723 270.844684 264.258578 252.045996 232.792531 212.476047 229.432514 232.479810 213.730360 200.120188 194.344529 196.506253 205.819776 211.395471 218.449590 235.014601 241.039117 242.000554 251.432115 253.665283 246.639989 218.109854 191.607688 132.733093 132.794577 126.214943 117.161731 104.732134 102.515775 103.886019 107.388330 107.023044 109.906883 117.166195 115.309767 136.764376 210.235446 233.238389 234.161403 234.864332 232.030836 229.345801 226.722941 209.422452 167.331443 171.041987 197.873007 216.963011 232.995191 244.141344 251.958299 263.725502 4.327018 46.995220 57.364864 64.297657 59.772006 39.229979 26.587905 12.362801 346.386622 313.459538 320.871919 17.332779 70.920495 97.822671 108.731015 127.068974 133.966686 132.513067 126.119820 120.382918 111.986013 106.846913 100.760215 85.413084 44.767658 353.329882 347.528454 349.052510 346.717397 345.686564 358.693065 21.036152 31.351253 9.795397 326.541911 310.720671 312.962950 331.480305 11.714096 88.063574 106.585328 106.718497 106.609376 108.282309 107.437136 74.603550 356.973965 347.278109
333.290639 336.928674 341.034514 2.085435 24.037617 30.810067 30.800608 41.480183 53.871431 61.779462 66.583659 74.031256 58.046512 58.776177 56.988754 55.087471 54.706183 72.601354 98.757830 107.515183 115.700176 104.881467 89.553097 81.994770 69.248061 33.244378 49.078173 77.326517 89.515582 101.176525 105.462815 102.289483 103.718626 108.530431 107.125753 101.971444 102.629735 112.757574 115.061546 112.131998 109.022516 89.663135 64.144057 65.967257 69.862128 74.069259 249.883747 245.802974 245.186668 232.989581 240.692890 261.714955 272.117404 271.036580 270.889728 283.511542 317.870578 332.181427 318.268887 297.164611 274.909281 266.393457 269.565590 272.631284 276.373114 273.222052 275.580775 279.173972 285.741951 295.737475 276.847570 260.381309 253.707871 254.685482 256.555735 253.786572 247.806115 238.345397 236.743712 225.640583 219.880113 233.708566 222.094544 202.302512 195.061587 197.434641 202.194910 212.484868 224.493785 239.198884 252.893013 254.761016 257.650277 265.437704 263.829558 251.114434 194.284706 184.385485 166.101713 160.133914 168.247638 153.030940 124.645891 110.453923 109.191348 104.600655 102.028760 98.720671 99.590961 105.015468 122.488829 202.661527 226.860707 230.273561 233.383324 231.942198 232.529927 228.018688 210.109818 171.339143 166.708343 201.406318 231.498255 252.890923 259.864085 265.379707 268.835055 306.441496 47.446042 66.251676 81.518674 68.837408 22.467736 26.504490 22.009409 0.462098 332.491125 323.576342 36.412560 63.744355 63.498119 62.165946 77.808049 101.789776 120.480745 118.266028 110.441488 93.223924 57.377253 33.409458 6.367222 344.546311 339.210966 348.681984 353.736977 342.154387 343.620607 3.796746 33.022230 38.079948 3.602640 328.741124 317.406454 317.397029 339.920005 72.826610 96.359352 103.713815 105.474952 103.496580 98.872804 73.991694 358.315954 342.408496 341.311241
328.762881 336.553340 350.741324 20.146065 40.297982 42.824563 40.508251 48.164509 52.922635 62.018394 65.089429 64.443670 64.231565 55.088090 56.702729 58.566277 67.598709 77.069953 89.965971 100.454475 116.137291 117.104095 91.798268 75.063936 42.864125 37.250665 71.495583 84.121123 87.432363 91.598614 98.614746 103.995689 110.840569 118.057864 115.038408 106.667678 99.737870 100.099396 103.088675 102.010537 89.099602 92.894513 76.973599 69.867154 70.022784 72.436433 253.578626 249.446416 255.407602 254.906739 275.425822 280.794326 275.299452 272.620315 267.641826 271.586116 281.710129 307.305743 323.604410 325.097826 311.918150 284.342706 278.381913 274.862546 276.659114 279.595032 282.016800 287.779957 292.019612 312.780344 320.731450 283.761906 263.102673 256.945668 253.736649 249.515375 241.647100 241.333031 241.726863 225.978495 226.790605 224.744009 205.131073 192.661608 190.489049 200.804669 219.748762 242.179377 261.961584 272.722504 277.004224 278.231078 278.871751 275.347494 268.545601 251.472022 139.775926 160.236717 174.204558 177.530792 176.681841 171.108020 158.522977 129.631144 103.159728 91.284051 91.403263 88.181153 83.740419 91.556784 102.884420 175.485476 217.026169 227.285316 232.149652 237.346242 240.845918 229.359078 202.856530 176.585419 167.452698 209.080121 242.168929 253.031789 261.321411 265.596784 241.538090 224.103893 130.553899 98.127755 93.719619 94.117017 295.396885 11.748996 11.442781 1.265773 353.118500 349.493269 39.525627 51.885366 45.881732 55.865608 68.522687 81.133234 95.103470 93.378169 79.758272 30.341155 6.025638 352.600932 346.295677 341.523451 338.553840 352.576028 1.799586 341.703853 339.238382 16.748227 48.724563 37.563624 358.213086 329.890676 322.555771 329.259026 38.079044 92.520108 96.631520 102.546498 103.643418 102.230904 84.958063 13.682491 339.188290 338.212881 341.230383
332.987720 340.305432 6.467789 39.319217 49.430090 48.797090 42.364233 42.885644 51.018490 58.382945 66.031789 71.775127 107.499272 73.839374 63.490855 61.566308 75.660841 85.888559 87.296721 92.927719 104.630129 112.340474 89.981434 66.118510 43.119644 71.628546 85.940942 87.772410 84.587395 77.601415 77.561193 82.174657 87.888706 94.487359 97.436426 93.504275 90.777960 92.344616 98.099837 95.347966 85.039589 96.129892 98.223190 74.946489 68.559921 71.141103 25.618560 256.220320 260.754433 281.954977 295.470719 288.611574 275.706797 271.743657 268.906024 269.628368 267.339634 273.551324 288.607353 302.179159 313.786776 306.679650 292.840769 279.596782 270.378330 269.640607 269.930452 272.719128 274.573620 285.277582 321.923670 328.067375 296.570138 270.540950 262.355948 261.469440 261.053692 261.516728 246.567094 220.883029 219.470369 205.457097 191.067674 191.136360 206.745349 242.019420 267.642656 280.182125 290.587982 291.095608 285.295544 282.957239 281.364238 272.962393 259.586241 230.869042 125.822535 135.413308 162.519283 177.851813 179.704053 177.542177 174.408873 163.104701 98.179238 83.603415 82.118023 80.983128 77.810610 86.289608 90.440389 134.591255 211.504627 228.440900 233.116952 238.604477 239.181570 212.068062 184.791241 180.940781 184.080476 218.340306 240.506770 244.966335 255.656945 250.828391 212.156161 200.309553 170.537678 128.389323 102.084483 92.166473 216.615610 249.074758 308.886203 342.830717 4.396374 12.523337 40.379864 52.892532 70.268363 88.331617 86.223850 85.240336 82.355210 68.575794 26.171465 354.759074 340.617945 338.565278 341.804145 344.984182 343.339463 351.156046 0.978592 349.593365 353.697108 42.225767 56.541912 31.126842 349.087125 325.720361 324.763310 354.096379 92.113317 104.805884 106.624805 110.189730 106.718716 93.144775 27.955022 341.804060 334.792991 339.122176 342.018105
341.826541 354.715917 38.808640 58.140497 56.994389 51.342604 45.392431 53.323726 58.942965 61.773251 80.191912 96.176448 128.170007 161.456639 97.282466 76.905945 81.729032 93.805234 100.771775 96.312808 97.994429 95.473459 89.263526 70.818463 77.871515 103.096282 100.645610 97.952690 92.725258 80.413036 74.936884 73.757703 72.955563 73.329811 75.332175 72.412565 71.108758 77.397642 92.240081 97.087964 93.819554 97.477096 97.363840 85.901945 69.022647 69.574861 66.713935 261.180114 261.497004 284.389027 299.199210 295.186825 276.134548 270.703844 268.290327 267.768685 266.951625 267.362600 265.917711 273.834465 281.623780 282.890199 278.780837 274.911207 268.174566 268.569212 268.549288 267.048600 266.634602 265.463436 280.408781 316.272510 329.850945 309.357455 284.686792 279.833354 282.445715 280.552450 232.933655 201.236978 204.086913 194.093222 193.734998 225.742055 266.769306 283.250800 287.634247 288.005292 285.663581 278.467418 268.647798 260.473554 257.340465 253.356316 239.443274 189.111530 135.065782 133.172716 150.884839 173.137637 184.419584 185.659570 190.163346 204.052165 157.093078 98.658813 90.773132 80.846361 80.490680 86.675072 85.699928 99.500299 200.737889 225.921260 232.730509 236.274765 228.963246 189.722663 170.707205 180.926332 198.918860 224.461288 234.434820 240.829261 246.361092 221.636098 185.430848 186.554113 183.731023 164.472767 130.954753 100.821537 245.787240 264.900883 271.005086 268.446299 311.503121 357.804844 45.457763 75.892814 98.977833 108.967142 103.543536 90.404401 73.459002 55.276899 356.196570 318.825555 312.537314 321.713345 339.365345 350.523339 349.210570 346.300498 351.905122 357.084538 17.068436 42.671402 39.660628 18.280736 348.141583 328.123248 336.672720 77.189148 106.899652 112.920502 111.494239 109.021575 95.852548 42.814678 338.766876 330.081665 333.704509 348.494064 6.966878
6.024820 40.739826 69.787167 64.815520 60.221222 56.779959 69.438444 76.218788 69.240694 77.494145 90.599486 104.024178 129.129177 175.038083 167.720715 121.807067 91.654103 91.171312 104.060990 99.398173 88.310221 84.136739 70.995237 64.785815 102.019821 113.102539 113.364094 111.386965 105.400673 93.357441 83.168803 76.703828 70.914510 66.785110 62.773369 61.192992 61.279281 66.338876 76.409763 86.399619 95.386581 97.366354 90.225929 101.679327 81.859688 75.427455 79.762827 262.858963 268.686107 284.941606 291.803522 300.187709 281.639552 271.567257 269.843455 268.732696 266.071639 262.521935 259.272153 255.264275 250.243393 250.383635 261.621735 269.930660 268.181272 269.978295 268.816305 267.729136 264.792269 261.494700 268.697134 283.433308 308.742964 325.914764 299.148698 279.314646 276.182658 270.254516 156.957118 170.566027 201.067000 219.089686 255.702001 281.748188 289.701036 291.613964 287.128138 277.703721 257.999597 245.972713 245.632710 245.683093 244.353663 236.371296 216.431511 175.313792 146.912978 138.952144 147.311983 168.954674 187.144164 198.446831 209.886887 216.596299 186.538473 131.045289 114.760589 97.604693 98.341654 97.406799 91.135527 91.067500 155.326155 221.608308 232.831371 234.377010 219.273188 180.335175 169.994641 189.833294 216.872260 226.987535 228.851601 238.831025 233.079207 198.070696 172.965139 180.603797 191.282615 186.708940 171.713138 176.174454 273.101664 285.983660 285.423890 274.815178 298.727783 328.112312 59.208366 84.569042 92.945184 102.662629 101.408538 83.354288 64.540185 48.302068 354.493508 300.967674 290.669995 296.448079 320.806727 354.105610 350.322521 342.139625 338.621645 349.650313 21.390478 35.852498 30.432606 14.794641 356.082648 348.345508 22.190970 83.467696 101.636156 106.904435 104.424831 95.365085 58.804017 351.968476 325.146370 324.549481 340.047794 24.522643 68.879253
61.914651 83.219753 74.474654 64.942385 71.486600 73.582498 87.015259 98.604124 102.960791 103.683019 98.147720 99.417173 117.301350 168.020464 187.908593 174.677249 109.259172 85.815968 91.948270 97.131690 80.697077 77.721115 54.300734 78.715754 101.510346 109.914617 112.481622 113.401428 114.022217 103.344354 90.495178 80.485080 65.848537 53.314587 50.305014 57.263670 66.703280 71.251550 71.787512 72.978556 77.212828 82.283227 86.350124 98.996625 106.308792 88.466323 85.710527 268.839878 275.602051 286.506982 287.742586 295.251420 290.294076 274.714755 277.371143 282.956036 279.977466 277.854859 280.364380 273.809429 268.041441 267.678181 271.187717 271.853877 268.418932 268.525961 268.004680 265.708530 263.422189 264.186960 265.504226 263.619859 263.933879 278.799448 278.099676 255.215092 245.175356 214.723837 146.620220 165.253975 237.864790 261.677549 275.434095 280.703611 278.655859 274.047163 262.945781 241.486266 228.319768 235.865655 245.212143 252.589871 249.382074 235.097711 199.479065 166.112762 152.393923 144.256580 146.997616 166.486030 193.547410 215.992910 222.636381 211.581198 188.339433 163.197796 144.923686 126.773278 116.147494 112.440479 105.897970 100.027336 121.865545 220.093476 235.231949 234.022974 213.410687 175.630662 173.490519 207.838840 228.001854 219.571293 224.223272 232.157332 216.758997 187.835691 172.796602 179.422570 195.107545 199.964327 203.536996 226.471893 250.718665 260.858586 269.507647 282.865854 307.763336 338.168479 72.132840 84.522469 81.518984 83.195876 72.390418 58.408221 54.337921 43.713724 355.119624 298.259034 278.081095 274.676866 286.298661 324.029994 338.030275 341.987413 337.404501 336.722920 27.383507 43.016758 28.661291 10.289165 1.909152 14.824091 64.054738 83.354864 90.745230 89.967284 84.614100 73.543806 22.875889 331.746964 317.499603 318.443526 354.157641 65.170970 80.906264
104.972628 99.517949 87.463980 95.567200 99.661533 102.383190 107.302032 122.607287 135.433380 129.331610 117.665608 105.612044 108.117804 149.337848 196.360716 202.568199 156.806797 92.988783 79.455508 83.624620 84.233246 76.543450 117.094228 107.640017 103.264754 107.314516 108.169424 106.888501 113.273572 110.302685 96.758684 85.376190 66.593643 53.404579 55.295317 64.573282 74.836903 80.261099 74.389100 66.286737 57.938479 68.339777 79.243803 84.009227 96.980242 93.855907 90.640566 273.094058 273.214631 278.203099 288.259272 294.803355 298.144583 282.186191 276.540549 279.827147 280.483122 279.679906 274.265194 275.170578 275.673734 273.950363 268.542936 265.394634 267.095030 264.107090 264.049331 262.265627 264.268733 266.804431 255.433790 242.101908 234.247215 226.711486 221.369156 220.481890 219.558864 199.967965 163.411620 193.875454 251.734337 255.640827 255.681421 251.708924 244.423149 235.127583 221.236373 215.516930 231.642762 249.045662 257.794252 267.284915 265.979020 253.808740 165.375000 140.510878 143.056102 142.501287 146.343436 169.180644 207.446455 230.351332 228.095935 198.623683 181.504235 178.681259 170.186159 145.560620 123.322859 121.688121 120.949359 114.066054 123.276859 229.949021 238.219085 234.855591 205.636550 169.968001 182.441029 219.381545 222.975271 212.957425 219.214784 220.357891 206.206160 186.125030 175.425781 183.439648 204.431284 218.955163 230.592697 237.877232 243.806812 241.031108 244.574864 262.672400 290.473785 356.591598 82.070340 81.785701 75.448475 64.762136 52.286627 51.151462 52.363012 43.707209 11.968208 314.661181 277.478806 264.317698 272.677150 304.050961 327.491308 338.539573 342.913773 22.422089 83.680731 71.993736 17.561911 12.082635 52.040820 101.865126 107.042901 96.920230 89.328113 83.129235 76.730808 57.387108 353.860188 324.036542 314.755660 313.875975 78.132533 97.971570 97.776766
134.079604 130.129315 130.899886 131.272589 131.943713 129.436044 127.407103 132.657590 143.925556 142.441538 135.665600 124.214133 110.557973 129.833120 193.928874 211.092184 192.232150 129.498645 82.767891 78.910739 95.950116 95.738081 125.208177 128.101591 113.554934 111.710996 112.157560 112.282753 117.462520 121.717719 107.545675 96.063625 100.312070 94.400062 77.332019 74.549806 76.149329 75.851082 68.630442 55.058420 47.645472 53.529683 67.740359 86.455099 85.243254 90.008133 92.529194 266.561068 267.908738 269.637823 281.970111 291.065441 290.632580 282.724783 269.359739 256.263247 247.757297 242.132524 238.358272 245.572524 253.682949 262.702053 267.477105 266.636935 263.386540 258.400122 255.990621 256.981398 262.570365 258.536314 233.725464 222.577319 222.641804 218.338851 205.458778 206.230289 212.951763 202.208853 189.500481 251.125718 275.559218 267.661066 253.689423 242.218788 230.092520 219.405433 217.214381 232.350747 254.979816 264.123305 268.870135 274.893371 274.204685 273.301866 120.924573 110.828913 118.181553 127.159362 137.998022 173.374506 223.189597 237.666354 228.812941 182.873816 169.467705 183.138918 185.211085 160.079509 121.985525 119.969510 128.011034 129.570056 145.706383 238.005537 250.485619 241.689807 189.255309 162.857321 192.313882 225.402238 218.587498 218.306070 224.748664 215.589564 207.936568 194.690248 178.619646 192.018652 217.717667 232.381126 239.006688 244.182475 243.652413 231.799566 234.346067 249.589116 253.724411 183.520304 91.421781 84.166820 83.203569 73.567797 69.551917 63.797575 55.445261 41.504839 14.156109 341.155289 298.888273 265.072116 260.443965 274.367037 319.417054 9.390837 347.540307 18.878207 62.977783 67.118435 99.730643 138.142163 142.563052 138.791905 132.478408 118.526433 103.002090 91.827968 77.645575 32.027982 343.556522 326.016772 319.020055 354.372234 117.425507 115.824164 118.161802
148.870277 145.640801 144.099549 141.703635 140.585218 139.890941 137.726862 136.197822 141.210222 142.932305 140.923811 140.032210 123.890803 121.558070 182.705945 208.265456 200.206718 178.345249 128.801741 99.235358 116.601119 136.757684 138.368766 136.273229 123.865677 117.421614 118.447129 119.964936 124.117020 131.741019 122.370687 109.141873 108.772939 121.665441 109.338323 85.673651 74.106074 65.104439 60.791429 48.578674 44.485622 47.906425 64.161465 92.804362 88.968106 87.641434 88.590794 262.419753 261.429022 256.575164 258.985825 279.224564 276.220096 273.786693 271.419632 262.075137 244.260265 240.209718 249.668465 250.320370 253.534030 263.000598 272.654680 280.892557 275.024932 266.041114 256.162460 254.194319 254.192786 234.055755 212.057593 218.859282 228.073081 225.837951 214.618656 219.051015 225.381810 222.859063 247.121412 277.345202 289.088676 304.862391 291.639536 263.847398 240.375074 229.448280 238.890477 252.594206 262.073911 263.512750 265.089329 267.120418 270.198862 264.886216 106.165740 101.710419 106.390532 112.211163 124.658135 173.614407 232.843246 234.874363 217.197480 175.451414 162.325648 182.376785 195.986479 179.266354 121.364388 110.502959 124.488992 138.860733 185.276385 247.460137 267.939034 239.829404 163.432367 161.925494 204.299332 227.211388 225.505984 241.819842 242.774836 223.455853 224.088018 205.268667 175.487552 194.487980 226.231566 242.049650 248.329651 251.041817 237.941980 222.695784 233.082992 243.598517 221.499122 195.945396 137.704190 93.485660 92.792702 92.068320 85.127815 65.824969 52.473112 34.434067 10.100398 349.271670 325.137591 272.169919 253.829498 251.825771 263.907228 343.590469 358.468695 52.026913 76.081661 90.538217 112.912286 125.993772 137.086900 141.595575 141.122504 131.168155 113.426667 90.837070 59.468317 12.709388 338.382597 332.471996 351.381925 102.917270 115.565892 117.928903 121.707507
144.419184 145.658631 141.778240 137.373837 131.495385 130.470213 130.186774 125.114640 124.539044 126.488199 127.568592 134.283935 135.240707 124.947964 163.131744 200.910564 200.411696 190.080951 171.113009 130.330764 120.929894 140.643039 154.590699 151.196102 133.322965 121.428170 120.478916 121.010907 125.685488 136.748718 133.654694 123.946701 115.694898 114.245770 117.521015 98.659742 71.846739 60.891611 59.579770 47.054973 37.265501 45.616275 60.299955 72.574218 77.811752 78.145747 78.307315 259.681245 250.103602 243.365799 244.187590 261.186313 258.584372 263.030314 265.940654 264.523360 262.205939 261.560618 257.660420 252.679861 256.059163 262.310730 268.960126 276.753933 283.605926 275.013114 257.393670 251.528286 245.627550 223.286597 223.905654 247.405152 255.530832 258.953272 275.549659 298.224475 286.750498 286.435797 295.767260 292.949337 284.376274 298.872016 323.553643 323.799586 302.339456 268.510762 256.021787 255.085277 255.641006 255.362549 257.544156 259.929806 264.033373 250.437445 97.192013 94.657070 98.934474 101.528118 113.846742 172.459585 219.689126 218.595647 202.596876 176.409714 167.399731 185.715654 206.033342 200.361282 121.994645 99.407382 108.820480 135.556445 216.808791 246.344311 248.798424 183.196124 137.491217 156.633548 210.542538 228.786001 240.307577 255.102394 248.936552 239.007658 226.277329 186.026048 176.377971 202.968071 236.332562 249.468413 251.649302 240.247075 218.488218 214.846496 234.370737 233.466241 206.893685 210.636257 194.562674 93.321819 78.478254 66.771616 49.301302 41.909880 44.110810 34.118518 19.227557 1.714240 337.208912 283.399901 256.054971 249.370826 256.795252 290.006574 47.118023 75.379126 101.374062 122.191106 126.446361 126.579535 125.649488 124.616913 131.142590 133.387302 105.174666 59.503901 30.940049 352.648278 334.095471 343.196639 53.287270 99.407221 117.648621 122.032377 120.311281
102.361555 119.574706 122.464854 115.140214 100.885527 83.437176 68.969261 70.272537 71.638054 70.293996 71.368597 81.128183 104.402663 113.305155 136.094856 192.966011 198.243995 190.343620 185.147110 157.464772 118.286865 122.616202 153.582175 169.583883 146.965800 126.714126 121.196041 118.786618 121.161066 131.585338 131.777039 125.049943 124.129970 115.486069 108.975627 103.265874 79.174049 68.513486 63.664276 46.550756 38.261344 52.253375 55.866457 56.473355 62.732812 69.368688 68.077310 99.601983 238.557690 239.072839 239.325194 243.942406 240.124367 254.993762 265.052036 276.869992 299.919593 297.944790 282.258948 276.549293 269.579422 265.898327 265.671278 264.995876 265.262597 251.184449 256.045071 264.081278 260.166834 258.253009 277.023599 287.832960 285.534838 284.171256 297.751427 317.318490 309.130643 301.121410 305.784154 309.206728 300.195781 294.133849 314.500757 341.724604 347.861827 333.808654 289.075392 260.916431 252.390423 255.208951 260.007220 261.786674 264.930247 270.915792 78.339957 87.576838 89.180741 92.163210 97.990388 139.620924 196.881635 203.680396 194.484734 176.755338 171.392631 193.970594 220.522634 228.279901 120.137103 89.806859 86.259612 101.660867 222.164080 232.291282 222.128950 176.199222 134.951622 152.661720 210.518112 231.823923 245.557573 249.415803 235.625956 215.011210 189.058153 167.241912 179.249513 219.174595 245.124508 251.355953 243.098346 224.321220 214.478278 223.891188 230.488381 213.322466 201.477101 218.103652 218.076819 122.507901 65.404384 41.790873 35.776078 43.130197 50.566005 48.178888 39.703694 31.809999 344.443724 286.398796 259.498381 253.948228 258.650626 264.451865 88.597118 88.065225 108.097832 125.665865 130.290471 128.095527 115.900807 99.568851 97.603682 85.283438 26.700635 24.107905 2.774421 340.570911 339.253420 22.523199 86.406308 101.919264 114.542317 119.815921 115.894540
67.276843 70.079061 61.410184 47.634286 37.806908 27.943204 29.987060 39.019460 38.744232 42.251268 48.688291 57.065838 67.596252 79.350780 86.398722 146.753295 182.170502 184.715362 192.023785 184.689544 131.407593 107.624228 125.924468 167.226262 162.398286 137.774718 124.565629 119.146010 117.140359 122.577717 121.974427 109.809828 110.254154 117.036201 107.830528 100.477165 96.784051 87.711861 75.828405 64.964926 62.999957 62.043039 60.040480 59.875334 64.582677 69.088284 65.762610 66.988617 233.467936 235.410766 236.667078 236.254513 238.855764 259.583484 269.812847 285.429936 306.379430 316.388922 318.985331 316.657205 301.281114 281.525816 266.903633 256.302867 244.312696 247.735865 272.325064 283.455818 286.426251 294.011643 296.047962 298.985604 301.504381 294.885399 296.376190 318.506651 310.825303 281.060544 278.999416 283.147361 289.518918 286.862503 298.402734 331.318164 348.723360 352.410913 343.320253 296.279946 265.182472 263.564795 267.293804 265.334930 269.963290 287.129767 69.796050 83.901150 85.695447 88.168760 85.734069 95.244736 160.802895 194.857864 192.546035 179.517201 177.510447 209.467715 236.705085 248.220139 151.204171 85.432905 74.715557 70.572571 134.274776 215.927942 212.956129 178.026302 143.456233 158.168201 211.414546 235.398253 242.632653 236.751587 214.838367 191.795312 182.455491 177.735100 192.601542 231.509860 247.746209 245.603431 233.431728 224.772957 227.264846 232.409914 216.185237 200.192271 204.971086 227.927064 229.136036 188.504579 64.358994 31.756449 44.457002 55.370059 61.451896 64.779221 57.644091 65.760254 350.107114 276.304741 256.650478 256.957458 257.468072 263.809810 134.667854 99.543224 102.863046 114.212854 121.329753 117.747348 94.237755 86.397911 65.439823 20.099369 5.170835 0.353035 343.520471 340.055700 8.688594 83.865143 103.565790 108.516271 111.300469 109.287722 100.629405
40.754842 32.814817 24.096471 17.685395 14.720528 19.356763 33.773280 43.670122 48.296458 55.989734 61.558915 67.843930 70.772281 74.376104 80.071259 96.691439 135.253284 160.483947 187.125647 195.427687 169.971050 123.260099 113.720995 147.396072 169.404483 153.989380 136.579159 127.719530 119.604784 119.354946 123.079997 102.993048 92.202937 103.484337 108.490421 105.561636 107.883477 102.126956 91.332940 86.086694 77.513354 72.974418 73.381068 72.070603 71.961729 71.510458 65.788845 59.443943 50.106485 236.303814 238.534759 237.084196 247.187821 262.218781 263.820739 269.468843 276.887194 286.038404 292.100330 307.569470 321.273508 314.273705 296.236538 277.529977 266.292338 273.677191 275.297157 278.762188 283.018021 290.180348 291.576260 291.823722 298.554729 304.138171 302.102016 319.461651 339.253592 285.763231 260.294337 253.462170 254.573101 262.496160 274.460984 303.197202 339.733910 355.829472 357.846644 342.104331 302.728076 282.047264 278.787918 273.768355 275.520188 286.145721 73.740674 83.580876 85.331910 85.313188 81.297228 80.561419 88.358109 149.598812 186.439016 187.414366 196.435980 231.088276 241.882367 244.405024 202.178507 94.888961 78.162858 67.125944 73.680499 174.584475 196.395291 168.301808 149.505725 167.011019 219.309961 234.413670 233.417707 221.549400 201.388334 187.922622 185.870534 191.129001 211.297633 238.365529 241.219316 236.923954 234.862985 235.469586 241.284652 237.199866 197.121082 195.558103 227.541567 250.293463 241.759447 213.028865 230.027083 70.915467 64.713734 69.185936 69.055187 68.577828 60.317405 68.786711 20.353229 282.762899 263.137017 259.020092 253.169686 246.735959 157.534244 88.576622 83.960094 85.895480 79.657726 66.297354 71.835817 64.005747 20.305277 352.455278 352.726176 354.366580 351.225674 8.618068 88.961729 107.399314 112.212447 111.028692 107.146561 95.108752 81.657768
25.307040 27.569767 27.700066 19.679344 20.025731 38.926719 62.220201 74.892246 80.672046 80.393089 82.451801 83.406077 79.633903 81.413067 91.033983 101.667719 115.849468 127.494493 147.429171 184.776582 184.019397 156.576585 132.858447 135.102980 166.342000 166.595069 150.255929 144.432122 134.938682 132.932981 142.385613 129.346815 100.047510 99.458066 104.809007 106.784222 112.703302 108.542949 95.330109 84.010552 78.609221 92.573684 92.009889 93.214560 88.880486 81.100912 74.079496 63.581702 53.848662 252.656267 243.189046 246.991558 256.448947 260.601880 261.628154 259.790570 257.565617 270.754085 275.782773 280.549988 293.937726 307.852092 313.598105 313.317362 301.755612 281.590896 268.435692 266.387948 266.744621 271.083857 276.676855 279.845590 283.109839 294.298258 301.505039 314.245294 352.401662 341.282912 286.849227 271.270923 261.140953 259.193579 262.160702 272.735392 307.708292 344.040607 352.474586 349.347476 328.328360 301.283357 288.069526 282.871533 278.714857 283.917925 72.989424 83.783820 82.082748 76.578425 73.521769 69.912427 66.132608 77.966002 124.392014 182.826459 219.107691 238.172065 240.489555 238.531448 215.589335 122.124998 99.216369 86.040912 88.115175 122.680555 165.562740 154.381545 149.233711 179.770186 228.280567 232.367417 227.654878 215.506626 203.182562 197.691622 192.126182 203.251039 242.398126 249.217937 242.949149 238.672096 238.311412 241.220194 246.718446 238.407031 189.259338 218.140833 258.991694 262.844935 241.718427 211.172636 210.316631 193.105965 95.551301 72.710653 67.233662 65.852966 60.652334 57.595098 19.530802 330.781677 302.899934 271.219057 251.651001 236.546451 233.819450 67.350873 69.191974 64.003862 54.002948 49.141729 44.600019 11.956294 350.469585 339.343078 343.909541 355.853277 23.644293 80.079198 107.526887 116.069609 114.609247 104.987321 92.933237 75.171402 68.007307
43.943824 50.152727 41.115257 28.486016 47.025410 73.283340 86.790159 96.284912 100.369507 97.123581 93.456891 92.120122 91.269662 94.116900 102.020676 110.459170 117.229863 126.334302 122.265073 145.038299 173.131431 163.089266 148.567449 144.788440 161.256570 168.990613 158.599700 157.544640 152.349625 146.528680 156.113186 161.346797 140.092342 120.040022 115.282991 111.014096 105.693481 97.296809 86.212706 79.289545 94.069064 111.878606 106.481522 102.696236 100.386883 90.812090 79.449548 65.002052 67.613796 83.536291 256.837943 262.988047 266.771418 271.984501 270.934088 268.099308 265.146223 271.385391 282.160429 281.521339 279.707658 284.639223 283.765152 281.351625 272.588621 264.429886 266.525997 261.720702 260.146419 262.608068 265.754283 268.640514 271.581638 274.829698 282.452932 292.076978 334.628364 353.233625 327.554370 312.058638 305.432943 285.000728 268.445769 261.887691 270.238997 308.918470 339.321819 347.187106 337.010098 313.343716 291.987903 285.191486 279.332456 284.670914 65.150989 75.601059 70.156658 59.674632 55.718861 55.024911 61.488577 69.468454 85.656976 141.930877 223.643999 232.208425 238.478990 237.880806 218.106877 146.999517 120.047636 111.823619 108.723789 118.821058 145.670536 146.070516 149.116515 211.372472 257.340061 263.976075 249.029169 229.030186 219.296813 219.335496 232.336050 279.412629 300.291139 300.770504 297.064599 270.720467 254.736664 253.967200 252.452919 237.767940 200.448637 247.143283 260.834878 249.994871 215.793714 196.103265 221.953233 235.877378 90.509849 56.363605 59.364243 62.085488 58.951424 40.098638 10.393993 340.921305 320.131165 299.522657 259.300295 241.524423 259.720590 339.232232 67.005758 57.955245 51.254033 44.678151 20.759541 353.001674 345.359829 342.272145 348.213540 17.149322 75.345758 92.787306 100.493924 107.023264 105.830645 90.234165 73.721243 65.557907 66.108839
77.173488 73.219399 52.148591 61.804469 89.378785 95.313279 99.518453 101.850724 106.317107 109.601767 113.052382 114.507146 111.978370 107.565081 107.266360 109.717253 106.564680 103.255995 101.658546 103.471012 126.653221 141.622244 132.482175 132.142014 152.211536 164.068583 154.915550 153.217957 155.569664 149.358525 147.723197 156.192150 155.803515 139.747669 124.199085 115.219920 103.005868 87.662694 75.233983 75.387731 81.905095 87.264328 83.890715 75.379501 69.710258 69.148042 63.476939 74.357754 92.439673 101.270211 274.320056 275.754477 274.220239 274.837763 271.275675 267.244825 258.044887 250.124853 261.523293 273.868684 269.932898 260.021326 236.175162 218.478203 226.522298 253.733995 263.489226 260.430620 257.424535 259.490695 263.177803 262.957658 262.182674 259.733745 261.366367 266.286652 288.619943 339.080656 339.287394 316.504139 317.390951 316.298953 297.246293 272.450013 265.423250 275.946343 304.433298 334.726897 339.813501 323.660604 296.585249 285.299457 280.248764 277.906626 59.707101 65.560366 61.536978 55.690269 56.030045 61.489101 68.459392 74.127286 80.666346 90.346633 206.807364 227.417125 236.175698 236.217851 216.397245 162.510655 126.041016 117.452614 117.286801 119.387173 136.109914 146.926466 162.692593 279.222644 296.778426 311.042804 317.918019 301.118819 292.876004 299.837727 302.705530 306.187051 310.904892 321.689683 336.543753 331.683948 296.815888 278.113816 263.095005 242.317805 233.032940 253.179993 245.636884 229.288233 224.506856 263.398104 296.649662 310.447444 341.889977 35.517169 56.341205 58.448461 56.025765 31.103545 18.894390 6.685977 323.167072 318.248616 291.158102 251.403731 259.391643 320.561500 49.421245 50.233826 43.943248 27.251251 1.666815 350.652765 350.758658 357.949075 32.563704 90.296440 108.653203 104.005597 100.556176 95.447053 84.999863 69.027182 61.718301 62.123848 62.342234
96.922899 77.884841 78.200249 100.904258 107.354983 108.138882 106.236646 105.297746 110.007050 114.490458 118.603814 119.714220 116.711653 105.181688 82.817253 71.244285 72.746611 75.128931 77.976558 81.012945 71.400761 60.021274 46.828971 57.191441 71.731914 94.399945 93.839832 80.790684 91.059191 82.702654 58.729672 68.952439 85.649682 78.852629 67.716300 67.528586 65.910064 63.902264 57.083686 60.723257 71.878520 71.831232 72.428919 68.594083 66.349700 68.396713 77.403939 100.473010 106.071377 100.221162 288.490067 285.815170 278.082205 266.791591 258.488687 249.932096 251.228841 256.253765 255.052528 250.198697 237.933048 221.825347 223.315064 236.027292 252.002631 260.329707 259.612460 259.455671 258.950975 262.348443 268.466978 266.859466 260.631243 256.053606 253.267364 257.818490 266.824816 290.264335 332.848408 320.991042 298.411860 298.641488 304.916754 291.445935 276.983506 272.804845 279.032168 305.456641 332.076282 330.188212 292.949951 274.582655 262.663426 239.351564 151.345069 86.502791 81.510068 84.553963 83.137492 85.063202 84.209124 86.259511 86.868668 88.070717 151.398816 224.311010 234.808745 232.784907 215.517424 178.246727 130.282550 110.048935 114.069078 120.501760 126.363910 150.995234 252.649005 293.745975 302.450214 315.148151 337.255431 338.894060 328.235674 325.374109 322.654683 314.497969 309.873534 310.826787 329.399372 345.802687 330.370946 306.283588 293.066938 281.399624 301.300127 275.810803 264.254874 271.296510 286.300982 300.566896 312.981363 314.986697 334.348910 29.143711 54.339317 54.095350 47.170059 19.081058 12.485257 9.269622 335.523916 327.619087 343.090349 272.741847 258.074212 282.585568 30.949473 45.541893 35.574976 19.762421 2.072683 357.647121 18.042374 73.107894 111.660436 120.570248 121.782860 114.518338 105.768520 92.474070 71.865263 62.336174 60.520375 57.936038 53.478552
108.083445 98.040593 110.312395 115.913074 115.692000 114.489141 107.614685 107.477775 111.248254 114.000298 114.205248 105.074761 89.466866 58.943708 41.558788 53.094480 58.991279 60.947591 56.517737 44.719446 27.239946 19.038677 28.922494 43.865578 39.847700 23.891197 14.699212 22.052546 27.010363 18.116196 22.126007 35.754448 34.287584 30.140238 37.505555 44.048785 38.331338 33.666048 49.973268 72.694123 87.676123 90.869912 100.612896 101.054454 93.888715 90.152433 101.804803 113.388671 115.303096 291.103921 296.721752 293.300551 283.659852 275.412591 271.516824 272.389152 280.657112 290.880799 286.629318 260.894561 248.999960 256.245971 272.994743 282.987989 278.897628 271.081609 267.243121 267.797757 270.536628 271.895489 276.557402 279.378913 272.870835 266.999458 267.356863 266.842726 258.122850 252.397990 270.507714 310.728680 283.549715 264.597916 267.795230 275.887638 272.001257 273.957815 282.126953 286.892673 289.024725 307.382333 269.017415 243.564857 224.126804 207.405369 182.153633 136.678550 111.008308 109.855730 107.373929 106.794284 106.516948 104.094227 101.092374 96.981618 120.729259 218.800623 231.027951 223.056985 209.979778 198.370722 158.097593 110.346550 111.343587 125.489874 136.113884 171.549851 280.929133 292.806843 300.078634 308.463647 325.678858 332.505453 329.480052 329.964001 331.137663 320.848044 310.112219 305.203721 312.169969 335.644735 341.254104 323.787705 316.062485 321.715551 335.407286 327.466698 310.442025 306.797130 305.136295 307.578001 320.045885 308.121836 293.403266 342.986220 47.016011 47.312908 32.183665 13.590613 11.814950 8.918127 348.912917 341.801707 6.891325 337.242236 268.496259 260.872106 6.063228 58.896955 46.615457 27.763435 13.700816 42.371442 90.233587 111.361942 125.465106 122.339557 119.827306 110.991352 98.554643 81.450471 63.205809 61.373892 54.893921 49.837558 45.572792
112.627976 119.838550 119.843083 117.352252 116.486386 112.228809 106.542631 107.954757 109.386748 105.991721 90.727702 55.031309 33.346625 28.686695 55.148349 63.400708 47.882343 36.289544 31.718331 26.248085 19.204169 21.294909 37.599886 42.637136 23.820219 11.778410 19.656403 32.673828 32.743688 24.348188 34.722660 44.703453 41.715446 37.577719 38.471315 36.348171 33.808097 46.111532 74.055773 91.753563 94.858129 96.431742 103.836381 110.723301 106.635840 104.288944 111.314859 113.850079 119.032846 291.465633 294.073122 294.861845 292.295360 285.087945 290.338776 292.707745 290.177838 288.120478 303.924501 310.229763 299.190493 295.522171 291.840389 290.832915 284.533283 274.931045 273.431474 275.339319 277.104821 275.413137 273.919489 277.591855 282.304348 281.038437 277.047740 257.909549 235.145908 233.867538 237.906218 250.825810 260.397287 251.473778 251.077405 259.940293 261.006644 266.171191 277.662202 273.277053 212.102122 204.061535 203.747628 203.761248 202.828078 200.153697 186.975488 160.651775 131.853648 115.111408 108.749295 109.092926 114.455502 114.728882 109.461938 101.650733 110.175839 201.589862 218.197684 210.706442 211.067589 217.181790 194.389726 131.971439 120.151031 128.679415 150.007393 267.583047 280.365458 281.230333 288.823888 301.303018 307.605320 316.994005 323.830196 330.817490 339.430852 335.659167 321.544483 312.901184 310.757738 327.895709 343.446922 328.316083 313.367229 328.861654 335.997250 323.809701 319.945191 316.777639 306.112503 306.485638 338.397764 5.235390 283.119109 291.550815 32.331602 39.019400 14.792728 9.050643 20.686986 24.630888 13.729518 0.418057 7.016158 1.049292 311.890346 271.473425 257.739516 88.105571 85.547945 67.776333 59.119701 76.921183 87.216786 95.442826 107.322222 103.385618 97.284710 90.167178 75.312724 58.964736 52.827051 53.624991 47.751580 41.384707 31.807021
119.049944 124.136777 123.236017 120.208567 117.499325 107.872395 100.830983 96.274112 88.481313 69.054000 30.852577 19.778244 30.797140 55.214874 70.158221 46.160402 27.377148 33.332871 38.612324 30.591627 22.302332 32.295426 45.571883 39.067568 17.990740 13.197437 34.946065 47.135266 47.923975 47.749597 57.120820 55.731976 49.854611 38.888273 37.163278 42.705391 57.090984 72.949624 85.430399 92.656507 94.588759 96.432826 99.133066 103.756552 109.491578 110.683462 112.409943 111.873802 292.828495 295.994447 288.538861 286.255469 292.568553 288.873246 292.925997 296.941064 297.507265 284.566299 281.771600 288.771979 293.687601 288.569814 288.691113 289.393646 284.587629 274.695219 271.697309 275.189870 272.796054 270.029591 265.104992 264.514906 268.312246 263.141059 239.368642 210.425187 215.144576 229.000375 235.882383 237.768777 241.909643 251.989457 252.691618 261.222124 266.899732 264.275491 259.115344 232.386043 173.821502 189.642417 185.542503 188.771317 203.431108 208.682789 189.488240 164.468355 138.235893 112.933458 97.038886 90.518330 92.200760 94.326539 90.008448 91.399521 97.804538 163.429322 194.404186 203.642793 219.117687 218.835131 190.570793 153.530381 134.280373 137.385944 213.015852 284.204456 276.807081 264.792831 263.605419 278.977292 289.353149 295.432231 308.200255 324.258052 341.843861 347.237699 334.195349 316.759265 314.171586 325.639385 348.369139 332.519983 303.800373 315.428565 320.602174 314.487070 316.052781 323.059960 309.536157 294.892369 332.115946 25.211193 317.148511 303.698982 70.083594 26.338810 349.837105 0.127088 30.021008 32.935004 22.633022 9.298216 0.829908 1.483347 349.699595 305.904351 174.805571 122.996148 118.796602 118.142665 94.942329 68.139253 74.242129 75.213936 75.573256 84.060193 79.536878 74.944393 60.100340 51.194849 56.561162 52.246706 31.495368 14.715474 7.368609
127.481233 125.341272 122.038711 117.186615 115.774474 106.522414 90.518343 70.011088 47.400650 28.097111 18.595577 36.596675 63.226692 72.215943 49.843652 26.971871 33.161036 43.750757 43.013029 37.202972 37.629033 44.261260 43.618667 37.860728 32.037013 45.160578 60.353174 62.521098 67.333388 72.554156 72.576000 61.407211 54.966362 49.502750 50.245700 56.124228 68.819852 81.704760 84.958885 84.829606 88.426380 95.616085 100.501485 101.770284 109.916188 111.525163 109.833090 110.373387 287.354025 291.693778 281.781481 276.909010 279.901606 287.518009 288.101937 288.270015 291.127947 279.194152 262.473389 260.113834 262.673783 262.642294 262.046690 264.302042 267.776565 273.976685 271.443183 268.814323 262.643698 260.356855 256.345909 251.059915 242.659638 225.756818 205.991202 204.348694 225.325821 241.695233 249.450608 251.960585 255.302898 268.608393 268.355078 269.003528 275.957001 265.624036 246.722024 223.558565 148.306400 164.447446 179.361083 190.239703 214.364592 221.542561 188.641899 167.107948 147.153315 121.649692 96.802016 79.275680 73.363236 71.135009 74.041527 82.209702 90.164544 121.556439 176.770084 209.298409 219.610109 206.756013 186.422145 164.764223 148.639324 164.847788 282.407653 290.171545 289.005373 265.362836 254.129358 260.096827 275.521851 281.651612 287.697276 301.921034 323.279198 347.878771 353.552294 311.809154 306.215444 321.246316 357.653335 343.856363 308.206851 307.316605 307.876106 304.221683 300.097906 308.100276 311.635151 272.372007 209.581413 218.605602 299.652086 297.267672 87.638625 334.499635 327.903285 -0.000000 33.094830 14.286923 18.151108 13.643888 0.069839 10.925661 34.339167 89.046780 145.222481 153.133480 159.674536 169.180155 173.126840 153.583916 105.521753 81.353733 77.771859 83.518693 79.689203 70.559965 55.931665 54.296724 52.787147 24.080090 358.462334 1.461899 8.005192
128.728839 121.687186 109.056615 90.846109 79.075400 67.115873 50.022615 34.454386 30.878032 33.693020 46.032738 73.073203 78.031331 55.369455 28.694198 35.118215 50.550118 52.696885 49.559374 48.531679 57.662267 68.043983 65.523753 76.462518 91.057944 110.506898 102.054110 89.571945 83.892679 83.297227 83.352497 76.550720 70.307040 69.523971 81.122775 62.462520 62.979872 72.489097 80.265795 81.980650 85.997773 91.742578 99.655320 107.049247 112.621947 112.182202 106.628880 91.564315 289.585896 284.152357 281.149105 280.875147 278.503271 283.029884 277.414983 265.319689 259.959816 275.070420 277.367512 279.411594 280.684661 279.073377 266.757180 264.628800 273.912107 281.252346 279.579164 272.294760 269.606650 263.524303 260.818323 249.754400 236.450949 226.252433 222.091716 241.348051 259.755616 266.314416 268.228121 272.820912 279.033644 290.248627 292.462434 281.404392 278.645609 267.024224 245.706498 225.238989 161.143852 141.217996 167.621072 192.669500 219.756090 221.029930 188.335447 170.581510 160.694633 147.331604 128.362904 103.689313 88.008190 86.285636 91.187524 91.637803 95.421812 109.108986 151.317027 205.125549 211.214952 201.377532 187.429505 170.942540 167.336231 263.539788 291.500226 300.278885 310.802025 302.163454 270.085819 259.259208 268.340572 272.322865 274.336031 283.564255 299.876646 340.047901 14.211647 317.311131 294.331600 312.741618 349.916293 340.480595 315.543501 310.959876 304.532747 289.166615 269.302178 262.686625 265.486012 214.177550 195.856086 238.176748 258.964785 263.891962 331.944806 312.994733 325.167277 42.457882 325.938171 324.702148 25.257813 24.110110 21.027229 61.209134 83.306845 93.869042 110.661490 137.103590 156.896245 171.449466 177.191034 176.382375 151.632418 110.038167 95.772715 87.189192 82.477166 60.653042 46.666815 45.555588 33.528629 359.077350 346.977651 12.821404 42.066941
113.503581 98.407410 68.848703 51.217654 37.560973 25.395765 23.453009 33.633283 48.262489 60.012752 73.422798 76.647209 57.931966 33.306301 37.422511 59.546361 68.614698 68.534636 67.398665 72.369708 81.997480 99.999529 116.816150 120.802497 129.463601 140.792166 143.536474 124.529828 100.897533 97.389023 105.314053 106.793344 96.592166 92.415588 116.365849 90.103797 62.334565 67.464216 74.193159 79.930828 89.151628 94.233930 96.854205 106.519527 113.819370 111.554679 108.547420 279.153133 289.606705 286.604626 283.537239 278.322250 273.817785 271.092622 259.074569 253.911202 261.534402 278.046623 285.821910 289.571525 300.237330 307.968610 306.178970 301.713773 298.856241 293.301539 291.715914 291.800547 291.242766 281.513254 276.170940 273.533652 265.022123 263.329541 269.531077 278.588946 278.087088 276.004007 272.369132 271.641642 282.335624 296.513337 304.477976 293.379689 277.859474 267.889692 243.778235 210.498635 165.908530 145.808940 158.788343 191.422096 218.388595 215.079039 187.582346 170.432734 168.754964 165.424314 152.861750 133.976322 112.126932 101.783961 103.011235 103.419553 102.806075 110.621480 135.775054 192.135166 217.644233 208.267702 195.524581 197.792348 268.301586 295.042114 297.748711 305.969086 313.580258 323.501545 307.154059 273.468995 268.009888 266.844090 265.700872 269.879922 278.070722 312.014104 33.956108 328.785880 293.070676 308.722986 343.487607 331.915019 310.151590 301.219872 298.049384 262.252228 238.644961 239.055903 231.972228 236.249044 265.718077 279.125663 279.281091 294.558787 323.687066 314.483091 332.427900 47.461262 4.284927 251.424276 123.908660 40.022082 59.369003 83.035897 83.348234 74.009377 69.657544 77.858221 85.749125 104.214447 165.834850 179.694125 160.425197 126.781127 105.071846 88.276497 73.184427 42.255919 37.402232 33.095276 17.178679 353.785349 354.874154 48.881432 72.157065
73.573720 52.006123 30.939085 18.365584 10.791515 17.650738 38.166173 58.132276 67.261439 70.987310 67.406199 52.213094 37.690767 37.889182 55.112892 70.951510 78.121607 80.220682 85.450566 95.541713 98.611804 111.737021 128.244138 127.377964 135.078155 149.858614 158.172791 149.930244 128.090054 120.913873 133.010920 141.438462 132.609696 124.044506 144.521858 176.791711 103.530493 77.723051 74.582897 78.002981 88.003132 95.287606 95.024001 96.226164 100.308360 103.371268 108.383393 265.978713 279.640763 289.258865 281.830842 267.666884 267.097874 265.666354 259.254614 256.077569 255.325869 258.668609 261.016877 267.218543 272.422834 277.815509 283.676441 286.325152 283.550897 280.904228 281.772874 280.917300 276.456022 271.398117 261.050886 259.670616 256.199847 253.964389 255.639914 255.563396 260.137618 261.317089 259.527563 255.832329 262.877323 278.620787 294.021399 293.567588 276.468404 261.112303 228.468229 185.434228 154.765809 149.286270 159.920738 188.885815 216.152433 215.696113 187.097222 166.211506 171.417892 173.580785 164.728004 149.472506 123.170818 100.398025 97.609604 101.352189 103.450986 108.171534 136.133000 249.478676 300.984236 331.965653 324.965925 313.245497 310.140163 304.648472 298.781094 305.069040 315.456365 317.899485 315.173570 291.200819 272.082912 266.931834 262.126409 261.166359 262.511283 264.225971 42.490265 299.384433 277.651137 282.713063 302.803264 307.275556 292.310104 255.842367 240.310551 219.897835 230.317405 240.965565 247.863189 256.110068 260.852920 296.900110 303.144071 315.095973 321.474933 313.155647 328.028737 26.353107 17.824990 37.954231 358.394372 9.070178 42.215494 55.813878 64.824103 63.202670 59.993850 55.701145 42.149548 36.878269 53.562243 99.251413 140.243813 123.344521 88.070259 70.030835 44.827803 28.269622 32.144366 24.327722 7.182243 0.756336 30.480007 82.074891 85.358044
43.160819 21.140789 359.675591 353.775235 7.233517 37.081756 58.888736 64.854591 63.383110 56.258351 45.654246 42.864953 45.256774 49.505538 64.373887 79.939151 85.356887 84.054762 88.895500 96.798596 101.367157 109.273049 123.045233 125.223350 127.897264 143.173376 160.820347 158.821362 145.004522 134.304134 142.518908 157.217242 152.650752 141.897312 155.324598 183.076587 168.329661 110.574899 81.467096 77.521077 80.701663 82.787509 86.297058 86.831515 84.381597 92.659185 96.757323 274.795859 276.650349 279.055904 275.940109 273.856497 276.578854 279.082377 287.738291 285.773304 272.110740 283.613009 289.951166 283.215294 276.291095 275.171670 276.016096 268.638114 274.603097 278.819843 282.910013 272.188191 260.555512 263.308264 258.540123 245.878497 239.885964 238.943096 237.646940 242.651532 249.153702 249.558001 247.840083 248.616939 252.733857 259.171335 272.370496 277.835403 269.564988 247.445785 204.970060 159.929464 140.927809 144.496904 160.072329 191.430003 218.873280 215.482997 182.226085 162.005668 169.264269 177.251155 175.093526 167.161337 146.399472 115.503008 101.244654 97.856660 102.458921 106.395355 145.164352 265.216834 289.722882 327.958753 344.932356 339.772218 324.909106 311.818980 301.214407 302.157973 315.808117 326.653897 314.615137 292.722407 285.171692 278.716710 273.543007 266.749171 256.765377 248.883854 3.881376 258.677812 246.281734 236.537676 204.399436 232.567184 235.406695 199.817574 205.251998 216.849136 237.820098 243.165123 244.388568 244.311550 263.750774 296.438491 307.248103 333.049034 348.804392 317.118721 326.263237 21.490321 349.929700 350.813158 354.044705 4.572057 10.728859 38.830202 58.796307 66.385875 71.166340 56.380374 38.184425 43.963672 55.037777 64.317920 80.187655 66.037511 44.340863 42.041278 27.497778 29.531337 37.180679 21.638323 357.020353 11.292509 61.075166 90.422586 100.410342
351.211083 345.398494 348.210981 5.210455 31.595948 53.677057 63.021245 60.352138 54.437102 49.340286 51.570472 56.871164 57.277172 60.380016 73.293371 84.257693 87.837529 90.579712 96.536411 98.572658 101.543334 100.858668 104.553411 108.956275 114.181770 123.554026 146.218117 154.282869 147.939272 138.341181 136.950829 155.408970 159.801940 147.423634 152.642130 176.056723 180.823043 159.156998 97.413406 85.433822 83.648773 84.156643 87.634061 89.029855 86.673720 90.312671 94.980772 277.481606 276.183324 269.631185 274.650821 281.476297 285.434690 284.700115 303.781158 324.398928 313.401196 303.974064 322.004949 321.758411 310.259251 306.576549 312.635600 307.222893 297.283682 293.704469 299.596178 303.128560 297.285179 304.040407 313.090255 307.991270 295.718749 291.791461 286.495988 282.860475 276.759118 264.915523 255.816430 254.296251 252.248500 253.392471 261.484567 265.131051 255.339601 222.903483 173.781455 146.243117 138.133801 143.243873 161.431829 191.409762 215.549181 205.319522 171.720072 160.036672 170.048799 184.953634 190.521022 175.132675 157.133595 144.494062 125.386007 109.391052 104.484942 109.112874 158.220007 261.657983 272.977764 295.442007 328.194309 340.368273 334.491514 323.838695 311.194336 305.799600 313.344948 336.283498 338.684600 303.234766 293.647849 288.825328 285.798047 276.404353 258.823686 248.893360 222.421931 158.980818 225.291647 212.334807 198.136702 217.845218 199.011266 177.604783 199.847798 223.928987 239.336422 240.292150 233.727716 242.620949 269.149219 294.355017 308.540678 340.990752 51.636649 265.749345 179.024254 313.103482 318.234287 330.702248 336.064771 353.224207 11.751145 50.388484 68.213104 77.985552 87.326253 72.872559 67.344934 71.106308 63.105044 64.672163 54.870430 25.889524 28.023035 30.648592 29.355694 35.208800 33.089848 6.709837 352.476180 29.179658 76.400842 90.563709 105.218868
337.422422 344.843730 6.218592 34.175698 57.610772 69.938851 71.921037 66.327363 68.966355 75.101969 78.201008 75.524043 74.764359 78.977861 84.442181 83.228385 83.227668 90.160391 96.992573 96.866682 98.174606 96.887319 94.872653 91.011109 89.324682 90.968365 102.541334 126.290640 138.557607 139.677968 128.307393 138.081934 154.265338 149.700213 150.139569 169.292064 178.017569 179.234865 129.543856 101.397556 96.607376 95.253741 95.969734 93.245151 91.258296 90.720621 98.234145 273.431639 268.178968 264.765439 273.646773 281.316138 285.061404 286.088721 297.916519 323.578912 337.906851 311.395579 313.351264 334.031194 330.627667 315.874677 310.671992 318.183895 306.205864 293.715719 294.468271 304.943250 304.624997 306.111641 321.748703 336.472467 332.509367 324.574639 325.035619 320.366377 316.524455 313.341732 296.080330 280.352455 267.568559 263.098928 262.574460 262.930840 243.533114 197.063966 154.943307 140.568861 137.296094 145.960720 164.872104 189.509041 206.313514 191.728982 160.571747 152.306454 173.609191 197.002558 204.372114 170.989800 149.463987 154.676761 147.884693 131.418863 113.483309 110.653068 185.689573 262.971376 266.251555 274.420095 293.980026 317.606114 324.884084 327.094034 319.702345 309.249056 308.619384 331.444286 343.608067 317.325543 298.590104 291.335076 286.508316 279.709714 267.171972 249.294479 215.929248 138.997473 195.874994 198.339010 198.601299 213.781847 192.569363 176.335740 204.149620 233.465360 245.176407 244.428569 247.313086 260.017437 270.188108 284.146120 298.913591 74.836587 110.250634 175.977185 192.478841 251.553279 301.116238 313.257215 329.391109 343.689642 25.903094 72.997064 90.292465 101.713688 111.210644 110.936864 103.535856 102.411929 82.091998 68.797363 47.948206 26.410664 22.337499 27.050597 34.566328 34.437410 18.303519 359.714840 7.279579 56.792714 84.981704 89.378948 93.495625
353.441087 10.624177 48.470897 68.365205 90.619434 101.406770 94.458543 96.879589 105.984171 115.640411 119.569767 115.907534 114.448528 113.697701 106.710888 95.009647 88.270086 90.275750 92.136127 89.931959 88.391728 92.992804 96.034665 93.419012 85.649007 82.585952 86.130557 93.099668 106.179072 114.843240 105.257672 104.032524 130.481752 144.353949 149.948317 161.004103 167.785169 177.760091 147.424758 106.511956 96.362030 91.814739 92.441416 92.085776 90.966313 89.263400 89.596244 264.389622 256.283166 256.417784 264.856436 274.327390 279.747037 287.777995 291.135578 306.482490 341.268822 335.813621 309.517564 326.766211 346.339264 339.140202 314.123545 313.057821 312.738338 295.478995 287.917381 295.252041 294.858547 291.205708 299.526807 322.739641 337.588134 329.638043 326.825773 328.127685 323.920922 327.794875 327.880066 317.326335 301.443220 284.112289 269.865654 259.848212 231.175480 159.050767 143.480178 138.525196 136.971914 145.372903 167.055201 187.865505 186.820228 181.939036 163.739128 144.982025 168.258571 205.555315 212.492637 173.945395 140.514374 148.491611 154.857026 147.135543 135.478150 125.437075 206.122098 260.222237 258.582345 258.035736 263.357753 281.868775 291.478112 304.813140 314.137548 306.417780 304.263322 319.107698 341.237476 332.439671 313.305789 304.564613 298.693253 299.219247 296.004120 269.584345 210.567484 158.198591 169.992020 185.031704 200.887348 211.942350 184.828962 175.491181 210.653177 235.838522 244.251317 253.137596 270.198466 274.996183 270.125603 264.706170 250.943064 133.278643 122.383757 155.890159 207.651947 260.339806 288.129429 289.054498 297.809852 306.846799 46.138498 84.103340 95.728142 106.165042 124.061732 139.973593 122.398559 112.218815 95.629995 67.192090 52.440680 29.566371 14.380402 25.978711 31.087684 17.394835 5.972884 10.261028 36.798877 74.011443 82.332586 78.191389 72.904209
36.187458 68.079231 69.384079 77.585990 89.410908 101.569326 107.082893 112.611451 115.288725 124.730249 136.763428 141.815604 141.788259 140.111558 133.097540 121.720729 112.638009 108.517235 104.770945 98.249592 92.044893 95.409757 102.237986 108.359886 106.286007 100.975444 98.440699 100.886542 94.327463 62.787736 62.930122 70.697108 87.803788 114.066702 141.619470 158.574165 161.395035 164.159499 154.233516 113.401981 92.128111 93.932714 95.054121 95.289827 88.878603 84.693381 82.476783 253.737386 252.356293 257.327724 270.375487 276.992229 286.976889 295.635211 297.911883 298.350843 322.939618 345.732995 320.878454 315.004077 342.535571 355.809847 336.442421 310.934743 311.407236 299.780920 288.693375 294.404181 293.171248 283.376344 286.370271 297.642489 320.689573 330.235924 325.436899 327.076249 322.740498 321.156787 326.959735 324.098933 314.201938 298.053327 273.287599 253.947235 201.537911 140.411677 142.085324 138.969089 135.678866 146.897312 169.684318 180.739961 166.497455 173.090146 168.206202 149.539842 165.660157 208.727903 210.153986 176.292645 147.862209 144.038492 153.045441 150.691747 149.637450 151.380724 254.241878 262.425350 253.784879 245.659704 242.897984 247.992657 252.698773 254.448443 274.049582 294.609337 303.837239 315.257392 334.141015 335.473587 325.348570 320.191932 315.110762 315.232672 319.122068 340.368311 124.143587 148.828390 163.722563 176.363295 195.758906 203.687608 181.855558 177.815550 218.054336 239.195965 244.525899 254.191326 260.692873 264.387024 263.881662 256.961218 225.105275 147.946921 134.937189 157.350167 238.473359 261.494477 271.407028 267.652620 267.036635 291.929070 100.381094 86.063056 79.271804 78.340149 85.069139 118.378910 129.591232 106.914673 96.683596 80.172814 63.651470 14.628693 358.367768 11.184431 15.753235 8.992509 19.807733 48.755630 68.592021 86.117054 77.904197 66.272551 61.625374
120.233582 124.925078 112.401828 88.762961 82.738007 83.548612 91.885729 96.597330 98.947181 105.724315 119.528945 131.851243 141.232268 143.781699 143.615291 139.115017 131.453531 127.530166 127.982023 123.255295 109.297968 103.564260 104.294111 109.811313 114.495960 112.143268 107.643067 100.144531 51.722055 35.057843 68.669254 73.653213 71.121257 78.090155 91.980142 130.355843 165.878373 166.020654 148.183817 121.990453 98.012266 95.227692 91.416921 87.160084 80.190076 79.453894 81.444006 245.136303 259.364828 271.727444 284.122382 283.307568 292.766496 302.555171 309.364747 310.189253 315.313089 340.400486 327.130957 305.801725 324.519088 354.124237 357.981154 330.605968 306.073671 293.600522 283.921776 285.733866 291.240871 282.195097 278.590088 282.147693 287.074122 303.636066 306.904598 306.558664 305.550992 301.221896 307.424912 311.476040 299.214761 285.602177 266.190955 249.883662 146.860016 126.345942 142.410019 149.334088 135.463125 150.216991 181.549852 173.947317 148.902271 153.440935 162.202898 155.235916 169.573670 209.769986 203.276605 168.390548 150.862626 146.698833 150.898055 151.160114 158.774408 259.150547 307.480571 296.863141 272.031883 250.561908 240.185751 238.334435 238.844494 241.167934 260.669207 287.496459 298.019272 307.122300 326.178828 332.452052 324.208094 322.264375 323.281610 323.619942 324.846301 10.207229 73.783792 110.763312 149.414544 169.426939 186.297735 192.692047 183.680133 195.896031 237.903118 247.263724 241.251967 243.966748 248.950278 249.416588 255.092173 265.818293 205.815585 147.500087 149.416303 202.546617 266.151411 263.070720 261.752019 275.391304 303.680935 325.593246 123.998758 86.527662 63.231966 55.659062 50.847172 52.659410 77.829314 111.900623 111.417448 90.662849 39.636315 336.507735 339.341467 4.198244 19.599081 28.513778 56.662682 73.888836 80.386668 83.801666 75.921882 72.067318 71.775922
157.750976 154.129571 151.447822 126.038182 89.239172 74.705956 75.256857 78.038050 78.262343 80.856314 87.708100 92.653608 103.831001 122.489251 130.532787 136.849932 134.359586 127.253826 129.234479 138.828452 129.807511 113.822185 105.160939 105.250117 109.315923 110.358563 103.103247 58.044972 18.726886 58.842711 72.851842 65.242444 56.378733 59.055562 68.910026 88.597258 122.745504 170.750643 164.236214 138.172120 106.771224 77.749642 67.822779 71.832251 74.411542 76.449801 80.461973 251.995838 269.385149 281.586813 289.409641 287.050786 287.219178 291.667747 298.775106 309.588848 315.868759 341.120529 334.154649 299.090646 303.240909 334.068376 359.494517 356.668523 324.238849 290.414912 281.452341 281.091143 284.614485 283.750009 277.681979 275.983119 269.915405 264.936009 264.784697 267.751020 273.782929 267.936837 262.115543 269.732004 275.367186 269.619180 261.304147 251.003346 119.749883 113.091552 127.064691 156.480145 147.635049 151.435917 191.907994 180.651193 138.220279 134.616987 139.190239 145.236673 168.935774 204.930367 202.076882 162.837035 139.799154 142.486701 148.020197 160.129805 266.457995 302.662027 316.352869 328.537115 328.579057 306.488798 270.802844 255.548308 252.497242 259.776877 269.511520 282.038006 293.167901 302.384892 315.990742 328.428508 324.252448 319.813071 322.003233 327.196892 336.818381 36.341145 80.494468 96.150205 121.407276 156.107105 181.818558 194.564106 195.479396 218.891785 245.068727 248.144777 237.503208 243.093596 250.361200 246.753587 256.597121 259.210969 140.811516 125.434759 181.636577 260.616770 279.310422 272.997789 263.056008 267.031526 301.965688 31.570701 112.314397 102.742597 57.049832 46.760949 43.922046 42.275222 44.452459 61.209766 62.821978 18.576887 333.233453 323.938844 339.486444 21.993358 42.875218 62.195357 76.544023 78.103195 84.785631 86.360604 83.169195 92.208428 93.516766
167.489229 166.342429 164.497892 158.756637 124.835391 82.119322 69.215501 63.689543 62.685121 65.835241 65.952952 63.869512 70.081103 80.798442 94.525094 110.517394 124.012697 125.904669 121.412092 128.805573 135.003990 125.421898 112.084381 107.068779 100.695788 94.462642 60.681916 12.915595 31.549606 57.658275 42.750738 34.455875 46.776395 61.138397 73.918685 82.604961 84.847760 115.620539 155.557047 156.202183 147.966335 85.436556 76.719058 83.543792 82.437981 79.903309 81.432726 309.772208 279.991834 287.247481 287.938188 287.834386 282.597172 279.803101 281.859552 291.231857 300.424542 327.451619 335.905859 302.819880 291.364127 302.501774 340.961310 6.137160 354.118916 290.886993 282.725160 285.253896 287.827518 281.212966 274.048187 271.411595 267.863133 257.539628 253.385275 257.777773 268.619646 267.805069 254.611798 254.918248 266.601037 264.159919 263.313620 256.466876 120.032748 109.461477 107.160788 132.030725 150.078596 162.752339 205.717236 196.970281 147.494090 137.656438 126.405609 119.069689 150.703933 196.508269 206.271625 169.580256 130.350789 134.953751 150.979399 249.052640 294.275411 299.967073 309.443225 321.418787 334.374742 342.811571 333.002904 304.794116 289.445540 285.933868 280.065023 281.704596 289.910409 299.425154 312.498761 325.964455 327.022768 327.522422 326.625088 326.460938 352.133065 65.776634 93.180565 97.737310 110.428684 139.243382 175.919307 200.826852 208.183795 228.583149 243.978880 245.589682 251.182251 255.602077 254.356690 252.701117 258.606163 246.264201 170.244405 111.143608 201.298480 270.181507 271.887112 275.232822 268.007463 262.006240 277.203983 108.782660 115.323513 142.971366 100.577151 42.097264 43.346350 40.577912 39.768789 35.228457 10.727235 341.717612 329.359854 325.026734 344.612662 50.024972 64.574810 76.275370 79.976300 73.399986 79.878563 92.773955 91.055400 94.854527 96.049449
165.629605 168.640332 170.751957 171.130614 164.425602 130.554769 81.505670 62.449711 60.461823 61.481006 59.845671 63.218905 68.943579 71.243652 78.923371 87.877973 97.956069 111.076459 117.228319 116.379840 120.417853 118.758319 106.391005 84.385806 52.902954 38.120439 18.434949 15.445628 24.865110 19.736049 21.783381 35.680258 57.315572 72.036691 78.761242 76.630438 75.649804 67.855023 71.365273 88.597769 146.317894 144.989585 109.890894 98.626157 95.319695 88.128549 85.108557 294.164435 283.735304 289.158047 287.822390 286.548513 280.478549 277.824561 282.376714 287.943953 294.135607 309.336443 321.494571 299.178512 282.482676 275.766478 296.039959 4.008188 13.625386 286.754806 275.188314 277.943268 282.734874 275.559680 262.432486 257.771862 258.793004 257.450869 255.432369 256.253690 262.977896 274.639075 271.748180 259.136837 265.106158 266.914435 264.680793 238.630782 113.684674 111.856891 109.553555 114.257918 131.011968 164.826455 207.194152 192.272125 166.466175 162.984983 157.610822 128.309676 127.035056 182.268515 211.165759 176.463090 128.124634 132.700892 193.581986 285.533676 288.497342 287.882557 291.443900 301.869360 320.182180 335.503497 342.049249 331.458883 315.159319 304.588480 292.974298 288.436974 285.080330 286.316640 298.930283 319.036079 324.291132 331.824198 339.873085 335.275777 19.533946 82.414527 97.557701 99.719930 108.015283 126.224541 174.194786 209.103438 214.773080 233.812814 247.231774 250.205071 268.318678 267.931365 261.143822 259.719248 254.628461 235.563503 187.274613 136.535255 222.969480 254.549925 257.618070 268.793374 263.624531 265.740396 262.381628 122.516759 116.896237 143.540056 193.552913 111.447736 47.659281 38.251018 39.042979 33.080810 15.112401 352.952662 339.283790 343.786125 95.395265 93.967046 74.618254 77.966396 78.777269 69.241583 72.165767 79.021738 88.252720 86.113121 82.161375
156.354477 163.790546 170.441065 171.271948 171.103438 165.293041 146.145276 102.944545 78.596941 70.921666 67.486338 72.920140 75.213647 80.375005 83.191908 87.629186 92.396989 96.166035 97.684420 94.982609 88.124393 72.731507 48.184555 22.248227 22.826947 36.287665 33.686486 346.810045 359.043565 18.399896 40.428573 57.831048 68.592713 76.943089 79.373071 77.791883 75.581616 62.389584 60.699182 78.559052 96.535572 136.330418 128.912853 113.911659 110.184107 97.132841 88.897134 283.218810 280.208749 281.702047 281.925808 285.361038 281.874712 276.154263 277.039897 281.878545 289.327826 299.881334 309.382613 280.349118 262.529743 263.121060 268.365452 313.694926 20.999469 288.439147 267.903741 267.540661 266.670490 265.668346 255.350506 250.019526 252.657560 253.795533 250.022337 250.480196 251.551738 256.438694 265.893609 263.810811 266.866234 270.840495 262.657668 188.170508 95.594607 98.960776 105.877210 110.115595 116.512528 148.491574 192.332905 178.477167 165.482134 172.781033 179.221062 162.023408 127.503872 168.171513 213.846750 181.528858 127.904368 134.962316 251.573720 271.151544 266.339374 261.269634 259.309264 267.798041 289.682697 318.151838 336.122045 331.667408 319.487776 304.615819 293.113637 288.173395 273.039641 263.568626 266.739024 288.569921 301.101739 316.526847 346.941676 15.241500 83.532541 95.316497 98.440493 103.227350 108.791713 119.998907 166.678528 212.198012 218.433201 237.923142 253.082220 261.212297 271.170961 266.721062 267.591935 265.226099 249.036937 225.598889 191.492013 168.891565 222.908114 234.306263 250.469071 263.548822 253.771717 266.068375 245.864316 112.124702 91.610871 128.195034 187.042723 199.594233 133.353525 50.751943 46.506514 35.688394 19.085237 14.539481 24.065929 57.170915 90.599438 121.655327 96.107463 83.555000 77.404856 68.439042 68.864128 70.699605 80.673516 84.261105 85.900175
147.208665 151.568964 155.683138 155.754787 161.717256 168.390209 167.264621 152.064616 123.722993 97.249502 83.086181 81.094672 84.138623 86.409771 87.900414 93.915534 95.983451 89.964670 71.132075 49.843237 27.740804 14.695870 13.449957 18.486932 28.544283 42.595067 45.172949 0.693760 302.062834 61.425992 84.435338 84.758706 81.315093 77.663648 74.517062 77.450446 72.144324 70.638016 88.483975 100.836615 95.095923 105.182701 113.198591 107.921389 118.200885 107.933062 94.542986 273.946821 274.104049 273.450401 280.579294 288.882667 285.374557 276.482503 269.236807 271.714387 279.510515 286.674592 299.625676 269.297780 254.034480 260.674576 261.360537 265.567332 8.905032 289.391518 266.566716 263.996903 258.892969 255.209765 252.640793 246.900294 245.620842 241.350605 240.417831 243.625042 242.817418 241.852765 246.007682 257.867193 267.776682 270.875660 255.577595 200.033163 93.846976 89.689234 93.235815 95.385785 98.297560 113.343422 168.063219 171.368968 165.375021 173.447979 186.577988 188.794424 149.398405 151.213100 206.185719 184.635463 139.265025 140.511877 235.753680 244.266286 243.231431 242.441121 246.170932 254.305510 260.816792 276.395252 309.896839 307.544354 311.597006 299.193288 278.695290 273.297264 260.038591 249.802855 250.295391 251.041485 263.130402 276.190053 336.811417 76.258485 107.669194 103.250208 98.858198 103.590763 109.337990 120.436028 164.027720 213.010220 226.289398 250.138369 259.417600 267.792343 268.188713 262.091554 271.442177 265.955815 232.882464 213.257234 194.766421 192.448575 221.114053 227.444803 244.662110 249.160016 250.333978 259.831961 222.279233 115.919492 78.980774 117.970922 155.877225 205.437628 198.616264 124.127718 97.172694 45.235010 17.584685 35.801221 51.780310 56.606304 65.582337 71.518608 91.510015 91.778800 81.764571 74.385199 77.129116 81.349982 85.513088 88.035461 99.105487
131.884643 124.230776 119.783112 118.337014 127.210176 151.436988 166.796732 162.913751 147.875858 131.375785 114.607312 102.690305 101.525612 97.736814 95.732361 94.550188 81.727294 51.993905 23.231444 10.880356 9.446713 16.747618 30.017437 35.469340 33.320184 43.450496 46.572396 38.252846 63.714438 125.955333 105.714947 99.715078 96.567175 80.112275 69.600417 66.125815 61.881317 68.568748 77.632840 91.098832 91.759931 85.934811 89.351791 79.303209 78.844494 91.186223 93.456530 271.707267 270.483461 269.080212 279.070196 287.853755 285.527581 276.871097 266.162359 268.168870 274.768383 275.172748 282.176199 266.093471 256.688728 255.289485 257.660208 254.978339 328.170441 292.439488 266.162379 260.745578 253.827561 246.760392 243.811109 238.687517 234.757853 231.984418 235.100513 241.709694 243.881669 243.366685 247.549644 259.489306 266.350856 262.444635 238.528980 190.700314 116.233334 103.177770 101.062193 98.451946 90.890185 84.925348 103.572445 140.334499 156.080317 173.847411 192.432641 199.463568 176.175927 159.545548 190.474040 180.939287 158.464460 155.430495 225.237494 245.217589 254.183615 257.029258 256.874995 258.298156 260.694380 263.650697 266.988473 269.188787 286.622157 295.287439 268.754884 247.699991 241.254116 246.611185 249.182090 240.086132 247.700798 246.106861 209.648643 109.018701 113.017337 108.682601 102.084701 106.766563 110.313176 120.159665 164.394402 219.355532 236.784899 257.486699 262.390277 266.651048 265.212402 266.615955 266.929157 242.763388 214.229692 212.261077 203.901267 203.187423 213.227813 223.623952 235.368911 239.120852 251.624008 246.999878 209.049625 171.689393 124.866179 128.057296 195.342305 211.677753 193.743707 119.520864 98.660604 9.789931 14.300277 48.960080 50.187009 52.741769 54.997672 60.879931 77.135902 89.254940 91.236895 86.958158 91.930193 98.156867 99.769506 96.125031 100.153936
16.424107 17.405464 25.050549 41.710348 64.735118 90.741424 131.352387 154.156426 150.778866 142.586363 134.833960 124.678367 118.133882 112.185419 102.270772 80.058739 35.811970 11.996033 8.046992 13.245937 25.771281 43.759159 51.021516 36.356566 27.194718 43.275587 50.267753 52.782565 69.348698 97.350425 94.022194 88.749717 93.779522 80.949822 66.372791 60.318946 62.214417 68.040543 71.051798 74.337659 77.107297 79.395216 80.610573 78.092972 65.094462 76.373005 84.703978 272.860970 267.415948 264.702112 273.175363 279.764647 278.185036 274.790691 268.555236 271.028467 273.754973 271.066265 269.827423 256.572057 252.468667 248.553749 253.019402 253.119078 276.116859 293.080940 263.421757 257.679533 248.515997 234.234633 224.807785 229.791559 233.494848 235.108125 238.946626 249.179415 253.677063 255.175694 251.581929 259.915694 262.046402 251.755794 217.419481 157.409968 119.717781 110.823379 113.918440 117.273873 117.346042 98.701189 90.242751 94.620972 101.558942 146.712917 192.318622 198.682895 185.934805 179.326742 181.171796 173.297645 168.480223 191.712472 263.171797 268.789283 275.985273 282.781958 280.409487 275.302333 274.125169 272.354002 259.912139 254.548160 254.775127 252.963653 228.832270 220.542814 230.262223 241.613657 247.991621 246.756049 250.115261 234.734308 205.669269 133.616313 113.027074 110.563153 104.321185 108.481062 110.431588 116.001042 166.064033 225.641045 241.284405 255.208252 263.138478 264.394933 265.523454 263.649666 244.132207 212.287785 214.416810 212.640612 203.193705 202.899278 207.279469 217.499426 228.174415 241.079615 251.710087 228.873345 197.229421 172.868496 152.993712 161.366974 210.998418 204.335942 221.850278 108.382767 74.561633 341.480001 359.246812 47.561963 50.530404 60.494041 57.929860 79.249573 88.798709 91.351761 95.733193 105.082848 100.224582 102.800257 106.278349 106.224855 102.302309
7.978490 6.767299 16.579273 35.040750 52.792844 61.977396 70.934401 94.834136 123.980979 132.514214 133.225468 127.276582 117.296003 103.185009 72.212525 24.980966 5.189098 5.937662 12.723848 29.330017 51.441862 60.182354 46.691218 24.386869 31.918034 51.225904 58.406122 66.182592 80.824455 92.816188 93.857266 80.064768 75.920384 76.764630 68.316377 59.837037 59.263508 61.635654 73.144780 72.752327 74.616737 82.478479 84.366666 94.551786 93.897854 88.733241 88.748247 269.015235 268.185097 263.960576 269.637637 274.908708 271.781394 270.461507 267.172626 272.546537 273.306672 267.736602 241.449144 226.974934 246.786084 249.944764 251.215209 250.186940 250.597105 266.151038 256.041710 250.073232 237.203637 218.453392 218.360871 232.043500 239.990938 241.540125 247.447720 256.194956 262.350108 263.752632 255.045694 254.876370 253.691769 240.723821 190.408205 149.088949 116.283119 99.240962 100.984450 108.783809 131.142217 139.413485 133.279297 125.499907 101.246235 103.117483 157.904838 188.584832 184.626146 187.013573 188.790423 187.771757 228.131471 293.823061 299.540213 288.176494 281.435166 287.111099 294.064277 290.315545 280.484955 270.422914 233.648037 227.583575 223.013717 206.209862 197.170727 216.433644 233.591486 241.757081 250.345611 258.096216 249.984393 221.398179 208.218021 160.848788 114.498770 107.601868 105.123190 106.469464 111.997728 119.795202 158.339049 226.397181 243.524380 252.053167 260.558117 263.340473 263.332322 251.221515 225.024392 211.912109 224.537751 198.666329 189.397154 201.111710 204.666354 210.380046 231.524121 246.948524 242.336312 202.483335 181.473302 169.037454 167.082815 199.007172 210.006274 224.363178 251.142865 103.147242 21.974508 328.753071 353.957568 60.678135 65.497233 67.189017 68.030755 83.147659 99.846927 101.998706 102.566126 116.877192 110.699022 103.167983 103.504999 105.923846 103.598088
13.304900 18.733961 56.078753 68.322265 71.301648 67.015745 65.580859 73.718503 90.567087 104.524383 112.052142 107.959511 78.878483 35.529146 14.439110 7.679220 5.805360 11.144498 30.122160 59.426808 70.291040 60.224908 33.916481 24.722156 41.564566 55.152583 63.294060 71.044268 82.794431 100.264081 106.097753 80.365010 71.006424 76.868704 69.749241 58.228298 59.797513 65.202179 76.282440 82.217857 82.161353 87.984935 91.044938 89.935550 98.027834 96.661411 93.346446 273.579419 274.818063 267.705031 264.761845 268.347422 266.854177 263.768774 263.352713 262.040968 265.735989 257.181677 209.975324 213.132462 239.361548 247.789787 247.408855 243.088266 231.012244 206.230420 231.202562 235.907524 221.718318 209.281135 218.954063 233.146873 243.371398 250.330527 256.414324 258.721967 263.521373 261.728504 260.296428 251.825441 243.447541 226.721324 176.117802 152.833499 131.023987 101.289778 86.914323 91.528165 106.532349 132.204623 145.942279 151.953434 143.019837 120.728046 132.306191 173.521186 191.106302 210.967599 238.957909 275.123285 305.231169 319.077324 316.096544 307.567222 292.541145 283.884713 288.533808 291.003659 276.136512 243.333816 192.364741 192.964509 200.567327 199.781971 209.880489 234.534265 242.992566 244.391872 248.022239 248.056350 228.241539 204.583087 206.284625 186.511111 129.444938 109.475315 106.137816 106.096042 114.374183 130.939493 177.108190 223.911176 237.976656 247.705110 256.343577 258.607864 254.270764 235.500407 208.744959 216.912701 225.591541 183.146045 183.511532 204.270051 203.009642 213.813540 240.363142 242.265561 215.719685 179.591347 173.647943 178.162956 185.787990 205.902931 219.737364 247.105279 253.392018 285.567432 309.831896 268.028154 125.212211 111.094875 98.053977 82.775899 82.717362 85.292530 98.033781 102.033580 106.159956 117.931018 121.505981 111.532055 106.341330 103.859762 103.781597
176.968342 178.030067 169.598487 148.643230 127.973952 110.176501 98.542037 90.497169 85.758197 81.942432 73.226893 45.275033 10.182263 3.175347 7.997033 11.880543 13.053035 33.072293 70.551940 84.509987 71.167880 40.291563 19.200686 29.061084 47.306348 60.876916 70.449832 75.212830 78.545523 91.488100 110.373131 101.880709 83.934784 81.340187 78.512293 72.036834 73.662299 76.242024 78.788313 87.213132 87.002892 86.695360 87.663277 87.117280 90.765234 89.963192 87.312248 274.903305 272.608343 267.894282 257.685367 256.402424 254.645464 251.864238 254.935598 248.176669 251.340712 244.272315 196.094704 198.687780 229.771831 242.855082 238.171288 229.173043 209.032544 186.836833 205.863955 219.180153 208.551392 204.188587 217.537367 235.843507 248.602862 257.652601 258.822336 257.333921 259.782505 255.678155 253.881998 242.548038 232.748431 216.135474 172.234468 155.991596 149.854878 133.003926 103.688256 94.208110 93.813832 104.103663 123.837404 143.514714 154.221209 143.441341 140.978366 186.467846 271.536341 307.177268 318.356184 310.048013 304.992020 317.596359 323.869879 316.611896 309.504586 296.878085 286.435399 277.930074 242.177391 202.874690 179.910510 176.054814 187.170902 206.064148 230.005663 240.705397 239.307886 243.626135 245.296172 244.105651 215.972924 193.141746 203.220810 197.120658 159.995175 122.260895 110.127246 111.815539 119.666872 135.856601 190.502489 217.942911 232.672607 247.373235 252.736822 250.430033 237.236695 210.734886 198.836620 216.418286 204.147726 176.386962 188.097330 206.356633 207.289645 219.355748 234.696880 220.684244 187.792348 169.985589 176.188495 195.957887 208.624632 224.065278 243.898387 252.667624 248.979001 217.297716 170.327888 180.844760 172.653548 156.981833 147.436426 123.046462 105.733779 96.068814 94.667556 100.508104 107.678129 116.085276 123.537208 122.406057 117.495220 112.672064 109.221569
173.204212 170.859315 163.805062 157.872346 152.725559 139.092534 125.768480 110.414895 88.696824 67.007596 38.896701 5.472890 355.831284 1.987199 12.317435 20.178152 34.818543 71.240304 85.778413 69.148460 31.210678 15.576055 21.733399 41.789405 55.996273 70.257871 79.805496 80.729409 80.561404 85.140156 106.735791 131.813404 105.391821 92.405971 104.885196 104.206428 91.461732 86.006863 83.452932 86.862509 87.173565 82.257144 82.276483 94.352281 101.989601 88.970750 89.291128 262.944590 262.987515 264.000833 253.127211 242.390827 239.183913 238.517140 239.864894 241.378012 239.364389 233.900054 179.253787 198.134374 230.123633 242.191303 225.883285 216.989332 192.023740 179.030515 196.027915 205.686628 202.997410 207.282897 223.708855 243.429265 252.678869 258.223372 257.211734 257.787571 256.992514 247.424693 238.829546 228.782032 226.686080 201.953694 168.314256 160.889207 154.942629 151.863110 137.179025 112.269861 102.780809 100.103790 104.270241 116.461601 139.583203 149.824743 170.082870 276.946097 294.888591 307.115346 327.299388 328.348055 308.351355 302.197535 314.441920 314.095969 302.527066 296.837360 279.125762 232.045924 193.377262 184.959548 174.943141 174.160450 192.142323 224.357163 240.308445 236.875860 236.856830 249.972953 249.034883 246.391616 201.259395 174.924123 193.364012 195.082903 178.840121 144.357281 117.430578 114.589942 125.993828 151.778918 197.549002 208.782747 229.427725 247.164315 246.934454 237.886329 213.419884 189.256382 193.526015 203.817826 187.996707 178.991376 197.816449 214.998670 213.101057 219.411396 221.693789 200.918365 175.381840 171.491526 208.712037 243.896014 255.108054 272.440191 270.293364 255.260633 223.831843 170.844992 160.596613 174.384382 178.623077 170.785169 168.841521 161.282023 140.668586 121.202971 105.191438 106.161136 111.969681 116.015748 121.792512 125.035836 125.813423 123.711218 117.347161
155.816388 146.559556 137.289655 136.251356 139.205103 132.308636 121.240415 113.861182 81.657065 38.648990 5.335702 352.869351 356.290785 4.164690 12.818269 35.978716 66.442027 79.559840 68.988409 21.584074 13.002232 23.225335 39.787018 59.103061 70.781141 80.329787 86.894149 84.240248 80.901383 79.355582 93.473790 131.542583 130.405747 110.609693 117.954627 126.151716 110.777070 97.294390 93.124332 95.757279 98.861585 93.342733 93.868419 95.372738 84.059734 77.453141 88.778924 255.617647 260.578049 263.175433 252.851901 234.222287 230.532257 226.675782 229.731368 238.639764 234.711708 229.964168 188.527908 199.719872 228.492701 224.521138 207.907842 207.613289 174.267016 169.821189 194.527630 203.115692 207.326102 216.014974 235.689627 252.287281 256.806829 256.758816 255.342501 254.137907 249.039674 238.923941 229.089187 222.433396 219.444121 185.888087 162.938578 165.525228 157.279518 152.743054 152.684604 131.112846 116.014524 116.909624 112.140161 107.905356 118.933754 149.015107 250.839400 283.655948 290.645895 294.235082 305.736664 324.720994 314.141110 290.473932 276.221644 258.040770 246.789258 243.877443 217.632495 181.584118 178.712152 181.352480 172.918673 177.255525 212.235300 239.648701 242.553617 240.473703 251.025484 263.080888 257.215493 244.474353 190.927346 150.231022 175.440950 188.289552 184.725109 163.361459 129.783556 113.830454 119.877063 161.300850 194.166025 202.661847 228.648446 242.353674 237.599925 222.357935 199.122320 182.956416 188.248355 194.022096 186.743687 191.172585 219.045568 230.730015 216.320432 218.506475 215.298775 202.002369 182.383960 209.723526 264.569833 270.283430 290.106003 298.555247 286.500090 224.838604 171.313943 157.731139 157.892812 171.357557 176.735129 173.192639 172.193881 168.795206 163.614590 156.425727 136.488759 115.873203 114.616151 113.548692 114.740523 117.712773 121.639151 126.543934 126.810898
99.331268 114.154283 109.901192 99.033444 75.213324 78.424227 81.071014 65.158583 12.734705 351.484113 348.667119 351.875597 356.295119 7.240786 37.359514 68.878660 73.344124 66.269158 32.034448 2.972975 16.954103 38.991635 62.035297 75.673940 83.673972 84.946232 84.564788 78.616663 74.683265 72.919681 79.101906 103.958012 131.029400 128.175274 124.427198 132.172101 128.472159 117.770050 109.459025 105.747673 103.975787 93.632096 82.667447 61.458312 52.485650 79.670318 87.604085 268.624432 266.649126 266.439415 257.627472 233.414741 227.925609 225.918816 232.512743 239.476332 236.893385 231.584047 205.449946 200.383278 222.567479 198.444172 191.327158 199.473503 169.506308 158.363767 190.602099 209.142828 218.612773 229.015583 249.593205 257.931454 257.509320 252.881258 248.932940 243.313063 235.138676 230.192356 221.524908 217.447635 207.946479 172.914136 161.459327 173.396446 160.338824 145.869036 155.053033 144.938219 120.077860 123.617589 128.650099 118.262207 115.730179 154.637459 267.869559 275.395216 276.512933 272.051454 257.289496 244.219932 239.567839 229.428362 207.160906 200.187174 214.601455 215.721658 192.902880 172.480294 172.745142 178.874245 178.752862 197.068986 242.334224 251.446590 250.502910 256.608238 265.705344 270.959744 265.046494 234.224943 183.826222 148.257961 156.005944 179.135024 184.727358 169.438091 145.495844 123.338338 116.662226 150.223820 188.809600 208.907122 232.727717 237.751314 229.433171 209.562317 189.700699 182.897385 191.773284 195.353678 194.226655 219.269575 252.602301 244.783160 221.825272 223.811721 222.020170 226.173166 240.512612 288.571830 280.119505 282.562968 294.462152 301.627835 258.658272 152.621518 153.341510 153.157518 153.269369 162.218898 167.344914 169.351358 162.037096 149.783155 158.274901 172.609235 170.204183 134.867093 116.895177 107.458561 99.440051 99.970795 101.695520 106.801976 114.323985
30.844976 47.585498 63.273113 37.223043 24.456492 41.530785 40.929333 8.630648 346.499648 343.246412 346.553586 352.260889 12.828113 62.463732 85.471749 77.105582 61.420939 46.725781 8.449862 2.892758 31.168294 58.471578 72.820041 76.507477 77.118969 77.044516 72.824345 68.578291 69.455468 73.083817 77.271224 89.106635 105.068890 117.855187 118.547270 125.458798 125.295009 120.337685 112.947389 84.968192 59.791861 48.085981 45.006218 48.925477 70.425212 88.257208 90.729791 286.101577 271.211219 268.866543 263.232063 246.525841 235.367118 234.647418 238.761842 240.638756 241.460801 232.426771 212.659066 208.170193 213.868373 181.472664 177.208210 191.667986 175.598820 163.106596 193.647071 220.185739 230.668150 246.602644 257.608539 258.486169 254.421630 247.488201 238.463710 230.251369 224.658471 223.984833 220.173176 214.434439 188.847103 162.173708 161.704675 178.531199 166.524509 146.683441 155.043716 154.258341 124.592289 114.945739 128.032424 130.434339 125.799759 189.693962 268.677301 265.798028 253.763820 229.434267 211.903149 203.730337 202.504477 201.532719 191.219393 196.857335 216.138716 207.822475 187.317664 174.320656 171.376813 179.895196 199.092598 250.253328 275.368967 275.560841 271.377373 270.019874 269.499479 267.781881 259.964289 197.040592 170.998481 161.624434 163.702887 178.727171 178.445845 162.095656 154.111823 143.025075 130.001851 143.705812 189.126788 229.048287 237.114248 234.333769 221.764369 197.534031 181.810153 182.779092 199.146362 210.557615 236.863169 276.494856 290.691620 288.989290 264.452700 258.845340 263.204144 273.198284 292.626819 312.012921 307.704352 305.381254 307.322228 321.215636 126.411269 139.680717 152.535656 157.410214 133.110429 122.564927 138.337561 152.235928 150.561884 125.253525 123.139164 160.536793 187.634223 166.405468 131.958335 113.967370 95.393425 88.732865 89.458718 90.729386 94.621371
31.735903 38.835426 32.930250 7.571340 10.078712 29.515468 16.765304 352.832334 346.733006 357.319931 32.895392 104.148174 126.932210 124.021664 112.423265 72.892077 52.045396 25.872789 0.302801 15.706924 51.458249 70.261440 73.660597 72.173088 69.923141 73.086260 74.664061 77.578811 79.264350 81.459798 82.383477 76.250090 69.900524 63.622923 55.806611 64.287971 86.213023 101.388649 84.322308 31.019276 37.900221 48.382632 50.488439 56.372707 69.612424 82.564039 81.485524 289.448302 266.086087 258.887069 257.211317 260.932215 252.435158 247.366908 243.912234 240.659237 241.515738 231.120119 218.256207 219.486655 205.940627 170.528790 171.851157 191.618694 176.947117 172.350480 208.445187 234.283817 253.057493 260.730031 258.847840 255.417089 248.485497 236.774552 223.683018 218.616247 220.858599 225.573551 224.010563 203.008151 174.393039 156.207634 161.379234 177.781566 166.283768 150.489807 157.794375 165.654106 139.395076 112.498052 114.693014 129.554171 142.423717 242.765347 271.609426 257.082137 222.029561 202.900947 200.984597 200.021803 199.163876 199.056091 196.236068 208.915828 216.764597 198.668049 183.330629 176.355540 175.579221 203.560611 256.801321 281.155158 287.600483 290.567689 288.337052 279.275959 268.414420 256.907269 237.142939 149.224656 148.960116 158.774846 173.004680 186.744496 174.027589 155.575363 153.559176 155.230221 144.818496 152.814287 212.958885 245.975104 235.958213 228.736048 209.012460 187.314526 181.029795 196.362414 235.120596 266.113055 287.690010 299.408496 309.149966 333.959081 341.968912 307.615380 302.604492 298.059341 304.992020 315.596883 314.384061 314.571804 326.826127 67.147375 111.079677 127.263100 164.291960 197.770154 137.393058 103.260398 105.808543 119.488131 130.482923 120.720034 110.866567 123.545819 175.570140 180.742778 163.689747 150.475533 124.073932 100.722710 96.014168 96.029638 96.216536
42.153617 36.582027 23.000823 11.006692 14.942565 17.444521 359.880841 356.556813 41.483095 107.380650 130.181195 136.299463 135.612002 127.160506 104.176470 54.759042 28.274720 3.554412 0.996089 35.737894 64.557886 73.052560 78.426683 88.528333 93.309553 90.828506 94.082786 97.383159 95.621321 87.252658 71.006467 46.366274 36.943502 26.233701 33.106619 53.348430 72.328843 67.937385 25.345256 26.551427 47.390366 42.067263 35.522971 43.694383 60.909724 74.246416 68.363576 320.580153 249.366021 246.345436 251.223415 258.896167 259.100523 253.611653 253.012141 243.040648 237.875353 230.180152 227.365498 231.299313 203.409773 164.969569 167.929659 192.480498 183.313261 183.550398 219.410413 245.190238 258.890114 259.345597 256.658160 248.503685 234.917719 218.355460 210.761058 216.268004 227.483497 234.273859 224.658622 191.330326 174.435188 160.066464 155.706243 167.659518 163.577500 157.335753 162.441177 168.138224 156.091947 128.707384 114.488944 122.796852 156.567941 259.264442 261.054567 225.486889 191.129982 192.135224 201.409239 202.270945 200.917985 202.144691 205.064960 213.969944 210.140756 195.675141 185.191124 178.412137 197.118832 255.402279 272.984342 274.677082 271.236865 272.011253 274.775131 271.263518 251.620154 239.347235 219.848812 138.443494 131.552860 145.750848 170.594169 182.848091 170.172651 158.587295 154.218894 158.084096 156.194224 174.510085 243.536040 248.331884 233.261918 220.070391 202.196962 197.142900 224.726823 293.221277 299.623886 301.450322 302.417198 304.282376 314.288399 349.024937 353.481266 318.610023 310.961162 308.009343 307.902330 313.429582 312.254508 314.987424 352.337070 75.283115 91.690375 97.267344 153.337175 206.796860 171.092677 118.109554 102.634731 101.900259 111.840434 113.906315 113.708238 113.857562 139.405594 170.945638 173.962882 173.311416 163.594619 132.983966 114.078327 108.505837 104.105907
34.462864 27.400488 20.411405 15.530400 16.268586 11.225750 16.745751 82.904560 115.756495 125.305226 132.022043 128.460416 104.691024 61.090549 23.044835 358.992512 349.612629 350.632234 10.873828 60.610270 72.639432 75.663615 84.001680 96.933978 106.622051 101.422840 92.836619 86.922207 83.334780 69.606612 44.548200 43.344638 52.542623 56.752732 79.983240 83.972866 71.267082 32.933240 15.563063 22.302129 21.529672 17.457008 28.717764 46.285599 62.154035 67.992986 63.615094 64.278219 241.552287 246.595020 251.648412 254.968952 256.915111 255.639815 256.761979 246.733467 236.405599 236.207176 241.558660 238.279907 193.836778 160.144786 164.021366 191.333243 193.370979 195.233473 226.711225 246.581856 248.966725 250.921555 248.233424 236.005541 217.806731 207.355705 211.385374 225.413566 238.155030 240.670807 213.073866 180.212616 178.460796 166.226246 152.989405 162.190550 162.527293 161.216701 168.448245 171.375958 163.950880 148.561856 127.316461 125.059095 181.119688 251.586895 227.890021 193.804158 181.988355 193.648788 205.538196 201.154190 201.411302 203.027469 207.952478 212.721015 205.877384 197.477227 194.569804 201.966362 251.543568 268.251165 261.956824 251.910747 241.702036 238.277360 236.509614 230.261860 224.915879 232.621039 209.903306 144.568735 131.996179 139.578987 160.576049 170.534123 166.210837 163.424706 161.857043 163.064618 168.133181 213.063338 251.580866 246.098705 228.174704 213.723055 219.206632 262.669378 299.541634 314.204514 317.145658 310.879160 305.636649 302.298355 311.375443 359.720900 356.334898 307.057871 302.449810 304.637470 306.401028 310.140644 310.731565 312.731312 10.702024 66.660871 76.464883 73.683673 85.133612 190.311446 182.146309 123.643584 111.072910 113.014203 109.064290 100.575432 94.325666 93.396871 98.085501 127.192980 160.104307 172.598799 175.267024 160.966296 140.265944 129.294258 117.544553
28.468038 27.080943 24.135045 18.610797 24.255651 52.256075 95.859051 111.576352 116.548882 118.738499 118.536410 60.404185 14.723981 5.440761 353.754107 341.334562 340.391290 356.896740 39.556557 67.892549 72.071819 76.981601 83.165006 84.658753 81.344218 75.105989 63.402137 62.983884 63.936933 62.793663 74.651540 93.758067 93.511365 92.578233 91.169694 70.079206 29.056276 3.176119 5.264988 13.230918 12.959827 23.054307 42.717272 56.368885 64.273955 64.580359 61.375620 60.328802 294.717441 253.078894 247.791670 244.185974 242.416406 244.781683 246.410468 249.562716 245.881919 247.596206 246.270178 230.218625 183.101029 161.380425 168.615277 195.511999 203.317078 216.418552 245.803747 249.995295 244.262670 237.317997 229.846560 221.008099 206.232157 204.845566 218.489188 236.575807 245.324064 232.885763 191.493979 174.338870 182.017340 167.323550 149.280603 156.371029 161.557417 165.981487 176.749936 172.721595 161.703294 157.413380 144.970266 138.959246 200.638820 224.658987 199.954132 189.496197 190.651621 201.544703 201.211348 195.395250 202.375091 204.985202 208.316842 208.883980 204.295298 206.432840 218.594514 238.199649 256.025404 247.190717 236.065220 229.060395 226.303519 223.700162 220.524068 217.230190 228.546808 235.854958 198.228759 150.081859 135.803065 136.554898 146.733050 158.503147 162.904259 166.895837 169.373328 173.112909 203.628269 266.664486 256.165029 245.586116 226.817322 239.112716 274.945129 292.059731 298.270723 303.320607 310.039625 306.213590 300.248137 291.627087 289.720427 359.149297 15.556329 294.142133 294.448779 297.058901 297.692128 300.210813 305.032121 309.578215 13.915123 59.088037 60.007299 53.678603 47.737597 40.275321 329.262596 66.640165 87.636172 109.369883 110.874767 93.993029 73.292650 64.192369 62.015476 66.242766 88.413472 124.362297 155.651568 157.707159 144.081970 138.331936 133.030865
27.315860 28.377495 26.375987 31.109615 66.864176 92.770496 107.044868 104.665505 94.632183 78.589427 23.801861 342.158169 344.480307 347.534468 344.118188 340.373012 344.776131 8.774196 54.914226 68.434969 73.845521 79.848572 81.379404 74.105057 55.242127 48.091013 57.037694 71.615046 80.622565 90.220622 94.681650 82.796717 46.078759 33.046369 27.718723 20.544823 15.351554 3.145610 348.994134 5.303704 20.571905 39.282246 51.437265 60.008738 62.835501 66.160760 67.636689 62.385117 49.970446 244.150441 238.020196 230.535794 220.532620 226.881175 244.574224 251.505371 253.431655 245.045734 237.991693 224.475121 178.605652 160.066359 180.378753 209.326933 221.796020 242.008563 247.935849 239.112826 231.727336 220.273333 219.554235 214.057171 201.546574 207.491379 229.433446 244.727794 241.956613 212.131791 182.024205 176.868071 186.734563 166.952469 143.941734 150.497754 160.712485 166.402131 177.715434 178.051093 162.790718 155.458289 154.031947 159.452486 212.063103 212.670936 204.015496 209.727124 220.335849 221.203725 202.473176 198.401255 212.933417 217.287425 217.578165 212.867802 210.430380 218.428983 228.395147 228.384029 222.256814 218.123099 220.932714 223.138430 224.480788 220.497511 219.695802 228.024557 242.586609 232.911630 184.478464 152.987129 144.198496 141.438906 138.948624 146.129635 158.746390 171.951267 204.198327 286.262772 315.774836 324.456014 286.257321 256.887802 264.010930 293.590484 298.537411 296.945973 287.014150 280.396308 280.687991 283.335167 286.269040 278.831959 270.890438 322.477663 14.931417 298.226855 294.248927 298.788036 297.599709 294.618413 295.714614 298.557737 346.068017 45.547652 41.543636 36.470379 33.640697 22.208255 5.433160 23.214273 46.352314 58.314525 71.858923 87.367565 76.431665 67.079438 66.305927 68.484483 67.011439 60.783037 62.977070 78.722039 83.816456 88.664384 99.116408
18.508165 25.032789 35.654662 59.598491 80.371993 82.620318 84.019086 78.846112 57.043421 30.886779 353.945067 335.687292 334.639104 335.468338 338.422110 342.018281 356.749646 47.278113 81.617287 86.136149 85.785852 86.278648 80.770578 61.208524 43.956593 56.424384 75.685896 91.340869 99.685533 89.629009 46.610784 10.689084 7.657636 18.894643 24.094568 21.361322 20.618410 14.903167 336.903814 351.046477 32.735226 54.359157 59.364326 62.009050 65.026316 71.807406 74.848761 67.712415 78.730800 218.401186 231.065586 224.737177 219.571465 230.551268 244.656371 244.291056 235.533909 233.055401 239.903372 234.951277 178.105761 161.668609 192.549662 219.872561 234.068599 242.233599 224.375606 216.732708 215.381120 214.073943 220.385906 210.158274 200.674425 214.636743 235.735420 242.883778 226.622187 194.909287 178.968505 180.770506 189.495384 171.739434 140.036374 141.848089 157.122842 166.565147 174.346455 178.368659 165.274589 147.816387 138.760365 326.621974 325.509120 313.910149 320.768177 333.086777 346.317632 359.981208 336.150108 317.515666 315.545493 294.825444 261.242527 235.851234 225.075935 222.819806 221.783340 217.845646 216.616070 219.755087 222.409542 225.516753 226.414780 226.527568 233.292290 245.939546 246.218240 221.632499 174.152620 150.785745 148.139064 150.130322 146.781092 142.247559 161.444255 240.977111 294.192212 316.453506 327.339212 348.831127 352.396733 281.893190 282.430196 297.781425 301.967239 300.473833 288.359710 274.134059 266.974817 270.024309 273.722087 267.837819 262.226362 264.284198 322.254158 300.832730 291.043916 297.265764 299.679717 292.243383 287.643276 291.715830 304.536593 355.382751 20.027487 31.178668 33.826162 23.455305 10.215209 17.874675 36.108680 49.859696 64.612862 78.586646 85.097878 89.029955 90.530732 80.647390 59.402410 47.825292 49.377766 52.008145 61.961106 70.140147 78.606040
38.016855 48.764707 60.203958 69.986857 70.699010 66.965247 59.902384 47.159894 28.072487 11.495179 354.499195 334.710713 324.642126 326.555674 332.411146 344.725268 49.372825 87.865113 94.424052 92.625493 93.731134 89.786041 74.441237 50.761325 62.643670 81.308966 88.765289 96.411573 80.058720 15.302466 356.878804 0.531316 13.044097 27.880828 31.095427 26.620123 28.432881 28.387352 351.119697 335.380005 41.931920 63.473708 72.462344 73.963801 78.917901 80.319338 77.349666 69.805613 62.618648 73.093877 229.755942 230.077050 227.067542 232.885026 237.528808 231.661594 231.099352 248.754818 254.683993 234.737275 161.641571 161.936959 215.082310 250.197597 256.892413 246.576454 200.284615 197.955642 210.488485 222.759487 219.145534 203.630907 201.515944 220.871420 235.800462 231.768383 207.628730 184.999387 179.628789 180.575459 189.612797 184.922271 145.163283 131.785760 147.536391 167.947395 202.595688 288.780717 330.971776 346.074433 349.411833 348.021592 345.132812 340.982325 336.777139 341.373465 353.135556 6.907704 2.561341 344.060828 344.514512 351.189431 352.428484 349.149540 339.794430 269.932295 232.937692 226.733567 228.200565 228.559052 227.385796 231.326371 232.989968 236.113203 242.809431 247.733915 234.389148 206.635397 169.308788 150.461218 149.811116 153.561048 156.140429 157.138780 209.597592 280.000295 294.935030 311.480732 329.457347 358.990938 22.317872 339.431463 280.519949 280.658335 285.461065 290.550769 292.090883 272.809599 262.941044 266.679847 266.737916 258.318497 256.082655 258.249380 289.736597 288.630990 280.596786 285.914229 286.815029 277.474421 269.393953 272.203462 276.918248 298.355325 345.659885 31.266709 39.666560 33.303619 20.117630 38.028949 64.504000 77.088109 85.308294 86.882540 91.587295 94.033990 96.442044 90.227966 78.297395 82.895611 86.378406 91.401348 94.100382 91.202525 91.822982
56.643757 57.104926 61.739791 63.298707 61.253757 56.574021 43.972368 30.418431 14.882216 3.620968 358.097771 345.379126 325.265572 316.385810 327.178796 67.443956 114.250790 111.736508 104.441052 95.143358 90.890126 83.430059 65.534038 72.773007 95.857819 100.499679 96.402039 76.874941 6.140715 351.395682 355.362542 7.624831 27.475777 34.665856 32.735494 32.344404 38.044405 37.296602 7.616340 327.152523 47.842606 66.231621 80.385564 89.593262 96.510440 89.638897 74.691405 64.121869 53.771524 45.665298 293.756908 237.467551 233.099443 241.911927 240.306492 245.435200 264.079488 266.865024 251.163315 206.788954 163.435320 184.101485 255.950998 270.309648 266.907918 219.211707 160.611153 185.521573 221.057234 223.812660 206.728927 199.066104 210.498914 229.823492 229.760518 215.662762 197.324567 182.398480 179.041055 181.574086 190.710711 192.811937 160.423365 132.765471 139.686061 289.976556 310.508983 327.455537 332.180236 337.378274 355.380593 358.217665 347.072070 347.935834 347.956767 344.703349 354.603350 12.465551 4.293546 340.580907 342.374354 351.633054 358.179884 3.531719 9.345998 11.526346 351.920862 269.653317 240.509844 232.226906 234.373263 240.091493 239.419310 238.387358 238.418014 234.094687 218.626668 199.458006 166.758877 148.434400 152.000945 160.247666 165.000599 197.834023 289.220556 294.958494 297.040857 303.714623 326.283080 9.439062 38.181439 23.263397 285.791724 269.366768 269.487865 268.302912 264.380198 258.345730 261.141329 265.611784 263.314190 256.679965 257.879426 261.306884 272.953489 271.268594 267.698022 268.413344 260.512595 251.138313 250.818016 246.047042 257.727819 262.623157 244.789110 70.723901 69.971998 61.131798 62.526871 84.023262 90.704808 94.497152 100.393645 99.430792 102.594885 103.992767 108.262492 112.615278 107.445028 107.827969 110.456079 108.181649 107.083048 104.529350 99.036039
64.032091 50.412569 52.066816 56.526866 52.222750 40.852731 31.078077 25.060579 16.171687 358.589551 352.439111 353.375206 338.802165 322.762019 66.383635 126.355845 127.869435 129.680231 122.934155 112.445890 99.192092 90.528705 87.654802 98.020075 106.167459 104.797765 79.875810 10.895920 345.863381 351.715607 1.890029 18.405657 37.754144 38.718563 36.058438 37.308056 39.191007 38.857376 24.610382 350.696897 49.220959 69.862974 80.857586 88.954981 92.877181 85.917081 64.308350 54.622185 53.899127 45.969464 38.761039 253.840187 239.297986 251.827301 251.629939 255.667693 264.428965 257.008172 226.199298 188.215874 180.304161 235.196618 251.238606 232.721931 210.494471 177.432486 159.690225 184.782035 217.314548 211.429925 195.532627 197.801996 220.497385 223.032581 208.490374 198.229306 191.771201 183.852547 174.974413 180.040151 194.404852 197.200098 170.990261 147.395955 297.022503 308.976583 313.384832 327.783313 335.176283 324.304567 340.941701 355.002280 348.799332 351.605160 353.611617 347.181598 358.134722 22.384384 15.256700 329.327391 322.961045 344.416328 2.369052 14.029935 15.688548 8.812984 10.751982 9.574556 307.421249 240.695389 240.449720 241.314216 238.075035 233.927731 230.139051 221.659678 208.317216 197.781007 172.015447 150.084447 151.550788 169.013113 242.370624 294.887412 303.272725 302.338997 300.640243 301.044698 318.137042 19.883197 45.333934 36.128776 319.067312 271.735457 263.501633 254.782913 242.827131 250.730983 259.722114 262.637116 258.986832 257.832761 257.781190 254.531092 259.686947 263.196303 261.060435 253.362357 239.445085 235.436664 240.013126 237.849103 246.071419 234.163450 220.069212 155.524312 113.104351 101.347448 106.761703 106.515060 103.422583 100.934950 99.711872 103.223017 105.660952 106.438219 108.528880 114.380127 112.263232 107.635155 108.922233 104.166971 103.310718 105.645106 99.858111
114.509946 52.921264 53.821893 53.954324 42.400530 28.729479 25.314410 22.955083 18.005934 359.476011 346.333478 350.615760 354.591519 33.145558 124.859796 127.000267 127.133584 129.966241 133.053372 126.274112 115.062058 106.727611 103.749954 100.845208 95.566087 71.371137 8.043356 354.678410 351.648435 353.688555 6.687931 30.416740 45.265536 41.294209 37.221833 37.470679 40.568465 41.597230 33.120265 22.016902 57.591598 72.963252 77.435823 81.890498 81.769926 73.618228 63.348455 63.079506 66.157134 61.517123 57.461195 73.473740 230.158779 240.145871 241.469142 241.870621 242.475207 232.351796 195.336911 182.478179 200.307940 222.778987 213.054881 199.389328 189.336359 176.332887 173.332894 191.288170 207.366770 205.954989 192.174684 194.750031 210.170009 204.958495 192.601924 183.907984 185.616077 186.216049 177.661601 191.591312 229.604733 223.561696 197.184952 295.282033 306.755513 311.048989 310.715363 314.803581 335.564753 329.233760 325.527566 341.770814 345.687182 353.815652 0.229078 355.579432 7.994348 32.931779 28.225294 329.310058 302.865551 325.760545 0.556906 14.886634 16.494871 10.533951 7.827955 15.582703 25.152397 346.745968 247.548810 236.889449 232.568025 226.664524 221.973675 213.103336 204.382468 197.617803 175.583484 158.793133 173.170174 283.521762 307.044296 307.755766 304.875328 302.316770 298.793142 301.910017 316.380776 21.342003 44.719903 36.003457 1.023030 296.325055 273.136358 259.259945 247.442028 251.516401 256.485529 256.910429 255.226749 253.082615 249.729111 243.887008 250.764666 256.667779 255.762133 243.082603 228.475080 229.785293 233.199706 232.656932 232.751555 220.755852 206.565051 157.780975 137.349318 138.155116 141.188735 135.878946 127.192517 118.640752 106.540833 105.884478 106.630523 102.303670 96.642521 97.006434 106.298461 108.831320 110.399396 110.614407 108.214138 105.634713 101.633634
201.814812 159.986563 57.998618 44.182342 27.360926 20.847029 29.705337 24.912560 6.013166 353.085116 351.133678 358.695161 34.209636 97.591821 112.628174 109.281831 105.060835 104.127290 102.693467 98.366692 86.899913 76.970663 86.412960 93.321054 66.936907 4.893187 353.562681 2.033205 355.425599 351.364203 11.392339 39.292497 47.933914 43.067510 38.664648 40.585080 46.406063 46.512398 42.291831 43.057366 65.913502 73.697145 70.719770 74.176581 76.241584 72.072224 77.716159 83.812806 73.906354 79.182750 95.968807 101.812306 201.582022 225.935496 233.439874 239.794048 238.202457 208.832923 178.537157 180.507957 200.238674 207.328719 196.961337 186.272952 182.694988 179.759494 184.158380 198.191725 204.488833 201.118754 190.771203 191.342203 200.548698 200.294149 193.423499 187.451616 203.878565 250.214371 299.512069 323.712303 332.124976 331.404229 333.027062 326.552350 311.665905 314.247313 320.335720 304.925118 319.927663 333.606584 329.063770 334.848266 341.804098 352.610434 4.521394 5.730460 20.437550 39.978868 35.127514 339.198973 298.712455 303.435907 347.285948 13.289125 13.639291 8.038854 9.301303 21.165615 33.879300 32.253749 356.460626 242.684929 231.456075 224.689053 219.946014 212.756575 207.218595 198.127405 182.088152 190.988651 268.679146 296.167120 311.217737 312.738858 301.781349 299.432441 299.416491 300.890156 319.616960 21.119179 33.665097 24.302635 9.239519 339.045110 312.015296 291.556045 266.679338 257.189274 260.201174 258.122631 253.913955 246.725230 242.869313 239.328940 246.315965 251.370936 246.437083 234.730201 224.483205 224.865102 225.912199 228.008776 225.034054 215.694130 189.426025 147.221227 132.255356 140.827099 149.085028 148.715963 141.545759 132.221248 117.830932 106.559623 102.275436 95.086271 84.828508 85.273658 94.302496 102.953978 109.217933 112.446555 109.872557 104.246845 101.547745
213.996730 219.068651 291.524105 26.725406 27.363441 31.749629 26.594827 7.108712 357.904663 0.886418 0.996264 22.146938 78.625310 93.099143 74.936088 62.174645 68.227145 67.109849 45.094414 37.822431 38.523485 57.482347 81.880026 80.076804 14.251293 352.139430 1.281277 5.988278 356.969854 353.702900 15.371251 45.406272 49.262732 43.939088 40.466166 41.387021 48.340792 51.534573 58.823134 65.523492 77.141701 82.450414 70.861195 72.184920 72.606248 74.754170 81.941417 92.728594 88.594818 84.109750 95.329215 106.835091 178.658773 231.428076 243.547404 246.501434 226.113445 184.893861 176.180354 187.806696 206.433047 207.778112 196.755573 185.158819 183.754108 188.182239 204.865798 214.593131 209.199900 202.312174 201.099770 222.542752 246.541250 255.563289 277.645725 305.344443 314.258960 318.319576 325.408919 329.650618 341.394616 352.005669 342.428161 327.426372 315.792440 314.271019 330.290132 307.587527 296.588969 314.833320 325.809116 335.191828 344.970017 352.484740 3.250234 14.337464 32.730081 41.082893 36.076132 349.373305 301.989394 297.378519 326.540306 5.584046 8.571544 4.022022 15.001674 34.618661 43.547134 39.132509 32.232001 4.484606 244.365628 242.011815 241.543945 236.537590 235.338709 225.007388 227.095253 268.864049 285.169056 288.223505 294.549779 309.728599 307.051405 296.710711 298.578240 306.181073 327.930890 9.499678 9.966947 9.631256 8.174108 355.350048 344.850984 343.893769 313.330650 276.223278 269.337381 260.545701 252.433956 243.665863 240.833982 239.896059 247.175512 247.295756 238.687522 230.998501 221.020466 221.204786 223.260897 227.826086 223.607064 209.659423 180.317645 140.575424 114.486447 115.969632 132.621792 143.764987 142.688664 128.486330 112.940852 95.798934 90.109489 86.125670 78.533484 87.596812 96.569030 100.979002 103.712861 106.712551 103.829519 95.719317 93.512353
225.238417 231.533545 241.570951 295.076773 31.747420 34.211674 14.011232 2.207968 5.437353 9.743282 10.567239 49.788165 75.116007 59.835479 36.492080 47.948347 55.610111 35.059670 19.949193 31.118185 57.352242 81.116452 86.773578 49.457731 344.818133 345.942371 4.771144 9.202708 0.887214 2.599940 27.216112 50.132810 47.433848 40.721622 40.736936 44.516378 52.498804 58.484605 66.894041 75.345277 83.990127 93.398551 80.505000 75.781616 77.087998 78.804017 80.887668 85.665625 89.990970 83.983575 81.371009 80.706997 127.457128 250.590409 252.698923 257.733703 236.599539 198.854383 311.654345 336.785099 338.736891 264.429286 220.486012 241.186147 290.360717 305.691165 321.388828 332.111728 322.305220 312.071556 314.026368 322.901859 328.325070 326.097297 324.302055 327.752984 326.200112 322.503937 328.024554 331.203610 334.471751 356.023170 352.814041 320.963900 314.221951 317.361022 340.141934 330.630958 290.421569 290.380812 301.216840 315.438145 337.663634 352.805732 6.051722 25.978554 39.902600 42.937793 38.907974 0.844968 304.735236 296.101874 309.684861 350.983584 5.174368 8.927942 26.743617 48.338418 52.884875 46.164907 35.921431 28.988539 328.281631 261.968166 262.779872 276.506179 305.219939 325.923297 324.825712 312.920529 301.143357 292.921977 289.731346 296.828924 308.726917 306.136835 295.250367 299.554540 339.104474 10.050385 343.263776 351.076417 6.597024 6.218505 3.118190 9.173324 358.020193 311.210835 280.130420 263.062677 252.388191 243.319550 241.849196 241.176353 247.663820 246.215162 238.061069 228.294515 221.975220 223.170946 227.641491 232.943472 223.326424 200.620497 181.186151 154.490140 104.334645 79.709774 78.585714 92.241751 113.508769 112.982924 103.455634 88.003633 81.161941 82.329244 83.323107 91.487579 101.546691 104.579315 103.846377 105.065344 104.258319 98.749971 97.606828
232.114484 234.751705 237.073885 237.028071 241.730890 7.027054 348.173833 350.513930 3.234970 20.288750 41.744085 61.229959 54.186877 35.478850 35.313443 46.723041 40.549550 24.264478 36.775119 66.682680 88.038386 92.827785 76.668446 4.041782 331.961206 343.876843 8.583293 10.841496 7.602427 13.486958 35.785989 49.167109 44.054369 45.848764 52.210673 57.258127 63.196509 67.300633 70.494672 77.909897 86.993357 96.408682 93.901023 86.434683 86.014197 84.248568 82.529869 81.482348 82.745415 86.532774 81.748551 71.447580 76.906072 266.832644 269.762843 278.996899 296.682811 328.693595 332.670398 339.510375 4.483525 16.155850 349.498199 324.351296 336.665763 342.079495 338.008982 341.694738 342.753710 340.838944 335.104097 334.852519 335.306132 330.191319 325.226674 326.038262 326.673072 323.077310 323.884381 330.409194 332.048133 356.060598 1.723032 322.985069 306.940339 314.377736 339.815128 352.302315 315.094945 288.105432 285.300380 291.461693 308.570683 341.369147 15.867119 37.726725 45.106739 44.470216 38.520435 10.384246 310.363914 295.994795 300.516328 331.086458 359.021592 19.755877 46.876379 59.144082 53.103708 41.284035 33.088122 32.739835 24.079885 283.580238 259.940437 269.135341 278.742567 300.661029 320.440128 323.612120 318.318924 305.333259 298.324896 294.781801 296.584341 302.574747 291.807205 274.596566 287.416984 344.219247 326.494855 333.953342 1.930271 8.719618 13.281260 16.721328 6.027081 347.222182 322.277937 294.390711 263.827133 245.102181 244.122030 248.213162 253.314270 250.434055 236.930385 228.832270 226.093716 227.244575 233.771764 234.987905 216.984747 188.399958 181.851671 177.671438 128.740296 71.788987 59.766107 55.820836 59.259303 71.129166 75.244132 69.779353 76.420047 90.788620 98.869498 99.920815 102.812660 104.828360 106.241761 106.564222 105.303020 103.241228 104.589675
236.963236 238.727187 242.520548 237.358612 220.978631 224.411037 243.860748 237.463739 176.409317 98.876585 79.616099 67.495931 51.353522 38.795621 40.831513 44.391712 40.271773 46.240848 73.136061 86.716757 91.781070 88.799147 39.929800 344.021612 331.761652 344.649017 6.135167 8.539365 15.046860 28.005728 41.575676 46.835210 49.208235 56.967558 62.316950 69.609540 79.380651 83.001023 82.103298 81.427441 89.513581 101.896691 102.469700 95.269852 90.732381 90.064089 89.839001 87.610636 85.713393 88.777748 90.115593 76.276845 66.339372 268.725003 273.688245 278.902078 287.038063 298.864774 310.365930 319.194919 347.901996 10.778189 5.556784 343.977079 342.254286 351.465514 340.215048 330.628006 330.502887 339.944768 341.484419 336.809650 334.201362 324.580466 321.778440 321.904494 321.811308 321.230142 321.246692 327.863368 329.109191 345.591885 6.963436 339.632469 303.857234 303.008263 326.827304 356.266844 346.076622 305.266351 290.923352 289.823430 292.692173 315.834203 19.371865 44.538439 48.583156 43.506905 41.473073 20.655624 316.687426 297.062691 299.595645 319.073571 357.385735 41.005897 58.952876 54.680878 45.006867 38.636842 34.157386 33.800792 36.070223 16.409775 269.130417 256.995450 254.151981 261.833134 272.242417 283.154994 291.697670 285.286735 275.201400 268.815374 262.025970 254.464710 252.948340 235.352316 218.822510 225.526621 240.414246 212.232510 198.823932 264.340518 348.539981 9.505368 4.656464 357.026818 348.583250 342.560712 332.104486 282.261395 263.031907 255.361614 255.988679 250.798187 237.828783 232.649001 228.196444 231.125318 236.688411 233.684005 209.653752 182.738609 184.235294 192.161627 172.049955 99.346193 56.754480 45.558129 41.969353 39.448755 38.503618 60.230344 89.223782 102.406027 109.553730 109.169078 106.540940 102.972777 106.546268 107.611347 106.702703 104.945815 105.770659
237.699584 244.163450 246.968709 231.237970 212.872872 207.552188 203.306516 194.171346 180.359130 160.564326 130.820193 97.634637 66.044666 52.189605 58.056846 61.302848 63.262383 75.596412 85.221159 88.213692 84.333557 57.165099 359.732332 339.987541 334.524496 343.074622 3.792889 17.329000 33.403681 42.070644 49.077470 55.831134 62.012507 67.685615 70.465137 73.561592 80.089894 87.360605 90.516445 89.131267 92.071477 106.117973 106.756229 97.102694 92.134478 91.621945 92.510337 91.421776 87.296698 81.212860 84.134960 80.721232 70.962209 268.096926 268.235859 270.644470 265.823120 261.963762 267.856514 282.434787 311.290295 344.920749 3.121054 0.474224 351.282581 355.879056 349.697978 313.664265 294.112602 303.410687 325.888794 328.600874 321.884987 315.767869 315.782807 319.342765 319.811867 316.498198 313.796542 317.571466 327.082062 341.327176 359.937085 350.039460 314.876026 296.653041 305.418674 342.536120 357.280946 331.772716 302.126120 292.938579 286.821314 291.362051 6.537723 45.209293 46.464462 44.024067 44.422066 23.998928 323.356493 298.896671 296.264575 307.998148 7.685670 50.555250 52.418565 45.778677 44.106462 39.186388 32.685642 37.100853 45.096754 37.065181 344.626859 251.509654 246.898639 250.601253 248.352265 246.107132 241.627279 235.072388 230.820921 229.118137 226.251145 222.873007 217.649762 207.166716 197.813786 198.439020 200.925676 194.553203 194.038310 210.024566 222.735245 237.025115 318.895565 344.146483 342.677819 350.066574 3.521453 353.500259 311.922186 266.325680 262.358522 257.951349 245.315041 231.444576 229.513988 236.056413 242.360206 232.150756 200.645576 179.951649 191.439998 201.454081 188.914189 172.054791 97.355350 47.659852 45.540349 51.672614 66.262717 93.190974 103.656785 106.610176 110.299041 109.973777 110.319394 108.328236 109.177928 107.652906 104.002093 105.419746 106.709124
240.932530 247.225251 241.009852 218.862744 207.104601 199.454799 192.433610 191.690377 186.652022 172.370527 155.393735 127.880135 91.682001 81.393481 85.232454 87.687193 83.932308 83.961826 83.262201 82.546682 65.968079 16.368254 353.056772 346.150957 339.696923 345.996916 11.368161 43.604909 63.296705 68.428548 69.980517 74.849447 74.457019 75.200558 76.091250 74.500019 76.791549 82.363491 88.902937 94.966725 96.782817 106.716069 117.027941 99.587018 90.371857 90.017154 88.105307 86.937228 84.864162 73.495352 72.978767 80.971750 81.374353 269.961469 269.147972 266.981152 253.215110 249.802518 256.149730 266.332965 280.566681 313.153385 357.385498 11.812175 8.240303 9.912841 28.896555 295.424177 268.581713 275.125677 286.098583 299.293839 302.246971 301.571060 304.069528 310.993609 319.234293 318.006517 310.427421 306.189118 312.566111 330.035793 350.823475 354.262404 329.660128 304.341505 298.552838 322.414630 358.151944 346.285250 312.367842 301.383420 295.409871 296.460814 342.015666 33.931955 42.499255 44.381511 45.239991 27.565340 330.084805 298.926030 293.566860 296.551035 356.444260 41.694999 44.942936 45.673571 46.826523 41.318802 46.094976 61.746479 57.721853 35.631225 24.315706 312.850903 247.293495 242.161267 237.570181 234.445621 228.164496 219.233067 217.711177 218.121462 217.529891 215.298468 209.188204 199.046090 188.613275 192.011045 196.970935 199.084971 202.823915 208.601546 210.681988 214.267732 227.382525 250.862812 287.537579 326.017689 6.824612 9.597324 359.814177 321.887631 291.827881 281.575705 261.708291 227.457162 235.855523 248.642224 248.403074 223.693639 190.303247 182.286426 200.799875 198.027961 183.300426 190.212508 190.817834 114.103110 87.583599 86.778711 99.478943 109.995918 108.884776 105.953894 107.903962 107.066601 107.265158 111.616368 115.993230 116.405082 110.138712 108.865995 107.453455
249.393208 245.326202 229.042677 210.321589 200.461064 192.909698 191.358735 192.034140 188.488263 186.049376 186.725159 162.403027 124.143449 97.924742 89.785239 92.600002 91.390376 86.465367 82.383865 75.209598 37.832175 0.953937 349.534209 346.246557 345.853880 3.118783 51.667424 77.778742 84.271442 94.406662 102.736237 99.407168 90.469740 85.084542 83.141538 81.550090 83.610481 83.363623 85.579957 96.755365 100.228136 102.569305 123.758844 115.010740 94.588173 90.622708 86.339121 80.978113 78.573342 70.847233 71.866122 82.590369 85.893232 281.996899 277.788096 270.538816 249.824555 249.040690 255.264055 256.478816 254.379860 254.738312 266.046425 26.180409 358.502412 17.719749 48.208472 20.264574 280.820237 275.466889 271.376436 280.831732 286.861689 283.610594 289.680313 295.846030 308.206115 316.652528 309.900344 296.691532 294.696066 307.975268 338.383225 353.887707 335.861845 311.233983 300.480039 307.778968 354.624496 356.183424 313.815282 300.660001 302.122919 308.557167 331.064487 25.052781 43.602689 47.901984 44.985264 25.694869 343.889352 301.535552 291.251623 292.234725 328.575053 38.372366 47.364173 53.624547 62.413541 69.337426 79.910908 77.539088 35.868194 18.059467 26.708649 24.927044 298.944756 240.645384 230.237286 229.350231 226.444649 215.816081 211.219530 213.800869 214.290889 210.249183 208.274192 201.639548 191.287828 197.992403 207.153542 207.038287 205.666902 209.361344 210.460695 215.188128 225.464945 238.318191 249.816800 250.453000 294.395794 6.271477 347.246481 333.310697 318.231010 322.179675 353.116317 247.444929 251.163434 258.928153 244.402421 204.789647 182.649515 188.475163 213.507306 201.301891 192.163975 225.086680 220.438192 137.617049 115.156141 103.046978 106.061725 110.606261 109.623018 107.075806 107.972274 107.024123 101.170622 100.266332 107.020913 125.323058 133.999889 126.757448 116.122460
254.707367 238.158693 219.148491 206.648922 196.845643 190.604629 190.813527 193.373145 199.096046 207.385594 203.716635 178.881266 150.546057 122.447791 98.881947 92.575583 94.640986 92.382018 84.864545 58.766114 6.773736 347.765314 344.845535 350.512537 9.913556 53.003498 81.010944 91.547051 98.094995 103.663149 117.140269 118.106612 112.803590 107.833136 100.296496 99.903578 100.307192 94.841004 91.108896 102.073171 106.745080 103.717155 117.395433 131.345207 109.555430 92.843772 85.539317 75.486531 73.686637 78.083797 76.556231 82.762976 80.229830 294.101647 279.632550 270.030678 248.978401 255.340595 258.289819 253.008020 249.227355 239.966578 217.767366 233.116737 295.867961 25.513357 57.043972 37.645136 283.319877 269.072704 267.416613 276.169808 277.186634 271.423466 273.980042 277.419086 282.654263 293.549734 295.288665 287.718979 285.492729 286.290658 312.278796 344.654615 338.716369 315.354277 300.613346 295.967129 330.384249 2.044605 331.578089 298.847401 294.566016 303.798155 330.055947 26.051825 49.177090 51.421957 39.203802 22.978401 358.965138 316.977067 296.777303 294.331820 317.280984 41.199322 59.689849 74.899474 86.532590 94.053922 88.542351 44.105292 5.308432 15.150915 26.994728 28.923564 21.041960 329.950619 242.746797 234.377666 225.464633 210.520473 208.866467 213.255876 211.978472 210.798242 214.126393 208.758381 201.817611 211.195416 216.474000 208.712458 204.571383 211.747959 213.610672 218.712291 230.049323 242.657114 244.403345 232.323984 226.625780 271.992496 301.365006 308.672721 312.703863 332.518596 29.036354 50.826342 259.463774 257.324484 229.536480 184.786999 186.403522 246.919973 272.944437 247.932100 248.363423 254.824388 187.928551 134.237435 124.560070 110.923004 103.057451 102.823692 106.619304 107.373403 107.136787 104.408766 95.174521 85.665733 82.549373 91.981731 115.539848 138.509415 138.863900
232.861425 219.851038 209.522914 205.766121 194.490264 189.267660 192.767972 201.246322 214.393155 213.934297 200.171991 187.267635 168.479499 146.015526 115.086384 97.574649 96.779781 97.364233 80.002142 21.385983 347.148628 339.478357 346.270275 12.804266 54.277894 81.789840 94.206293 97.034976 101.540432 102.073480 108.043412 112.304694 113.111178 113.701466 110.757824 109.345232 106.997554 103.994660 100.347789 97.406728 97.779728 104.042419 105.215717 124.282851 120.945723 93.643079 81.132367 76.157432 78.918987 85.396619 77.214499 79.433231 80.683306 297.526344 271.900807 260.838435 253.631407 260.823981 266.472982 262.392263 259.866968 240.117445 209.692469 224.728058 236.546586 191.592175 81.069269 67.237839 278.012819 265.090344 269.869188 275.258997 268.919910 261.504654 259.155718 261.036487 262.231378 262.922514 265.205945 276.291620 277.795491 274.091933 280.810925 312.842898 331.460123 313.492340 303.124803 296.282556 309.476362 344.521036 340.363272 308.852579 290.971516 290.502456 314.437292 37.951406 63.083028 55.731781 34.056619 21.033452 8.557623 335.852582 304.887081 300.599823 329.332548 54.423645 81.278860 88.658318 91.442562 93.579551 68.332930 356.853513 352.925580 13.920454 26.771106 27.460625 24.365340 19.706739 358.175161 272.702308 227.087475 212.712464 216.160353 223.092485 222.004066 220.995683 221.324804 211.194964 208.951745 221.549892 224.936770 220.350584 209.437890 206.455184 211.556877 221.013707 235.406293 241.544408 240.288558 235.419481 238.368674 258.142309 270.133060 276.587766 284.708581 316.901236 66.954008 78.929797 266.690095 253.926885 240.432570 295.605289 329.715689 317.033838 312.505205 337.789585 330.378677 236.599120 152.741247 134.038470 126.032351 117.734918 105.743208 101.057871 103.230799 103.382534 100.767258 94.123111 86.748165 77.727811 70.969607 68.616036 71.826557 90.652374 113.457735
212.065188 206.597835 207.293164 210.887518 193.074365 186.417544 198.144313 212.740387 217.014792 206.463248 196.434433 187.410743 176.738745 165.293611 133.232336 104.484425 95.260088 84.642636 33.106188 351.957610 340.902160 341.045114 3.920255 57.753126 76.696631 87.304431 93.954370 92.865041 88.974603 85.607685 84.936148 84.195521 87.775743 90.512922 92.674920 91.363440 88.591406 93.002204 96.180732 81.273457 75.488042 76.964772 74.657340 87.945114 111.142387 100.986655 84.392175 83.799503 85.709995 89.566980 81.995997 77.818390 79.735347 261.620426 262.914078 259.674136 251.050945 250.959543 257.613068 258.317546 253.365673 217.783723 196.585968 219.087250 224.289875 205.345837 143.043987 98.130102 277.479898 277.324468 281.351836 280.086173 266.371665 251.957266 249.352353 253.917673 253.857013 248.888784 255.395956 266.982643 268.397963 270.038281 262.679130 270.886815 299.725555 302.518478 299.351617 296.267754 299.886748 330.673534 336.121368 319.240640 292.120554 276.817803 282.425136 60.105269 69.617232 54.581216 20.140560 10.496158 11.717917 355.141537 315.184230 303.452187 339.679797 66.867250 87.271894 86.553420 83.557997 76.206526 10.795281 335.218343 345.734010 12.964509 28.037977 27.325216 25.527721 19.140551 13.610840 11.576667 353.441695 256.332868 234.765914 236.823358 232.194186 225.582355 223.248517 216.958826 225.155892 239.120802 242.130466 230.307895 205.085199 199.620569 213.997925 227.055452 237.960940 238.289453 236.447662 238.978053 242.434938 245.176740 250.588513 255.434236 260.838346 253.705036 91.191651 80.756330 274.792378 263.745091 284.127045 304.800041 330.973687 341.204505 344.935710 348.411645 63.544711 136.436198 138.150907 133.674944 126.918889 122.233625 114.512736 108.190681 103.089659 97.963901 91.944932 83.462986 76.279871 73.809493 70.197285 66.327785 67.969283 72.379537 87.123069
208.973447 202.071488 207.691094 210.856922 191.230831 188.725694 204.568212 213.861074 207.296409 199.281639 196.302847 190.759281 183.375485 180.358574 154.473901 111.145593 75.960389 35.441852 1.217280 349.349438 341.384452 352.559970 48.200789 75.137048 80.205764 79.960493 78.088885 73.142814 66.872780 65.788410 65.637471 69.065368 77.085881 77.812849 75.794685 71.599558 74.631472 81.161126 76.686368 62.231089 57.628164 57.501902 64.334978 71.221057 81.340443 93.187443 95.288879 94.357395 90.691748 93.339798 87.885630 75.421052 69.570181 26.304024 255.670150 257.160859 244.628815 241.384512 239.627055 240.484485 230.550500 199.275240 197.263595 222.840030 220.059427 206.489412 189.576141 202.356188 280.518619 280.525264 281.838634 273.521190 261.255791 250.646076 248.213860 252.370583 248.183864 245.204117 252.752631 259.886309 264.025607 267.086505 259.397987 265.321783 278.568780 293.742989 290.993869 287.307107 284.733142 304.450368 330.568308 332.709521 310.439512 274.418620 255.413959 66.987555 50.912725 27.531055 2.169789 5.163943 16.302580 4.844000 329.468149 308.223198 356.129775 74.510194 85.983791 83.432102 74.518691 56.824658 338.268520 320.028278 340.695703 13.895049 28.581411 30.628148 29.409616 20.349005 14.827625 13.956485 13.928530 20.365536 293.486809 245.112152 245.161468 238.248968 234.316771 230.921540 243.839695 253.598657 255.651033 249.686752 225.407660 212.691352 229.032685 237.022088 240.023972 237.238361 232.679673 228.761296 226.969949 226.897317 229.712870 241.814015 247.744792 233.988243 115.242692 85.059144 277.357839 281.085520 298.198284 306.008331 319.413924 346.407488 16.738574 105.073967 146.885995 151.649516 146.572581 139.721288 130.171980 123.436063 114.582316 107.070029 100.848130 92.789785 85.654568 76.442091 71.066072 71.868760 73.908012 77.246065 81.245027 79.938385 82.609187
202.422793 200.904178 211.806039 207.272943 187.001427 193.864400 209.722485 206.658254 199.184366 198.370320 200.397855 198.690162 192.087844 188.793773 177.094320 132.742069 21.867752 9.161450 5.116563 10.576546 3.651540 23.459024 69.236564 78.729683 88.167389 81.421046 74.248117 68.213236 66.220776 67.821432 71.527066 76.674321 80.805288 79.070918 74.917192 74.835427 76.986411 73.007220 57.709827 49.587978 55.439243 65.797758 70.259178 74.726907 77.453445 81.578714 90.135558 96.286958 92.811294 87.167328 76.717871 71.562602 68.528551 54.535438 245.499259 250.280538 248.519157 240.800692 233.369266 234.516552 222.882192 204.353999 218.431868 226.259347 213.283854 208.403984 211.897173 241.283658 268.245817 265.940605 261.202499 250.896213 245.287596 250.688470 250.496694 248.828059 244.932403 245.881451 251.535802 254.901143 261.462262 259.163861 257.481771 263.527946 271.251328 284.678919 284.856272 277.396924 275.043213 276.394596 300.357480 330.123718 333.743882 302.951566 260.386361 262.574132 10.238787 19.508449 21.875292 27.918560 22.668761 5.003920 340.890908 323.360119 36.471226 77.452450 78.923427 75.667234 66.039909 46.380106 329.452039 304.108816 323.409807 12.073234 30.840991 34.717782 30.925474 22.174799 16.724991 17.714573 20.814743 28.449080 19.224266 279.488115 258.081628 251.584653 237.740308 235.466108 247.860357 255.019215 257.072449 268.175691 305.350114 345.203238 284.761468 255.457130 244.913510 235.735438 227.617071 221.692673 219.976961 219.483733 220.841254 227.956850 234.489288 226.460483 159.649567 118.828528 275.883911 278.253752 286.886999 299.807591 317.770407 349.422169 77.491963 120.077717 141.050585 156.994922 158.358534 149.803577 137.186163 125.735650 113.086776 101.274258 95.979208 92.259227 87.928188 77.942483 78.042783 78.994497 82.537291 87.622910 88.589059 86.387001 81.352655
191.297630 197.973574 215.155560 207.545147 188.444178 199.820158 207.404148 196.145121 195.821852 200.113407 205.200478 204.947504 195.545381 191.677163 205.540443 259.147656 328.515565 21.870206 46.820799 74.608083 87.231096 85.918061 92.566671 94.492799 103.549922 101.899721 92.406773 85.441680 81.398401 80.438323 82.295126 81.522358 80.374053 81.263301 79.104998 78.754689 75.191532 63.584050 54.019372 57.776160 66.304437 69.120553 70.645174 77.282621 84.104455 88.239990 87.564548 87.905268 84.644766 75.528103 75.114786 77.803936 72.504454 62.045418 238.451103 239.528450 237.101311 239.245606 239.527142 236.340421 222.894827 219.058397 229.680750 216.513549 205.558760 211.003323 225.247522 242.900237 251.657930 246.526959 243.817046 236.285225 229.261223 237.217759 246.834964 246.425360 247.750072 251.358459 253.935473 252.118524 254.303810 250.743764 252.959999 259.367056 266.146761 270.630068 276.835670 277.129201 273.094446 268.040282 265.428361 287.478843 313.859558 318.335348 286.650546 269.674596 295.164211 44.171639 62.840361 56.853582 6.968257 347.654852 341.589466 351.462957 72.390582 85.482801 77.138557 71.370475 65.020818 45.639875 332.034058 295.813929 301.898704 358.841416 32.352127 34.861839 27.458266 19.627046 17.979808 20.183138 19.676032 27.440439 29.902594 6.326834 260.583938 236.934196 227.163629 235.431882 244.967864 250.410237 253.887749 262.758178 293.635206 345.376068 336.100641 282.100686 255.090521 236.749658 226.277125 222.365673 221.290942 220.769305 220.359887 224.106616 226.459669 215.319775 188.715638 202.166346 257.090043 269.569675 272.260351 279.211358 307.962484 28.438544 93.264284 113.863309 128.152698 146.798401 157.684953 153.578143 145.769838 130.405312 116.332750 103.048669 96.938540 95.978383 95.375494 87.943195 86.978859 88.649567 90.495148 91.939119 93.684529 95.416327 92.527268
186.326284 205.649507 224.757865 205.658966 190.298440 206.168892 203.255864 191.556329 193.526212 198.694060 206.149765 203.254531 195.157607 201.496795 229.761200 255.053359 263.231281 71.638539 87.281100 111.903470 163.348857 149.499899 116.044357 108.873487 108.057493 111.184922 105.380859 99.658668 91.637392 85.816030 86.022619 83.763944 80.595891 79.283917 80.386728 80.237828 76.299004 69.899249 70.589459 72.858388 69.825444 66.532381 68.691364 69.569852 76.170309 82.182460 81.155391 74.779775 69.105509 77.941722 81.591928 70.163949 60.270717 59.514120 46.631858 227.725671 222.494447 222.131727 241.173235 236.883177 226.697038 227.563920 224.407146 211.254104 201.681874 213.647236 235.128395 241.916728 240.829318 235.007375 232.603269 223.434242 220.007919 229.069064 244.971073 250.362929 253.474748 257.549875 255.200285 248.507653 246.697545 249.265384 254.455030 257.979202 262.917234 259.054892 265.908266 274.320664 275.393268 272.211813 257.224469 253.369786 258.664049 272.584090 293.300367 287.010498 264.022375 99.319760 73.861845 43.244496 350.689506 333.159628 337.118343 22.808955 76.522080 91.459082 82.720661 73.736871 67.945661 48.651752 339.765490 291.639554 290.848712 336.624011 23.827545 27.666383 20.906511 16.975453 24.469907 24.916600 19.778885 27.385891 33.878811 35.740028 34.593474 227.024859 227.608456 236.248526 244.830004 250.183599 256.073392 262.400333 282.695553 336.496137 356.252646 319.240979 290.711740 256.341755 239.275044 235.041191 230.192794 226.044572 222.954740 224.000111 224.005670 219.616426 210.960954 218.221976 248.246291 263.981554 266.828600 271.906377 295.278790 43.202068 81.211484 93.701658 105.650483 114.377096 128.566410 126.815272 135.031406 129.685454 110.552195 105.354756 102.044902 98.316954 94.198681 97.771245 97.448135 96.923937 97.507493 97.619575 97.457748 100.019551 102.303476
200.345950 223.711200 225.401453 199.299216 196.792052 211.670580 193.594094 187.310703 190.945370 194.057779 202.191144 201.544744 205.452347 230.793148 253.951359 257.187909 250.345305 138.296116 118.069179 122.981384 162.944148 168.460466 122.607398 113.766670 108.891303 108.754649 108.162357 109.239461 101.280642 91.488204 87.656518 82.564089 79.764945 76.431882 78.371039 80.257802 79.475335 79.446910 81.707353 77.653290 71.656545 67.297570 66.137082 64.995730 65.142313 64.313457 63.187118 60.148406 63.863026 76.329894 77.863176 59.827625 55.826050 55.456146 51.671016 180.643746 213.963490 220.565062 229.234063 228.254324 219.462685 217.095374 218.248972 211.510656 204.511147 220.679918 241.028033 242.291204 234.505512 227.095011 224.532152 218.572946 220.479921 232.664369 248.507620 254.759992 258.708910 261.630400 254.390254 246.889347 242.404117 247.696813 256.464411 257.529882 257.576643 253.181406 256.794904 270.468289 272.853917 270.331542 255.502695 237.455321 237.903285 254.237758 274.319752 284.002535 288.318730 80.556449 40.179788 9.017494 346.973525 339.213500 350.220174 39.218577 69.643410 81.888391 81.263260 75.752646 71.067563 55.529069 343.462264 295.067365 288.663932 309.948232 5.233651 19.589323 20.652321 25.724073 32.624701 27.452712 27.640772 36.173573 39.839651 43.269663 46.118383 49.717503 236.052464 243.050555 250.968681 252.680267 253.482601 256.952925 265.947995 320.185435 356.469588 342.118118 325.561391 309.185140 276.231949 259.387390 246.098478 237.653521 233.842302 232.659573 233.818099 232.732811 227.619653 226.747303 245.265178 258.797106 264.488789 270.278809 279.988082 48.472380 71.893541 73.067336 74.930647 66.380587 60.484922 67.516495 75.698749 78.042849 75.322428 88.332106 93.151685 88.803395 88.746969 96.802392 98.179755 95.094297 95.161098 95.679847 96.405553 94.345188 90.121906
218.392421 231.431197 214.876597 194.423720 207.095944 207.237994 181.946513 184.042267 189.071624 191.790341 198.047934 209.758123 234.904722 268.834021 279.316055 263.997615 229.705303 155.516095 142.481557 143.814020 171.646513 180.782701 135.136010 116.387426 112.140708 111.114692 114.332472 117.904718 112.078476 99.350839 84.918026 75.714353 73.650935 73.400741 74.257371 73.793854 75.431599 76.177611 76.972770 74.964569 72.024541 69.073799 66.591805 67.250537 62.641767 60.364218 62.619358 65.240468 71.042540 71.565051 81.524791 92.824083 65.953026 46.736262 48.113056 51.092929 201.611794 223.512708 220.233951 208.171205 204.145301 209.515676 215.716927 211.589788 211.984117 234.074387 248.561299 245.104393 230.588927 225.123089 223.681052 217.523245 223.841855 237.066591 249.442725 257.366435 261.211073 260.910873 253.492105 246.881997 242.212506 246.504344 256.755367 258.025121 253.896094 252.943896 254.246162 266.431509 270.909260 261.263427 251.915136 241.304860 243.309109 250.052815 251.466038 254.798883 291.149023 350.358320 356.411464 358.994437 351.994589 345.755237 4.660384 47.803034 61.740751 70.781303 77.778925 77.939804 73.044842 56.416408 332.491076 299.622372 292.462870 296.414682 337.984793 14.008443 29.124805 37.871753 39.763841 37.225166 39.410524 43.100364 42.795023 45.008318 49.955154 53.150097 42.268041 255.781994 256.167906 251.984227 250.492672 251.346559 254.798724 276.072671 343.720632 356.795212 348.285620 345.985246 313.473545 276.196782 261.405661 253.646566 249.811176 246.209658 247.769080 240.342593 227.679284 227.936363 240.753838 251.630682 260.653500 267.037058 264.624632 186.981057 75.681656 69.674761 61.735764 44.214188 34.078361 49.256663 50.605744 46.596561 63.895403 79.209668 85.011589 89.335952 94.061903 94.312836 94.545100 91.440778 91.850308 94.015035 93.919982 90.831161 80.374616
230.360976 227.786589 202.453735 194.072287 207.843244 194.963744 176.628068 180.122027 187.204950 191.875969 204.909980 235.879504 262.089958 272.440579 275.248073 240.941064 181.057988 152.045564 147.785063 156.435204 175.214059 188.759963 169.030542 130.178037 117.683855 116.058000 118.575944 122.580778 122.898232 105.815400 84.563238 72.882043 71.889054 72.596013 73.169870 71.983220 70.945153 69.461054 66.582086 67.400204 70.029320 73.631414 74.804705 73.945780 67.952351 65.086016 66.988480 69.804150 67.266785 63.750272 74.522009 104.142850 252.001305 18.657763 39.612539 46.733500 56.822893 181.659748 212.308632 202.478273 199.523936 211.440751 218.224063 217.442973 225.732619 246.701241 250.368932 238.544973 227.275266 228.056404 224.260106 222.950265 233.275983 244.253764 257.878270 262.037493 260.898739 254.675348 250.835846 246.042141 248.084594 250.710758 256.373958 253.861393 252.513419 254.816292 254.277069 257.408214 269.241365 263.035994 257.650990 260.678138 258.712885 246.918734 237.269833 244.265325 279.126324 317.149618 323.550105 340.396995 354.595000 7.447542 34.314598 49.484606 57.511819 66.142305 74.713349 79.606139 73.416215 49.830646 329.120084 302.228446 295.256990 291.171670 305.369340 8.100406 40.041152 48.817487 53.223242 53.591772 53.314900 50.163380 41.855413 44.479644 53.528936 59.603510 57.086461 264.682838 259.493510 253.636680 249.513203 247.988717 249.109175 253.646397 281.175337 355.088712 2.070031 358.710370 352.687918 301.022814 261.654771 254.004570 245.696435 246.361128 245.189107 233.745195 225.292821 228.267006 236.879991 247.640925 252.566624 257.539346 256.729255 216.027373 89.364061 73.592911 58.097751 40.243281 39.089584 49.269592 52.131101 61.906215 88.453190 102.454403 107.248464 113.644779 116.941992 117.987559 118.641399 115.674690 110.380389 108.063293 101.759783 97.736105 95.274155
222.923543 213.093872 195.105213 192.088311 195.792363 184.769522 178.954560 184.670917 189.102599 200.176939 236.589463 271.376479 277.338117 259.321641 231.540458 190.422152 164.701827 152.677346 146.865815 149.830717 174.696858 198.365951 191.879153 156.129533 132.630788 121.825535 119.433569 125.362284 135.772351 125.349562 101.396086 82.549499 79.270301 80.416935 78.069380 75.307845 72.544722 68.958686 66.072727 69.489406 76.526320 82.689439 84.765982 76.457434 67.757165 64.660496 62.310717 60.162217 59.382780 64.933989 77.613729 89.164797 274.559823 321.187898 34.732384 52.500944 60.370144 68.530016 188.161556 197.017338 204.907846 220.719096 228.517504 229.029245 243.041010 255.769079 253.125925 241.029442 238.003340 237.865849 234.445418 239.689733 244.428157 255.363045 269.303858 270.785736 264.811631 253.958362 251.057868 248.220682 252.771648 256.742322 254.553684 249.688982 249.187715 251.419520 249.273283 250.867350 262.487725 268.756769 260.709515 261.874047 265.522839 252.359665 244.333890 250.239788 262.680297 283.861783 292.413802 298.973772 343.248122 31.178346 49.893022 52.060783 63.584139 69.697994 74.925538 79.426558 74.391750 33.585467 323.658987 304.599521 296.254572 289.329892 285.176428 340.376382 49.493838 63.254670 70.665807 67.901822 68.028945 51.802137 29.614812 40.266619 56.268704 62.077597 57.749208 348.952106 263.263863 254.658436 248.179848 246.897656 246.206253 246.566001 249.053152 291.325507 357.941144 11.163862 17.995348 8.508383 309.205252 284.158697 255.915643 248.319092 242.138758 231.174042 224.016309 228.706262 236.598107 242.439293 244.772937 249.891581 250.225806 219.623054 93.229184 71.095758 58.078200 40.496275 42.492928 54.319584 65.473206 88.286133 109.022770 117.807002 127.212624 133.954048 137.339196 139.501061 141.749348 141.660961 136.721951 130.781230 122.860066 113.422126 106.580678
210.386198 205.310717 201.074367 194.381120 181.099536 182.477227 190.210393 194.152111 197.608948 228.482162 266.513462 281.735631 264.837058 220.809081 203.326038 178.160504 162.111885 158.776506 149.670166 139.283387 162.405672 203.126954 201.310495 178.093920 158.647740 134.587687 125.566134 129.314583 143.675633 150.568207 139.373335 107.812529 87.472473 85.209273 82.933398 81.113844 76.345296 70.906508 71.230590 72.251506 75.747447 78.581531 76.387048 64.341374 63.036179 65.778088 66.615847 67.223162 74.221003 79.265996 86.819823 79.864799 288.162089 287.616076 20.747016 55.096644 55.665613 46.775916 22.434740 29.613426 196.841384 228.616114 236.239472 241.654692 258.692626 259.774050 265.750805 265.532997 259.183969 252.373759 257.162885 261.715726 262.486701 269.351556 272.780684 275.743206 271.846860 258.614266 253.895582 257.788628 256.606183 258.435650 252.316366 247.716389 246.715457 246.902277 247.413466 251.608963 254.374717 254.311985 252.954263 250.916855 245.338350 249.386371 265.578147 259.163524 251.927483 252.804010 267.727472 266.048777 288.733362 32.552727 51.978057 60.966463 72.616540 78.061753 78.736127 78.167397 74.078220 2.722032 307.594367 297.650878 291.647866 286.999800 287.278495 315.407171 59.533588 78.867102 80.240060 69.921944 63.339823 22.072699 9.844996 37.863037 59.443553 62.222766 56.548848 36.024785 292.648187 258.936922 253.797610 249.740854 245.683585 244.384574 245.282235 253.290540 295.323508 14.211628 29.875666 18.718005 341.524184 336.311248 324.898175 271.761441 249.833955 230.792303 226.693953 231.731738 236.302656 238.406389 241.889754 244.433449 240.987037 225.314106 128.148677 78.978628 68.830709 60.026665 68.019085 79.073454 89.318216 103.787217 109.908872 107.496750 108.383335 108.142667 105.093982 102.823919 110.361512 119.211022 119.105967 112.604603 113.354557 109.616771 107.318572
200.794888 206.936267 216.873110 197.319972 164.860004 182.141036 205.203090 198.920271 215.139853 262.373938 271.655193 267.601260 215.133022 201.220115 208.715761 184.004882 150.210315 153.959539 153.151876 137.536381 155.311971 204.237185 198.490396 185.708833 182.014089 154.507484 134.989017 134.960621 148.276814 156.447557 159.049470 156.549389 108.138419 87.012111 84.414638 82.524974 71.317487 63.196170 64.320096 65.202590 64.075522 63.596600 62.124101 63.533742 73.119621 77.435333 83.541540 85.757258 90.104755 92.157633 94.446592 78.464626 286.709988 282.050266 346.792689 55.237488 49.302816 36.129347 31.549255 40.712597 45.994857 241.212678 235.266562 248.779060 258.513509 262.703537 273.182151 276.769794 265.941444 258.538791 267.738830 274.929727 280.880612 275.147843 267.534999 267.287012 268.225483 260.741543 254.631106 260.768459 260.452903 257.185920 253.494350 250.280497 252.426352 249.642342 252.118046 254.225262 252.378750 240.769942 232.472219 231.230142 226.964409 236.283283 251.126643 262.260150 249.867569 247.529291 254.391217 260.688841 276.081327 9.400037 52.739810 68.099342 78.773723 82.049640 80.449411 78.324571 72.069291 349.984405 291.631792 285.039712 283.700432 284.973712 289.355388 315.687137 76.137398 87.370259 78.671490 57.771115 36.056460 353.395242 2.070825 48.407037 64.404180 65.092405 59.958371 47.225491 358.021055 268.343813 258.676228 253.109442 248.797140 246.842725 245.198454 245.110155 249.050779 306.320121 26.462001 18.691018 340.572943 341.619498 3.536403 340.420452 275.350190 241.690311 236.552238 236.312746 238.912273 238.658316 240.499628 242.371629 238.789270 230.190084 181.198971 109.979196 103.459479 117.673366 113.673330 103.590510 104.356259 105.676128 98.165611 78.620068 61.396787 45.578104 39.657439 45.858262 49.085295 46.552600 47.230429 56.040657 66.600189 76.243301 85.512846
203.189601 215.124097 220.069178 187.928221 165.465174 191.826142 214.812334 227.328330 277.316557 290.323347 276.560283 232.368299 190.385374 204.164778 218.125058 190.488887 150.146494 147.839910 152.418174 140.228770 147.920337 195.915212 198.615692 192.250822 194.208253 168.566106 146.955739 141.796509 154.856717 160.703367 147.629769 170.312648 169.032513 115.392149 104.078514 96.793211 68.899263 56.528175 59.049497 61.527938 62.905537 65.775833 66.445526 74.435066 80.972321 85.461119 89.045336 91.313362 90.010919 90.645242 92.384773 82.770761 275.821177 277.558743 306.302956 50.004036 38.116425 29.447705 36.579451 43.677745 44.134484 42.382286 242.330575 251.524268 258.258483 260.228848 256.513127 244.723875 239.110547 250.823656 260.771393 265.126819 274.920616 267.962225 257.625734 257.686815 258.593279 259.981147 254.895670 257.375133 261.809466 258.561215 257.164056 258.775899 258.330451 257.854306 259.359883 259.862652 253.540954 230.177012 215.868541 210.665865 215.165477 227.376331 235.963300 250.688416 258.970770 257.185139 256.561685 267.198655 271.726915 324.737187 55.219927 67.288472 77.580471 82.078441 80.678646 77.563604 67.224024 356.443933 292.187036 282.708593 282.411714 284.279489 283.615179 312.562530 87.432336 87.266888 69.158629 37.597288 12.319725 354.394629 20.721437 62.652424 67.687295 66.896581 64.175744 59.374742 47.627619 284.322720 258.397669 255.229786 253.839045 249.633786 245.234872 244.237887 246.682506 258.180876 353.480998 18.304501 350.790855 341.395975 4.979038 6.240512 348.150285 282.523871 243.277786 240.568207 241.315138 241.199708 241.766929 243.876028 240.075020 233.592261 196.715517 128.667509 126.072336 139.296849 138.670302 115.171296 102.567189 91.038026 73.008882 59.871526 54.242371 48.343472 49.952434 55.514423 50.723605 52.409439 63.810065 75.460151 79.974041 84.395933 88.052209
215.467061 221.726824 211.744521 183.509086 175.406887 209.167502 246.607072 277.034775 289.481054 285.472438 245.526239 187.746252 196.755513 228.931880 217.064450 182.977947 151.492361 142.486738 152.114596 142.324805 150.025850 191.415694 200.357750 199.909803 195.757625 171.619735 158.222053 150.201289 159.433728 166.283504 141.211901 164.757253 190.413281 155.751604 143.070211 143.821862 114.414810 67.304557 65.078184 69.038606 71.231463 71.771200 70.911390 74.803267 77.157756 80.984194 77.279017 81.187028 86.654192 87.734502 88.013778 87.015841 269.975266 272.539652 282.918876 17.165500 22.814770 36.358761 51.152345 52.740685 54.021753 62.748962 261.726978 252.074609 254.428626 244.626030 228.626762 220.726824 229.340148 248.380298 259.919553 258.473637 260.969851 263.208580 255.778007 253.889960 254.689966 259.365998 259.908448 257.921959 259.897638 258.480465 254.783221 259.879714 259.335541 264.706232 265.857991 260.750156 242.136526 209.226856 198.908457 201.694635 212.860045 227.165366 240.699955 257.015457 273.815075 277.571758 274.119693 273.340066 261.925556 259.452520 65.150682 68.677579 76.351779 83.139270 80.639073 72.653065 56.806850 358.788913 305.448259 289.024873 288.164821 289.806914 287.225123 326.795853 92.293938 87.440204 63.966760 7.499453 354.104080 8.133905 57.015651 68.799848 67.304451 64.823607 62.996440 62.131221 54.923885 306.856551 256.114579 255.775098 253.843233 249.887911 247.854200 246.801409 248.442366 253.348424 280.387690 11.143834 11.899572 0.964273 8.731467 8.732868 9.579235 16.927513 245.638555 242.028332 243.934383 240.970241 241.993627 243.011162 240.717742 236.153238 195.648415 125.004393 127.207348 145.286285 158.026547 134.949506 109.131002 90.326678 80.265816 84.272165 79.904024 76.783396 81.616752 86.406653 85.210104 87.509051 89.166717 92.831851 97.811932 95.809707 99.203344
222.781219 217.356602 202.904303 189.193211 202.821714 246.947261 269.639185 278.243700 266.720624 230.466524 182.119025 185.205669 227.704007 238.115792 197.721312 177.284614 156.967716 127.997529 140.518850 136.612438 148.999631 191.160134 203.419845 202.898598 192.878273 173.175857 165.290039 157.321422 159.403712 165.657992 143.771151 161.730543 188.941846 161.441003 160.564622 184.475397 196.298796 140.916928 97.407103 86.119920 69.701748 68.581695 71.491135 72.185889 72.783401 70.757962 69.519994 72.346100 86.393210 93.583781 90.791216 81.270051 272.517713 260.828306 250.710818 293.983640 32.198012 74.321674 81.043923 71.226547 66.134753 70.243911 73.032703 251.247739 245.761517 233.351039 226.992239 238.807956 256.479889 265.620235 267.881549 266.577278 266.591712 269.966221 262.827037 255.617241 255.802149 259.384366 263.791019 261.442143 258.604881 253.434849 252.471206 255.890525 259.499462 262.020485 262.843694 245.935181 215.515398 191.742317 190.563088 205.719518 224.031583 241.275618 254.138878 263.099303 271.314431 279.163875 280.829415 273.521936 253.637197 234.835117 121.374950 81.047716 80.685247 84.679596 79.544498 67.111015 48.924274 0.418210 315.804831 294.712087 295.077013 299.076592 301.577246 18.230946 93.573071 88.041819 52.497347 326.610843 343.711588 48.681058 77.525932 72.744312 69.141170 64.202682 62.089759 63.029853 60.157087 51.389432 259.859796 257.987885 254.250049 250.228447 249.672259 249.081660 247.921007 251.711162 257.089376 335.667689 24.533801 15.285113 8.674208 11.189681 26.083135 39.873318 36.917367 241.071188 243.928365 241.575909 243.253313 243.505488 241.775789 238.615350 201.053416 108.620139 108.156313 129.516410 160.799208 151.317227 126.596971 115.522651 108.069712 103.469639 101.376018 106.200564 106.140875 100.963390 95.862595 94.008297 89.267471 92.525426 95.247637 93.350911 91.483610
218.758313 214.248330 207.755044 207.588151 234.800375 252.118739 250.717152 246.244631 226.240474 196.287025 178.369638 213.857392 246.088097 221.787529 178.974864 182.095306 179.420412 124.897905 124.075735 124.761243 135.216761 188.337415 209.685792 205.830204 190.219497 171.600633 168.373466 164.097001 158.031551 158.237096 140.834859 153.153318 177.391255 162.059409 172.068306 203.851870 206.240175 175.640820 143.749543 120.669613 62.499833 63.338449 67.630892 69.804127 69.462957 67.899986 72.428074 75.761018 85.711751 96.836832 91.341154 60.796403 295.090765 256.991849 234.895509 229.633359 143.697119 111.683260 102.104868 84.274801 75.498907 80.781785 94.429344 242.188079 239.509774 242.751828 254.731763 268.653842 276.155291 272.971557 269.576909 273.044307 275.807560 275.535019 274.681636 266.227501 265.422817 263.957476 266.326898 265.244056 258.191142 252.614688 254.066117 255.982289 260.147029 252.568765 241.718042 212.111880 193.741337 190.400947 203.329925 230.135910 246.583894 256.752975 261.615404 260.179280 257.673216 261.068480 267.850327 259.635645 245.510650 231.286333 184.938551 101.353102 86.905648 86.755349 81.895765 68.082920 44.128143 0.013453 321.704307 297.871491 295.277314 299.117911 309.147672 59.596014 90.743519 74.469942 10.048071 325.930481 355.438192 87.512455 91.326381 85.862105 77.887530 67.742843 63.995241 63.287280 62.154788 61.551037 280.087251 263.240017 257.685548 254.226079 252.550972 251.455391 251.522167 251.605973 253.923015 279.304078 15.559947 16.714643 7.815877 19.657706 34.662888 43.517792 49.112910 276.123255 247.678035 248.024286 246.955830 243.845803 241.249478 239.229592 219.751608 101.713919 88.359246 91.908253 111.198980 132.537835 124.661711 125.269391 122.651723 114.427438 120.554578 131.485197 135.656408 134.074347 121.489296 107.767196 101.763727 100.442387 96.673519 95.322427 86.445536
227.470926 226.022801 217.211023 220.949380 228.971585 226.238944 225.559281 219.345175 208.801712 187.205451 184.503191 225.388823 231.133134 196.433311 170.884974 192.157255 193.602183 139.013586 123.502353 122.795142 123.381616 180.322377 218.280576 210.466949 188.277076 170.254922 168.504494 170.266486 165.939097 154.402840 138.479177 141.372364 167.984734 167.251311 179.132874 204.068252 201.147487 180.664166 168.611156 191.322675 66.610620 63.615161 64.907916 66.467183 68.306968 74.458003 79.255081 84.584201 87.923750 90.766990 76.135911 27.101925 313.881630 275.001760 224.876175 207.627249 165.919645 126.714406 102.943861 90.276011 97.324638 95.039037 104.648626 239.228672 249.995971 259.012304 264.162305 263.169189 257.399069 256.688702 264.995065 271.908257 275.709256 275.572198 283.628223 279.258351 273.704995 266.674127 263.841540 260.091548 258.815016 257.956135 254.964455 257.645121 257.787322 237.823448 213.583275 192.200817 187.742663 202.567122 237.509837 259.665217 268.886663 270.556692 267.676527 260.423795 254.259670 257.036832 259.928171 248.222447 240.319202 232.757648 188.573955 119.665585 90.312679 84.253078 82.107088 63.681183 36.352462 358.979657 318.020167 302.206089 296.092718 294.895318 312.746508 67.676650 82.830965 49.841946 350.578794 340.987991 63.123103 100.271469 105.929568 103.563036 91.765750 75.804315 66.449940 63.806002 64.658771 66.968198 314.109464 262.652959 257.228523 253.604047 250.232938 249.540315 251.208730 251.859561 255.052285 260.933497 336.406974 7.559346 17.620706 33.815928 37.843062 40.947275 44.869052 27.002892 269.762697 261.970912 256.011471 245.101692 239.918542 239.753271 228.161097 122.692606 84.215724 71.457534 67.363559 85.768536 105.358709 120.748367 128.827225 114.768893 107.189754 118.609805 132.338917 144.402644 146.411538 133.133103 124.475016 115.613094 109.616898 109.420283 110.579523
242.907239 232.041170 212.858359 207.157379 209.373005 209.580668 211.648646 212.414289 201.774492 188.335285 207.688967 232.293388 221.946214 196.776727 174.653222 194.615617 193.021457 150.412734 123.974092 123.084968 120.797441 178.058596 214.950562 205.092517 182.892794 167.765832 170.601312 173.534222 174.001399 155.901461 140.804490 142.464303 165.196466 168.903324 181.007656 198.927374 194.585843 185.358078 189.362772 216.700812 215.591403 84.921293 67.774079 71.562597 82.323372 88.156560 89.133736 92.193501 88.109301 76.580662 62.009050 47.313500 281.648782 266.856057 161.209515 183.275572 178.669349 143.500071 121.290976 114.858631 114.121342 106.262618 102.816580 275.222586 275.421238 267.502367 263.962258 258.489445 259.204769 270.976065 274.447205 278.783938 279.096773 278.853603 286.502226 283.633995 269.132024 261.349738 256.525039 253.422881 256.138305 257.975082 254.997134 252.521653 236.763197 208.518201 193.675017 189.758966 202.091811 241.621117 266.626538 272.533595 280.382491 281.673482 274.339521 268.383725 266.266679 269.467856 266.418159 254.231810 244.994152 240.358859 190.654140 125.445958 83.969367 73.925065 68.850815 50.006161 40.160499 1.493928 300.635869 295.345563 292.096918 290.193596 308.872739 61.316867 70.637770 31.050253 340.834007 2.132828 76.140967 93.426111 105.023313 103.760785 95.063770 81.868380 68.156318 65.068012 66.334688 68.379976 46.545279 259.731091 251.638567 243.790188 239.176103 243.413016 248.891881 254.386149 254.511376 252.259198 277.624003 353.231451 31.803326 44.221134 39.686470 37.409705 39.298469 32.930354 333.936980 280.784298 266.583926 252.937143 240.391404 239.374869 231.309058 161.041817 81.637713 69.659537 78.026458 88.282403 99.096871 110.315427 124.726725 120.530610 94.033531 83.825622 87.396614 98.697881 110.437382 116.798629 122.021439 126.655831 129.058762 127.106498 126.206089
251.207702 221.598549 200.370142 190.110804 200.914457 207.840931 213.338981 214.045937 203.165142 198.516086 222.726091 230.955364 221.595128 196.766314 176.122813 189.979490 188.857543 164.436403 133.846550 124.797008 121.606933 159.114992 208.463518 206.137243 180.667019 164.493305 170.540001 177.630542 175.564341 155.727072 141.560578 141.684380 162.043568 171.226289 181.194403 196.125250 191.114646 184.585753 200.256737 225.395789 217.979192 176.334444 75.620792 81.315111 99.912896 101.142089 96.773258 91.908660 79.971880 68.118855 71.137392 84.898423 204.536564 170.944555 135.141271 184.426559 201.581199 155.622901 141.068864 135.034389 126.671028 112.617618 77.145671 297.025146 295.161024 281.966973 277.718915 278.586809 284.092029 293.543015 292.078738 287.553955 281.196672 278.032013 282.763609 281.187584 262.515531 257.214902 253.469314 250.628865 250.209468 253.560612 252.206127 233.006173 206.090689 191.458532 190.143016 204.253726 244.929006 270.519851 273.898411 271.324972 270.616154 275.827772 275.494186 273.279420 278.857345 278.377267 274.948334 261.563305 251.656485 246.228013 211.806281 112.386729 73.055821 65.558707 59.413550 47.818277 49.434319 14.119261 282.594172 277.446109 276.280365 278.147868 291.347493 55.191586 60.225515 15.159225 327.230692 18.529030 72.711706 79.252946 80.773297 78.002523 72.672276 68.540123 63.199087 64.893384 66.961556 65.037100 63.605980 272.456728 246.795574 236.179542 238.552155 246.505540 252.707634 255.515576 253.555428 250.704892 256.637044 284.164294 39.328743 51.994592 47.764326 37.466534 33.865878 33.756890 3.458452 300.622795 286.442737 282.730433 250.845401 241.839858 242.264951 233.020781 78.304039 79.093294 94.065981 96.985993 93.241903 93.868481 96.229704 106.120211 94.678663 68.260678 61.241517 58.621277 63.387924 81.549260 92.427706 100.954909 112.365124 120.470078 112.726027
286.283073 200.548701 192.597239 184.794232 191.416695 201.351028 209.486792 213.508263 209.940708 209.261074 226.730624 227.776091 220.597426 193.820012 174.293054 187.791839 183.854133 169.761268 150.462645 130.160529 129.511052 151.394092 206.202722 206.974539 179.171896 164.451934 164.939810 175.372944 171.765137 154.165187 142.807055 142.286630 151.400798 167.087074 182.249289 191.626357 192.208434 190.942830 213.333081 233.096983 226.203048 223.359064 99.402689 90.438774 105.908215 103.137404 93.042361 81.129849 71.331040 72.499758 81.840014 94.850819 158.741457 171.978759 133.738680 205.253163 157.430571 149.295567 148.400407 143.587168 137.210177 118.409874 333.712408 302.305734 295.832268 291.533162 285.482697 281.884356 281.484766 287.017443 295.126704 291.943611 277.544350 272.142802 274.593446 272.869903 256.775065 254.609651 253.483497 252.503667 246.973758 241.793821 223.390080 196.372783 189.839671 198.094006 222.134667 260.917606 277.073354 277.335106 273.847763 265.300607 260.833955 266.124408 270.769584 275.462125 277.998692 269.568270 264.912115 259.504508 252.066314 250.685651 272.584359 53.999251 63.385999 59.524728 54.736213 47.450189 51.675232 36.066825 284.098454 267.992380 267.280659 270.881028 279.189446 34.461734 47.541885 13.811006 326.040940 29.017674 78.422691 79.991745 70.969673 63.477755 51.831688 40.846561 46.921490 63.605464 68.871045 65.765284 58.681038 352.593088 263.157227 245.635074 251.072133 254.308261 255.829034 256.334229 253.874143 250.489430 250.255536 250.486703 25.842412 55.712813 49.368175 33.998128 35.546360 44.012240 21.557707 313.524162 309.811743 321.531650 303.507529 256.734633 256.587209 258.170721 78.271798 81.008964 93.138941 95.916549 85.125599 76.401635 67.350957 58.003482 48.221727 54.265441 56.291400 58.247667 69.041074 75.102416 81.504554 84.030960 81.490489 88.064542 102.075213
32.325513 71.855193 163.142194 178.833505 186.087095 195.853764 212.108101 219.181386 214.601546 217.290061 226.105923 223.027597 215.273553 195.739892 174.573703 181.081768 177.790816 167.453388 159.914076 138.261501 133.145685 152.831565 205.570991 203.596040 180.979472 168.503793 161.920207 173.262333 172.991060 155.415697 144.871701 143.343666 148.695096 164.685208 182.545819 189.173557 194.852400 199.914951 224.926283 236.003312 234.078522 226.207642 155.447679 101.341126 94.103428 87.430428 68.853742 56.355189 55.065629 68.180353 83.801698 98.709134 129.350000 186.113830 240.012940 112.203761 133.825710 143.841815 151.063890 148.895237 149.523317 216.964289 311.275175 304.247020 294.597132 289.949407 287.013331 282.072986 279.200946 277.421618 281.995451 285.998491 274.929550 267.606005 264.924814 258.026411 249.845909 248.608457 251.962386 251.562749 237.440719 217.530988 189.866471 184.742535 213.397721 255.287449 279.522386 290.540676 287.347831 279.785970 275.609029 265.486398 265.578270 263.612666 266.399511 278.737451 268.473605 256.233290 251.044733 241.238842 255.861253 263.463775 274.978069 357.749617 26.313801 51.061115 52.376902 52.824192 52.926439 40.356640 314.704881 272.526117 266.293565 267.675505 269.707071 338.360284 29.871117 12.912795 351.708038 45.621352 83.889190 84.374904 68.482746 47.762568 28.404717 19.766944 42.243813 65.967117 71.707802 67.394843 54.766843 30.665176 325.532712 271.305097 260.048355 259.897522 259.512682 258.481459 255.487349 252.601026 252.794525 251.127376 255.536877 46.083293 42.802758 33.604213 37.962974 43.280999 21.300797 322.205025 316.362101 339.715055 356.790514 283.313058 271.914815 273.732057 64.622602 80.017978 77.140760 75.076485 62.147980 51.629989 38.457599 26.185160 39.540902 62.755828 72.947113 81.057650 84.171332 80.127260 77.125746 72.870893 67.572850 70.419885 87.615444
35.101641 42.870427 47.334833 61.097198 138.015694 197.944986 222.797402 220.964774 214.004893 215.839065 216.919019 213.049945 205.328475 187.737086 175.409809 181.902494 184.002866 181.187307 167.250237 144.238880 135.189369 154.153892 196.362473 193.852672 179.804848 169.494594 163.285591 175.305345 180.431109 159.440011 148.951284 146.927741 152.320709 169.587403 182.665076 188.509775 194.679071 204.679531 226.575007 228.102747 221.686399 208.410224 174.438731 120.189552 75.462222 52.498108 32.875043 32.447803 43.090026 60.515957 73.844964 84.066742 106.965329 217.590561 144.216419 117.969063 117.693370 129.059180 145.036369 158.296465 307.405357 306.681595 305.352182 302.987236 302.260895 293.224597 291.943726 293.623975 294.665221 287.784237 281.393325 277.722001 274.715456 261.145658 252.513996 240.632023 239.490554 238.657565 240.564584 231.173652 213.185651 191.407474 185.650076 222.435628 268.511212 281.534621 287.908832 289.741453 288.650272 282.933718 274.900309 265.929340 266.474277 261.864370 265.915461 271.158644 258.188899 251.933550 248.686971 245.578192 261.185990 266.990400 267.249915 309.011852 354.761514 49.259262 53.808169 53.719815 46.608832 35.910778 353.378790 284.208325 265.418805 264.222106 265.498430 280.918098 353.201280 9.259168 18.164335 62.595929 72.840638 61.876937 39.896929 20.605244 7.634366 16.813201 54.930724 69.823088 71.809465 67.454096 59.485116 50.749894 357.216601 289.357641 265.909377 262.768418 260.847691 260.133420 256.814985 254.144746 254.401407 251.967216 255.933144 10.591857 37.761273 36.438018 39.985937 45.564024 20.846568 326.629923 317.219849 355.972695 7.621071 299.263865 282.705719 285.339751 67.841109 81.797732 60.804155 46.974934 43.095012 50.392905 49.195987 59.138955 80.044426 87.550592 93.255858 97.907163 100.121013 101.083915 92.177239 86.750033 86.030494 80.964907 76.372611
39.863441 40.043340 37.642051 36.710133 43.672811 65.602506 211.319539 210.372656 206.946575 207.908851 207.036544 203.579912 196.481011 183.832072 173.884403 178.342968 182.997834 188.231421 178.231750 155.385704 144.940905 152.758625 179.661348 179.499370 169.825095 168.935658 177.604166 185.542667 175.056233 157.215976 149.527697 151.537815 157.952272 171.287037 179.585361 190.257107 198.811498 204.379428 216.645016 216.474356 210.026856 206.077519 190.498499 163.853794 120.855458 30.520712 15.837445 30.061554 51.683108 63.407724 67.467232 69.945561 77.856567 187.893131 123.468131 113.800557 103.593362 106.291252 112.063816 290.898824 318.085965 320.489193 313.347547 302.703982 302.657548 298.445437 294.457491 292.357952 294.535428 291.211285 284.442430 274.693245 269.814115 256.350798 238.313984 220.769248 220.221874 224.547211 221.812227 211.376864 201.348968 196.439011 217.271739 259.963283 275.175632 278.606449 281.177090 279.905021 279.588479 275.165824 268.473702 264.609179 260.282566 262.825676 264.713504 254.577067 246.886713 248.207349 249.858173 256.236763 259.346642 257.587033 258.914219 285.299446 317.500633 43.862280 54.318400 51.971775 42.527096 34.848649 19.141410 308.376912 271.397181 263.049074 265.323866 273.434596 310.114740 13.664707 63.415612 84.100578 67.192145 43.660728 22.561117 14.405098 20.474169 46.160143 67.304218 71.108050 70.237842 70.398651 67.175092 58.286061 27.709588 296.641446 278.464701 271.609782 265.087751 261.210872 255.585792 253.176104 253.803801 251.131645 248.104590 264.802090 29.892577 41.066028 51.697274 54.673032 20.818782 326.662845 307.193420 357.835782 347.265011 302.664252 287.105637 286.034123 87.327936 86.613993 64.779808 58.803343 69.020385 80.093941 87.998411 99.680266 103.439680 98.154045 93.200036 81.670309 83.811928 93.367277 98.700874 103.771330 111.732246 115.563370 108.189865
41.950540 42.174174 42.125373 40.790500 49.586000 53.337032 62.116556 180.395297 199.422439 200.653065 195.272500 192.842288 189.455222 186.098057 185.272028 182.157105 178.346954 179.470955 176.893667 167.150239 158.389667 159.748706 169.783485 168.581122 161.180539 157.413852 173.657739 183.756162 171.283134 156.914013 147.602332 150.850781 162.501658 168.756313 174.587966 189.556747 198.495926 201.515280 206.324478 208.000498 210.507320 211.520517 193.634494 180.433752 196.245536 246.693521 341.307915 51.199462 72.302177 73.153163 69.511501 68.130712 78.956321 110.743316 120.651148 111.636430 100.977038 97.822268 78.646263 310.111755 316.955609 318.904917 314.084372 304.621497 300.857834 296.336441 290.887605 282.571277 277.248323 272.851020 268.862861 264.956207 260.944194 242.658844 215.174785 209.727382 214.082947 215.049520 212.626779 210.540783 211.701721 226.297998 256.353743 273.037469 275.624476 278.590462 277.954383 273.965436 268.796873 260.785464 261.466032 265.995574 256.984126 260.324158 259.551833 241.791720 236.042964 241.333212 242.224842 255.912625 254.421354 251.995056 253.428765 266.463937 279.089197 34.500683 57.544850 56.724375 42.515533 38.601043 34.178273 343.350203 300.789669 272.715175 265.444002 271.246363 283.143824 94.429437 123.287528 128.134320 109.284113 65.530669 41.083084 51.177297 65.656017 77.368660 75.732950 74.253165 72.618964 72.489204 67.339843 56.801952 42.437423 296.803596 280.862378 276.500753 266.787719 259.322099 255.199050 254.740541 252.132448 246.188489 240.980059 247.573523 331.570951 46.988920 62.001012 59.855594 28.386067 342.082025 308.459614 299.567770 313.464046 298.163728 280.961829 253.078980 116.828097 100.166071 104.614150 103.589502 95.205770 87.038425 93.253933 95.795214 100.078402 93.174273 76.936638 61.276939 65.707306 74.879110 82.349008 86.481546 92.009787 99.155229 110.659575
43.104981 49.077130 47.353297 44.096415 45.676194 42.932008 46.088390 57.764831 128.067544 176.199116 185.862951 187.952809 186.467706 188.595459 190.902108 183.160794 176.573423 173.560102 169.109932 170.063855 172.901560 177.001177 166.834545 154.265557 149.926118 149.305503 158.412036 168.784870 164.501515 156.857547 146.362188 109.247478 42.103576 32.683359 34.224659 133.333203 192.550881 199.508207 202.715145 206.498691 210.399842 206.432932 196.331115 192.217662 216.651405 241.432708 235.380951 99.843288 86.507794 80.366188 71.840296 68.956536 74.560579 97.577427 126.626828 118.383067 106.874065 102.851236 271.596254 297.576706 308.670055 317.456282 309.410221 304.423814 303.289054 297.928328 286.689027 275.309898 263.690444 258.290329 250.692979 248.337209 228.820847 194.659529 199.741953 224.744485 234.736818 231.100616 235.573448 241.912780 252.605708 265.670948 276.030047 279.968082 279.679467 278.822834 275.572308 268.395621 260.290914 255.357096 260.593916 268.776693 260.717110 255.783669 247.049102 230.898020 231.875794 234.489656 239.532114 249.967355 249.724150 258.025226 257.171217 267.131458 266.504284 308.837952 56.102051 54.936010 44.437036 46.834329 36.687126 350.381407 324.621172 303.721396 275.329195 269.574259 256.839872 113.587336 122.605797 138.478122 149.040005 157.693795 155.347234 132.264791 112.343769 104.359268 90.354722 80.780874 77.269043 73.449737 66.200217 58.392498 47.439698 315.273813 277.603102 272.273550 263.861091 258.421152 255.740867 255.988539 250.809152 246.095351 247.542452 250.464381 261.216834 58.499938 70.463345 64.155978 40.783057 12.657273 355.166291 337.724964 323.286239 307.048197 256.239215 196.174097 148.435810 117.283238 116.972561 120.865332 116.459442 96.173830 91.948940 86.884222 86.112874 76.881102 56.170712 74.739548 81.671587 80.624203 83.068917 85.978010 85.299442 81.044697 78.401668
53.461815 55.775948 40.957759 36.435161 37.676890 39.200707 40.549961 42.563550 49.963446 48.698238 37.001103 96.243850 152.853497 180.539038 188.423223 180.587740 172.186424 167.431870 160.376075 169.046817 186.639278 187.262693 162.942176 145.057783 139.622097 133.423698 128.947426 115.179247 72.187712 48.821546 3.624535 353.251801 354.852750 359.038000 16.593937 37.340582 51.805063 177.567390 195.783172 203.663086 204.862627 201.828757 201.663517 208.257542 228.760137 235.248855 215.856171 157.915499 97.135102 77.543226 71.312366 70.587524 69.102821 88.962121 118.740002 117.739834 109.652336 93.964843 271.238503 278.439747 289.616227 299.920721 303.183887 306.357981 303.920637 303.773565 290.918947 277.054306 263.242652 251.202471 244.472817 234.275110 191.645175 190.590886 243.684300 270.762769 277.828790 277.915129 282.595424 282.030471 279.894872 280.631040 281.634083 282.212798 282.104023 276.532173 272.276661 264.975551 256.111686 256.515667 261.500345 264.565425 261.772488 247.762291 231.629761 227.386083 229.167737 229.419505 238.983787 241.311713 248.225920 261.367052 262.669378 274.855829 283.272060 270.825828 44.391635 46.633017 36.267148 29.933568 20.433463 348.205548 324.760867 318.174302 290.721829 274.888719 237.264774 102.003875 97.427850 111.352451 136.804907 148.256474 146.416664 138.337509 129.069290 123.576611 107.354025 87.116467 80.629781 75.588360 70.388901 63.353286 53.934591 8.575829 280.929901 269.120789 264.403410 259.568460 255.866107 255.609634 252.988493 249.783104 249.450822 248.425645 247.235351 75.462947 72.407110 59.430157 34.435860 3.135787 334.684556 337.509492 343.503553 356.100751 143.719391 173.923700 166.746524 136.569102 122.813423 122.395487 127.710548 121.073413 103.479361 85.036095 70.483980 58.735383 69.707439 96.152159 107.246963 100.026357 96.074773 97.118624 97.990926 94.414240 78.553954
65.883352 52.153048 27.202972 31.040732 36.650053 37.715940 37.973546 43.141092 42.874418 24.345430 10.593121 25.876028 36.761954 45.847469 66.865468 126.271193 134.617642 137.963461 101.174598 64.166225 156.546896 174.191236 143.181472 100.751966 51.118660 17.136874 2.219849 357.592181 7.240029 10.293719 345.828396 342.527956 342.037077 346.695336 15.125780 36.364493 38.273293 42.172479 62.808570 188.234743 196.416484 197.865185 203.462616 211.625268 223.285271 223.981265 204.965349 183.171177 139.976517 77.295440 71.422650 73.586301 71.125474 82.333530 100.908392 99.301701 95.430533 83.804158 275.939222 259.974676 268.683944 281.807148 294.063985 299.574448 299.041319 297.480707 291.957622 281.995777 270.532397 253.123940 246.295672 215.569952 193.411417 262.327035 283.852873 277.480624 272.879182 279.231043 280.034333 279.844494 275.758022 277.109900 278.150434 279.232422 277.920009 275.341268 268.793835 263.276466 255.852627 255.932046 253.573483 241.246718 234.086623 226.180602 221.813726 225.956911 227.259586 233.087913 241.510340 243.029764 255.264335 263.652256 266.945264 274.281870 298.117870 307.048154 321.046917 18.505366 22.284678 25.454614 20.362831 0.833178 335.782412 316.325095 293.753415 277.642476 235.905022 79.826798 68.819270 64.241057 58.327363 47.155966 57.652557 75.920176 90.156790 103.042651 105.890775 85.848715 78.402717 76.060377 75.810599 69.822579 57.469102 26.468359 281.527683 262.878459 265.096799 260.184119 255.755600 252.298527 250.610515 251.327562 251.446841 252.202166 251.498440 260.849145 57.376733 37.159010 12.239387 1.384695 338.177745 328.842126 354.366374 58.059664 99.701385 135.010928 165.643150 152.906416 131.405469 126.624950 129.242552 136.750521 140.532815 129.012421 100.914189 94.229609 102.391420 100.149273 106.841651 111.460437 108.112970 106.228949 108.324736 119.810366 124.841273
64.587892 30.432282 16.513488 31.300135 38.211279 39.964962 41.554517 42.880370 37.127274 22.757869 12.804666 24.820151 32.378445 26.782536 22.692217 27.694050 24.900559 4.975506 2.338185 16.296937 20.661304 12.704745 1.172874 0.262586 2.673499 357.998904 354.877120 359.533828 10.056318 8.304826 350.562459 343.341424 337.275616 341.578274 13.243307 27.780908 34.544622 40.878454 41.079641 42.822627 84.026195 172.715976 198.707999 209.814202 221.368347 217.456943 203.433989 194.975338 195.235122 106.980999 75.670005 76.256238 79.879486 84.225594 91.157090 85.738998 81.052542 97.047321 253.910155 250.325850 251.008569 274.991285 283.870068 279.201857 283.616337 267.464137 257.153929 264.930851 265.894782 253.204074 234.133168 218.154928 265.035643 290.268486 286.348949 265.741781 259.954219 263.225834 257.866845 258.879579 266.834536 270.815003 271.435986 269.153601 268.891327 267.626230 258.824545 252.723530 248.484783 246.055307 231.236137 216.882402 215.157871 220.397855 229.075649 238.987281 246.544093 252.152046 253.474613 256.339259 265.008506 270.746929 277.399369 275.502732 281.087843 312.819876 286.812273 306.014268 356.424500 17.793430 21.276647 15.207454 5.665729 338.553024 298.265153 269.470818 245.310925 60.016939 56.277390 47.919354 34.931451 22.976383 29.626661 49.054103 57.536117 58.751845 62.680958 72.579058 77.473254 79.169383 74.380908 70.142964 62.077516 43.103851 300.396008 263.058124 269.934891 263.703483 258.458806 252.687581 251.348149 259.119812 264.126513 260.364779 255.900367 265.147770 23.828859 11.299547 357.658777 2.418871 353.848112 336.554453 50.667286 99.341318 108.718742 124.449231 150.236185 156.968020 140.858465 133.654749 133.013697 138.156471 153.535872 159.462052 148.516850 140.943852 134.679857 114.157459 100.618228 103.836317 105.538888 107.439800 110.558246 119.449672 130.349539
33.441941 7.278544 10.164320 33.842471 42.997977 39.674005 38.630729 39.644105 38.238863 32.571783 21.458139 19.176382 20.483876 15.966648 16.538819 17.252472 10.108764 357.578999 357.807702 6.006646 3.198034 356.263653 350.610392 351.525482 358.273567 2.717687 4.372275 4.908129 2.395310 355.908587 354.593296 358.340553 347.230129 344.436608 5.196990 22.570295 36.546263 40.010231 38.610001 40.834560 37.325981 36.322453 46.441576 202.105407 213.085821 214.120085 209.963985 206.948702 213.369212 196.140333 89.029125 83.238554 87.641595 85.705055 88.428254 87.333289 89.664313 96.863526 217.498345 248.506531 243.859475 266.124494 279.482162 265.998853 256.521449 229.084170 236.201504 250.641227 250.909438 244.858416 240.911746 265.150495 287.000518 280.200283 253.242206 243.006914 246.274906 248.621475 255.063850 259.978695 266.967895 266.659045 265.366256 259.270116 255.944390 250.443682 238.694850 229.797001 227.765803 223.084665 215.135860 219.761888 236.450158 259.113579 271.675893 279.639291 285.851632 285.331364 276.080268 270.068291 268.470787 269.477787 277.647743 277.698371 264.576172 250.193351 216.003661 246.479910 285.765786 9.666652 4.503215 7.840599 18.743111 11.380229 329.023976 255.967603 245.023506 358.264295 48.134452 40.959979 31.237862 30.304347 38.535636 45.949453 46.438860 46.055234 51.678291 70.415085 77.273549 77.423048 72.111715 69.951648 55.571822 40.543452 7.125016 274.157834 270.129947 266.881384 264.551123 259.005444 255.843851 258.479183 260.990719 259.442262 256.232220 261.502484 323.674652 337.481616 339.825474 5.185476 24.901782 75.227276 120.219422 116.858122 121.237648 134.820623 146.507823 154.928615 147.307275 138.603851 136.439412 140.623847 151.052454 158.907920 147.537871 142.041563 150.872565 144.901180 115.762437 100.931261 98.123967 98.867901 101.666080 105.883182 109.908698
8.559121 358.758010 9.687520 35.684013 38.328551 33.854177 37.471312 44.107951 45.566422 38.643714 14.801543 12.109578 15.620061 10.129310 7.617799 11.534079 8.152282 358.591004 356.785547 355.718931 354.074047 353.742043 347.236008 347.817954 357.721743 2.344683 358.331632 0.591211 357.385144 351.677047 4.761173 20.585935 351.311882 345.331453 3.152687 16.562918 31.207478 40.919782 44.950091 44.461378 34.643138 36.362628 44.442791 65.676046 185.447153 215.548137 216.360202 217.398487 226.399793 220.368730 123.273464 93.599316 86.017126 81.056701 83.095101 88.669540 97.160776 92.911504 129.805571 247.959107 244.146702 253.635685 266.596836 266.264998 247.202073 256.264969 272.682024 273.174981 266.762985 267.609960 272.343864 278.788336 279.939424 246.133317 231.592873 244.651883 250.463021 260.840883 269.118976 270.774807 268.456686 259.760335 254.299842 245.617938 236.937458 227.411837 215.440954 216.941402 224.860128 232.816881 249.973850 268.721315 278.190465 286.584279 293.988036 296.292456 298.596140 303.395998 301.483795 288.312539 276.893003 266.647401 265.432331 258.568635 234.300822 189.501990 185.020896 226.441965 233.671214 200.737828 194.228672 270.766302 12.788079 35.383907 40.562852 233.875024 245.958052 245.033777 60.761653 57.489963 59.724123 72.388447 74.676050 67.991244 61.797490 61.617481 65.208462 72.163501 74.992265 73.879403 72.640097 65.988058 40.869925 42.007629 32.236033 297.808485 271.338443 267.110023 265.998713 261.109327 259.581793 257.549653 255.223416 257.247778 259.709044 255.060216 264.753734 297.618379 312.590332 48.705924 94.216446 120.692188 130.032541 119.535059 117.989561 132.260008 144.847062 145.765756 141.982772 136.751328 131.375603 137.969834 153.278507 162.302642 143.772045 123.431398 133.111918 152.211862 145.748594 122.719766 105.677865 98.092553 95.975637 96.050933 92.905870
0.581935 355.356389 6.106630 28.942628 35.455986 38.958500 43.673965 51.734233 54.436570 39.604462 4.129501 7.310263 14.439361 8.928980 2.042475 4.772590 4.034389 2.524282 357.512304 347.130598 347.382149 357.434666 348.881884 338.974607 356.709002 7.962885 0.060649 347.774297 343.451489 358.014418 38.592931 26.987407 347.861299 343.544872 355.264454 14.636635 46.087542 59.442020 61.682533 55.349151 41.799884 33.017941 43.951471 56.243179 71.311731 212.950416 222.457130 224.833004 234.137647 221.500426 153.614837 100.992181 83.438969 79.022172 75.468691 76.349223 77.958713 70.075086 67.684411 249.486392 245.485630 246.188872 250.950769 269.367230 274.650851 290.921395 297.319530 295.198704 282.106022 273.351399 272.735398 266.793532 250.156975 219.967183 251.418168 266.518978 267.481222 266.805290 268.054429 271.522083 267.458200 259.314826 253.209505 245.063949 238.052004 230.399786 236.125491 259.856576 273.909314 281.386709 293.237598 298.684987 294.785990 288.320565 288.337978 289.091699 288.085532 293.841949 301.708850 299.205430 288.756476 273.847635 263.777835 237.856589 205.982089 173.651785 180.469744 215.655539 220.249909 206.475765 201.711955 212.276772 203.513467 125.873094 82.703651 162.373607 242.356701 226.796450 159.243605 128.679908 132.770611 138.662075 141.907602 134.910722 117.305314 104.325039 89.871246 79.602040 78.005127 72.019785 68.849525 58.682204 35.151058 44.762915 39.196425 318.212816 281.183159 271.114897 263.860540 261.892283 262.747445 259.650850 255.590408 255.126364 255.522357 248.499054 250.273730 267.853746 264.062790 95.945311 105.608553 118.256992 131.049567 120.315499 107.767159 114.644062 131.702029 128.959435 124.024556 122.242322 116.914012 120.050390 138.839175 162.436988 156.362321 127.624142 118.991067 123.396057 128.340192 132.399485 123.224769 109.443721 104.883887 96.331347 97.044267
357.945918 355.960241 4.783442 35.037276 51.242536 52.535512 55.304666 58.825712 67.158575 28.047271 346.856784 1.928350 19.652401 13.424387 353.822490 353.877005 356.722521 7.657861 8.935753 346.847972 342.994010 355.237609 346.058140 328.863011 341.648742 7.296907 9.413642 352.751158 347.605956 23.591884 50.961742 359.915788 343.245744 349.677861 10.508089 62.745684 85.887726 86.501932 78.801177 53.934345 24.488634 26.335705 50.576661 60.881754 62.346508 85.345964 212.682813 225.113127 227.667505 214.403083 176.621703 110.966593 87.245365 81.799165 72.226668 63.228960 59.382814 46.510818 28.982472 4.721176 250.297023 244.906343 246.481305 264.329895 274.812994 280.710946 289.625881 294.382421 276.871474 267.949794 261.245101 253.251946 227.500205 229.167124 258.863511 267.213080 263.663617 262.575375 270.030428 274.753935 267.926349 265.587064 271.356582 282.062985 284.945479 283.438422 291.685005 297.580547 303.566996 302.727716 298.277161 298.752085 299.733555 294.322331 283.927240 278.440488 275.159888 279.232134 281.448986 281.569858 279.342193 276.428602 266.722753 220.412527 192.031927 174.564251 183.823316 210.131946 215.471445 213.760490 217.789686 215.544153 201.421133 175.724841 127.468844 139.522661 227.422081 207.205833 147.426987 132.265776 137.786054 146.160936 155.109629 158.015203 147.812350 132.392428 116.482054 95.006294 83.197669 73.363956 69.597023 58.683073 39.392906 55.193469 49.976622 335.720992 296.549942 279.159906 268.131168 265.211061 259.410810 254.766321 252.202408 251.996878 250.000484 250.463664 250.107609 257.512953 254.857846 96.293712 99.637662 102.122659 115.710299 115.965645 96.165359 87.925333 95.518194 106.275090 106.110815 99.827202 91.634105 90.889087 95.770176 117.659698 138.953253 127.148390 124.448079 133.282041 114.061210 108.708061 118.990269 115.943145 109.987125 98.047629 99.408118
8.183105 16.531706 58.587929 91.695687 92.013878 80.875820 78.853065 76.893142 74.850526 1.432096 336.631919 0.669295 25.703347 17.912674 344.497802 343.635030 357.542353 16.840793 13.543311 348.288069 339.640970 348.481708 343.332988 325.532872 322.410219 346.147522 5.059513 6.122848 16.009614 54.775188 35.484829 346.696780 342.298157 4.026469 73.360058 99.079430 99.680836 88.169506 55.440019 21.302981 10.973220 32.310994 55.937846 60.203479 58.789613 61.938822 135.824217 212.908790 218.738362 214.079928 203.862333 144.281440 96.426433 89.753918 79.268814 66.273994 52.373456 32.269802 33.057485 41.328584 358.602819 247.839681 249.572533 261.248982 263.431452 265.344377 272.000263 277.877156 284.531487 273.524933 252.484744 240.010136 219.992328 242.415714 250.157264 248.362237 253.712723 269.504222 277.593330 278.362565 276.581945 273.445018 273.630582 282.564006 289.058978 294.524638 295.613324 292.766875 295.049305 301.679614 288.965926 280.149940 283.434004 287.428917 277.321668 266.419467 264.677156 265.566203 258.211716 258.731282 261.286251 263.005265 245.542800 192.226936 181.218875 173.238349 182.755777 207.774659 221.769180 227.812409 226.776044 214.541987 196.075575 182.464524 156.596477 151.011625 205.211352 182.519787 133.724042 121.177630 125.030674 133.300147 139.904928 145.751689 143.593414 131.432789 119.112267 103.186483 86.816004 81.850150 77.410758 68.238475 57.413525 68.659719 47.684972 335.424409 307.441974 282.610180 273.050494 269.597012 260.421672 252.951991 250.082978 250.275486 248.574380 249.824248 248.211655 255.951146 264.207486 79.488544 76.484501 76.924833 87.664878 97.532732 77.858636 61.660748 57.802042 67.556098 70.268522 66.255523 66.721784 67.014998 61.426338 62.647011 80.785025 96.333192 102.972474 129.498006 138.514244 105.275011 98.658502 97.355064 89.495575 100.575058 104.965624
51.437537 82.954293 107.009119 117.644202 117.545898 113.995742 112.548658 103.220770 63.252926 338.495365 327.532464 359.158790 29.748728 20.852506 338.319405 333.009944 357.024847 20.189342 15.462105 357.445572 343.040968 340.456278 337.315512 323.969342 319.228620 329.340354 352.057661 22.570694 55.584307 63.803314 7.957098 338.365217 355.729623 71.055271 101.250575 100.648940 83.110789 32.519974 13.263071 4.594611 11.619399 46.520916 57.745410 55.555371 57.482384 60.876626 69.092584 153.318730 214.251883 219.096686 219.866140 181.430650 110.434930 97.141698 89.364113 74.408703 48.323404 43.683786 42.550399 50.378677 55.178722 259.361483 256.925710 262.949549 260.758084 253.829806 247.397479 243.526138 271.032461 276.322684 253.440967 241.725380 239.418265 254.531358 247.049881 252.654219 265.765806 272.727244 276.636751 278.491428 286.506122 285.014253 272.728307 268.627361 269.782784 277.676982 280.602878 278.210201 276.616473 283.278718 275.135551 265.134549 261.687232 258.468354 257.620396 256.825399 259.687980 257.538772 249.272687 249.852861 245.337601 243.116052 221.097350 174.373729 165.629333 168.881535 187.385555 219.398503 237.387259 235.861467 221.941302 202.696458 196.680927 203.268267 176.983347 145.453781 176.248271 166.551092 126.121587 100.858231 99.836270 97.210519 98.255815 112.780811 116.021530 108.010635 103.379378 93.211685 84.515418 83.338284 79.082154 72.731586 62.340834 55.568402 37.516834 340.314062 297.892213 285.543437 269.558009 268.430212 267.216181 258.102039 251.137334 248.830376 247.790968 246.921779 248.845309 256.775108 259.136314 91.438515 70.669028 68.868480 63.404136 57.757532 56.103216 53.908172 53.658012 59.403505 61.314311 73.397733 90.681448 88.320725 78.934565 83.156369 97.112042 107.480599 106.589911 115.039648 145.011980 137.116504 104.289380 88.974139 86.073930 93.752262 95.143809
105.568123 112.695585 114.807459 119.030088 119.208884 114.413408 114.949970 98.395551 1.833382 330.333718 328.404990 355.804155 25.112424 23.297368 338.662732 322.355642 350.508812 16.284356 15.883592 6.355970 354.708235 338.546396 332.152628 324.031072 314.539016 323.698335 2.241978 56.000373 68.044011 50.439012 350.063320 337.149619 53.576309 93.066296 79.436833 46.227893 5.406289 3.116989 21.137007 17.213359 24.622931 55.376291 59.156545 61.199316 64.819108 67.798743 67.474177 74.057224 175.142165 221.803852 220.553729 195.684140 129.777393 104.095760 95.102715 78.280401 64.399190 66.767233 69.808891 84.195233 70.935174 291.872048 263.481301 262.026069 261.025390 235.950079 234.217116 243.742413 256.084268 278.962753 281.520123 260.758133 267.927380 265.098764 259.149633 266.679983 273.807613 269.154465 271.496537 278.675996 279.555120 277.668528 267.845755 263.599184 267.493246 268.829888 271.405589 268.127289 263.687510 262.413010 261.236503 258.111016 251.901472 246.065251 248.814783 254.999632 258.371152 252.993313 244.562548 236.497760 227.058860 226.332672 223.591730 174.333845 139.861366 159.479993 204.352122 236.522875 242.486374 227.568948 207.089606 195.287753 205.303403 224.845326 188.828023 137.912881 150.032089 164.861049 124.830633 79.271483 72.877585 69.810518 70.948243 70.221270 59.165479 62.523614 71.269304 72.219803 81.371273 82.199337 79.288629 74.548790 54.158320 39.236419 42.301124 29.079522 301.375637 292.446561 277.235519 267.322803 266.583847 263.595294 256.360707 251.732711 248.691576 245.399327 248.111569 252.929596 245.351120 169.816911 119.304609 96.365245 82.513488 86.178730 103.836127 110.566400 114.739126 117.147501 120.359375 125.266813 131.880655 136.547167 132.986320 127.298647 125.412282 125.938250 121.551128 110.206594 116.768789 145.809754 136.581894 120.501049 113.223848 96.837771 72.032118
125.753026 122.115634 117.825919 114.824837 112.537609 105.844520 92.603394 2.053525 341.064688 334.065555 329.678410 348.966560 24.463963 32.336388 352.138326 312.914656 336.979220 10.453862 13.863083 12.144797 10.730903 346.250246 327.343265 325.246149 318.346499 321.340910 16.439951 62.776635 65.341300 41.426745 348.736838 2.972582 75.829519 57.661479 16.659307 357.988635 354.966919 22.334106 43.012502 33.967527 52.335433 77.036307 83.079827 84.588642 81.270165 77.524308 60.206717 45.439315 44.958740 184.126680 213.540059 203.674091 165.357893 121.958857 106.563324 94.497531 94.916385 81.960915 97.804257 112.033951 97.226714 292.532129 261.941964 253.276441 242.972185 223.766069 248.573395 252.233528 250.596780 262.242591 256.084771 240.447887 253.925003 255.967585 262.133500 263.436773 267.857560 265.807421 266.425078 269.215269 263.996680 262.453477 263.197802 261.271954 266.537825 266.287617 271.480486 269.291672 261.473019 255.590759 255.463303 256.635507 250.896988 245.980356 247.261840 254.989535 256.352741 244.715765 228.101248 216.462346 216.037011 226.265197 231.078547 186.978319 142.417156 152.459921 213.377997 237.935167 228.137999 206.518188 194.141077 197.525023 217.961860 225.875650 189.732254 137.524308 134.705014 178.592812 134.184457 68.376901 54.355843 40.659767 35.153675 33.218508 29.970858 41.624489 57.141859 75.249625 84.515695 85.976837 84.753742 78.136696 49.848958 42.752018 52.252323 34.409114 329.522353 295.801404 291.441179 272.651150 265.693967 262.571401 259.842536 250.834506 246.220209 246.005995 247.469212 247.456850 232.695289 157.465827 136.478651 131.751251 133.195820 135.711081 143.998349 148.525866 148.476313 146.211958 144.332234 140.933227 138.503329 143.535227 142.920650 135.093020 126.343400 110.836826 87.706009 51.108652 40.933585 47.964573 62.198895 90.132425 101.708822 108.428395 119.318105
132.025134 128.167998 123.052883 117.244503 107.905720 92.618139 7.640226 336.254202 336.523536 336.781361 336.806904 352.543677 29.156231 37.994277 5.096573 320.285888 323.299281 1.896937 14.151893 18.825503 24.182455 352.545379 321.058441 321.913407 325.011976 333.605029 32.282025 64.386246 65.316230 39.502618 348.738339 15.410391 35.987631 7.853189 352.842313 359.014702 31.563640 86.393906 83.232083 93.672704 113.691194 114.604984 111.674872 105.824740 89.529805 56.042491 27.556566 32.382646 43.717815 55.257612 138.632670 198.355758 184.665092 155.493983 138.138883 132.926323 123.560526 101.902182 103.435187 102.786352 89.013582 332.347994 253.610866 243.731984 234.985765 248.068299 258.556002 249.625911 246.932921 244.616999 211.672568 224.624935 234.447720 243.142538 255.425983 258.760349 260.389320 263.621937 263.069164 261.593358 260.728775 266.459557 268.883190 263.873628 268.344513 269.388620 271.090178 270.248904 262.843831 254.641522 253.460006 255.918313 249.958206 243.695501 247.982042 252.383355 245.797111 221.818785 206.125331 206.912091 217.835411 231.972168 230.701939 194.748269 155.740526 161.829307 214.096567 225.765007 211.563580 196.028384 194.590000 219.062760 237.001164 229.136915 221.090468 359.459490 19.240982 5.094736 335.933765 30.561273 29.349021 23.855665 25.484185 28.868538 31.538852 46.462017 69.979015 91.111968 92.693340 88.155263 85.650692 74.172504 43.727801 38.572569 39.212757 27.152303 354.879096 298.111492 294.971880 286.706262 270.529303 262.339525 254.102619 248.181385 249.234894 249.390067 247.106838 243.602266 230.622084 147.785943 132.576863 131.930569 135.468913 138.193567 143.907166 148.793513 147.306180 144.145894 142.185123 138.121188 132.032277 127.482371 125.678260 116.414330 83.789730 32.697783 13.169109 13.851994 24.019682 32.961335 47.464450 65.324071 73.004948 86.983014 114.572077
132.176223 127.959332 123.703584 120.669525 102.693818 15.561168 335.238308 327.478602 331.270731 333.469847 338.930368 4.100351 40.674347 37.095223 1.947094 331.610776 329.346083 356.089029 12.267119 27.224958 35.060304 0.028147 317.862248 315.859030 324.811180 349.211245 50.849006 67.561397 63.204422 26.994414 340.815806 358.493141 11.156445 6.016768 4.917255 60.715684 103.090033 118.353878 122.975723 120.362959 124.048540 119.972165 109.105958 86.328996 41.034425 11.407166 21.267493 40.941137 46.078448 46.101335 46.959135 89.033508 175.742374 168.608874 152.046806 146.127603 136.409131 114.557863 91.343130 73.372328 57.287971 58.303065 247.562428 243.644704 249.845398 267.391560 263.333087 261.379453 259.582109 246.415305 217.399409 218.329667 231.629632 253.920461 266.169604 266.231772 262.716034 265.263512 261.764230 258.507494 260.356412 264.911573 264.443680 263.248221 267.594295 268.999622 265.837253 262.403702 255.894416 247.916204 248.523209 250.935505 241.957217 237.607559 247.050350 242.699451 220.606408 197.536796 198.810832 211.652556 225.535396 236.962774 229.525057 199.850078 169.051482 176.830648 212.476917 215.830494 210.105272 223.038667 267.702539 294.920750 288.833889 276.998735 292.727611 328.159396 5.247319 14.337193 345.376601 335.553397 9.901432 19.345497 28.855357 35.445974 39.151807 61.908095 80.219030 93.969154 100.542278 91.776122 81.834332 64.715016 27.898482 13.841722 22.761154 26.165657 19.690478 318.318112 292.498767 300.882327 286.778015 272.816644 260.031195 259.789535 256.873295 249.737701 246.872315 245.066147 229.873735 143.293138 125.670143 125.750596 127.158874 124.320641 116.375024 112.214224 117.435110 107.210826 87.763278 90.698872 98.373533 89.427759 71.881397 41.283183 5.473238 5.171245 12.006368 20.474485 37.659050 59.006423 73.270774 80.350007 85.242111 95.341872 102.889989
129.156326 124.458768 118.340865 108.386379 348.663738 331.280257 330.094763 325.596340 324.237194 325.310493 337.779318 19.832904 48.998269 36.024469 356.900584 330.930301 332.371436 353.498107 17.178028 37.318550 34.869432 359.485904 322.745783 316.087255 327.929821 11.120350 62.345869 67.751347 55.867722 14.957298 332.699199 343.976893 6.897232 38.398508 86.051667 113.771822 108.168012 108.453205 109.824791 97.491266 88.717845 83.579721 60.076948 25.083863 9.688687 11.422092 31.527980 42.467913 41.686451 41.904251 44.835618 43.889703 33.321069 21.824406 28.492966 37.958417 50.873175 58.973405 58.909989 50.940126 61.486430 76.320855 247.273443 250.908114 258.512572 269.237813 271.543467 273.813512 268.655181 239.590839 206.420121 217.153943 250.245680 261.564746 262.771987 261.078698 261.830592 264.438769 259.387854 255.731556 260.940119 260.483352 260.003721 261.713854 262.233016 261.635277 254.225366 248.009438 245.296941 245.221774 245.878175 239.095132 225.918876 229.559254 235.405331 218.989035 197.518328 190.273306 203.538966 222.120757 234.284116 241.246622 228.996466 199.219394 186.695414 197.936680 209.155750 235.777615 268.470417 290.638374 300.946834 313.896662 320.299930 305.557305 302.800205 327.396321 359.571755 10.236465 356.611991 309.474745 329.954793 16.580294 53.048768 69.716069 88.666660 100.249563 93.257623 93.824162 102.682894 98.011773 84.056337 57.667303 19.099542 13.116647 23.409993 34.484723 32.579885 339.733073 291.494596 294.482243 299.128283 288.378155 279.687343 270.407309 261.056457 256.137569 256.137671 249.351160 226.890086 146.122364 116.372353 112.318555 113.614637 108.331340 71.023607 60.018804 56.965806 39.516163 42.588266 61.974479 66.202329 46.990989 39.516105 28.242218 18.392216 23.585863 25.028175 48.835183 87.777142 98.114671 93.537878 90.010672 92.533342 99.098599 103.923874
124.406187 120.175735 104.710163 359.640146 327.408387 324.083816 322.674634 320.961883 320.058898 319.652200 338.341552 35.836573 53.650617 34.738391 349.332385 323.942091 329.152064 355.210679 27.170047 41.754147 30.594975 355.555006 325.264488 319.784724 339.527358 33.515027 62.603287 62.004430 46.002987 6.525455 325.232892 338.721391 45.990843 91.525119 105.984051 109.503445 82.967876 72.050936 58.014667 59.035520 63.215564 56.641448 30.666254 15.157603 10.971754 14.582071 35.060607 45.002513 47.043957 48.612816 46.302649 36.860449 24.228328 17.392605 23.467689 35.252319 39.606671 41.954449 48.987253 42.666050 55.727519 80.368214 243.626253 254.666410 255.488165 263.673650 267.485795 261.775535 246.512901 218.212752 213.632336 250.404861 271.449271 263.782053 258.001312 263.041824 269.508170 268.848881 265.654175 267.725564 270.127324 264.741545 261.319953 262.703756 257.336679 253.131869 243.708804 238.050957 239.496219 241.815141 232.449077 215.680233 206.412448 217.768108 217.736993 200.272414 189.176288 193.812670 214.779027 230.462234 239.976871 243.262533 221.695820 191.321152 193.314994 204.661224 225.011343 261.035877 281.262265 285.867381 286.233998 288.803642 303.592320 290.431627 269.802429 254.529506 253.667289 358.845258 10.245120 305.025774 290.164832 94.898529 116.819446 122.885628 125.181841 126.721006 111.684416 99.538270 101.802877 102.631259 96.240839 52.009744 8.941850 12.725033 24.193209 33.706449 35.994444 358.795762 295.073682 284.562182 286.888538 279.610522 273.175177 263.677354 262.703166 268.672021 264.858979 247.237361 228.200606 144.148939 103.031408 104.382071 103.834065 90.988682 55.848500 54.254889 44.289262 39.144733 54.634373 66.721451 63.806305 49.416057 50.921252 35.370223 25.452974 24.093330 35.079259 82.305237 110.267684 114.321129 109.044880 101.174788 98.798110 100.961858 103.218512
125.520191 113.570664 4.805336 325.883320 319.929824 320.328518 321.565998 319.793445 315.953647 314.152190 339.411298 48.637528 56.981162 31.182069 340.157310 315.150881 318.769795 359.289245 41.486965 44.164163 27.187578 350.225965 324.123302 320.645166 349.481462 45.666871 64.312143 57.393616 36.840108 357.409037 324.446974 356.249193 76.778397 81.162633 66.078506 40.557133 45.356122 53.538152 55.895270 66.923319 69.323899 48.741245 16.994212 9.795205 9.346275 20.227063 44.296225 53.604050 56.119162 51.701642 40.571412 29.444749 24.907255 29.608083 38.557743 47.004563 48.482265 56.868589 50.157518 47.717119 72.108299 92.194890 103.031862 260.092682 256.225286 258.822019 258.067452 247.652431 231.006695 228.675872 246.975947 271.046988 288.676000 289.138309 280.239056 278.658837 283.315871 279.576263 269.149798 268.356872 265.297646 261.822641 257.646722 258.479070 252.460516 246.267245 234.582436 229.886596 228.507301 220.745261 205.632531 198.747947 202.391040 209.023130 201.939615 189.946361 189.651303 204.355055 224.951636 237.962247 245.554214 235.299077 202.611827 185.744006 195.995498 217.739734 240.658261 251.088422 251.790695 249.689312 245.720541 236.913024 231.301395 227.558244 215.916219 198.039087 198.426679 204.946594 206.722079 266.076881 214.852993 118.141601 120.436086 128.028663 130.901729 130.481262 121.374363 105.062232 88.016620 80.596215 67.269993 4.083234 340.676816 4.289821 31.077696 50.355825 55.767351 7.549422 296.108409 282.223358 269.032542 257.521705 248.642069 256.076777 262.423440 265.193044 253.508830 241.712891 241.808012 158.125453 96.939903 103.811046 98.370259 83.115902 91.638136 78.737481 64.630529 62.411919 75.561155 77.723258 68.187237 56.217018 43.434409 23.902591 18.026301 28.107145 76.332728 106.208950 113.825671 117.030961 117.074929 114.982912 112.190576 112.158658 108.927771
127.115891 5.970269 326.702262 321.292714 311.994669 309.154173 310.140614 314.368588 315.816596 313.079197 343.958658 62.845760 63.733201 39.089834 325.376938 303.397472 306.158801 2.473782 53.292561 52.409805 27.406890 335.207212 314.295923 315.467263 357.616475 63.844595 69.071239 52.581456 33.721345 354.615325 329.587632 21.390214 60.460226 43.287408 30.109996 36.003261 63.965653 72.284081 76.892031 79.133905 62.998451 25.716239 7.245358 6.924369 9.120856 33.263438 55.445768 59.878787 55.695661 39.726061 31.449894 27.328121 23.916148 30.686955 39.032002 46.452614 58.824789 76.286207 85.006756 106.115226 113.550489 108.684639 118.711520 264.095253 254.919097 247.160221 250.941404 249.048096 248.432586 254.892087 270.688164 290.577603 302.990620 309.308992 305.118191 285.365140 278.183383 276.088150 262.694661 254.043831 250.658497 248.921669 243.011287 240.900144 240.142338 232.135875 219.065308 216.018841 209.641981 200.269569 193.167116 197.945709 205.398933 199.922496 192.816801 190.125802 201.237037 223.190385 236.293796 244.294004 242.152927 216.089162 194.858250 197.729574 224.841929 249.375998 254.877341 248.797001 240.495210 232.330429 221.852125 213.891931 207.991440 204.180270 195.569652 187.597335 195.261937 207.713586 211.410341 215.981407 162.732260 114.035953 107.459680 109.022135 112.252883 110.050396 106.013647 89.938292 60.790960 53.958780 33.833936 14.809944 357.070095 3.366461 57.185583 64.674586 48.722673 3.583103 302.811103 268.878568 244.208842 231.783049 244.057348 256.211364 259.209410 254.542474 240.121114 243.529626 251.973379 235.698857 88.310426 91.127079 84.872062 68.308504 80.754806 113.938805 96.219809 73.589215 75.989561 71.223843 55.862234 34.376830 19.513830 20.692936 46.819457 99.633412 115.109340 116.423996 114.975057 116.609103 114.563524 115.344030 115.933359 115.846917 112.928248
236.620335 311.496146 318.200462 321.992582 312.169625 305.257366 299.817806 301.599881 311.114093 317.588487 7.617054 71.813732 68.322167 45.716549 310.679300 297.779870 301.270236 5.005902 57.813509 57.151830 32.391469 322.254443 304.061309 312.075577 22.215317 75.820683 68.110145 50.555655 28.823080 340.695476 336.556154 17.109162 34.412572 30.450575 39.951496 58.338159 78.457348 82.913796 86.214185 81.195775 42.596569 7.604074 4.961438 8.626650 18.350442 46.020746 59.143193 59.537523 47.049452 25.620105 25.886109 27.462928 23.826035 26.260952 37.761543 52.619338 67.899755 78.860556 94.907864 115.561089 130.907910 128.263989 198.543669 262.757829 249.103168 241.985177 254.546681 258.452885 262.443656 259.960276 276.933751 295.304861 309.246231 314.722584 321.693999 297.786251 270.737594 265.528957 256.093529 247.169765 246.497495 240.018066 227.442825 227.597913 231.010946 218.332645 204.664619 201.963497 194.390512 194.134965 197.617163 204.521421 204.580138 196.315377 197.943668 203.765445 222.129251 236.251545 238.744755 243.439474 233.999049 207.983235 203.317856 224.583743 257.005831 270.500948 267.411513 254.489322 239.396313 222.584179 213.279720 209.073760 204.648335 203.454993 197.784964 188.998572 193.107383 204.142167 209.914131 213.034723 175.665321 113.498566 97.984891 94.602994 95.507036 84.357395 80.284066 62.351788 50.842644 43.051598 21.848935 26.577112 40.404987 49.851795 63.989160 49.467159 24.535934 10.025279 348.619454 236.521522 218.201414 225.552498 250.368959 254.875993 254.824514 250.156772 237.380757 245.704649 255.729428 258.086245 75.922831 77.616865 72.247043 57.029289 69.293364 108.100866 116.687478 62.739646 62.056966 56.258838 43.359327 17.513441 14.606470 39.949567 81.656381 113.183153 122.373270 119.218869 115.284114 116.986218 114.333221 114.084024 115.228668 114.733181 113.429728
