ncols        175
nrows        216
xllcorner    596486.994399999967
yllcorner    5550708.937300000340
cellsize     100.000000000000
NODATA_value -9999
202.5378570556640625 176.4420928955078125 155.0489654541015625 148.9520263671875 178.2185821533203125 207.60406494140625 206.7249755859375 198.3670806884765625 202.72674560546875 224.28717041015625 262.862548828125 301.14019775390625 338.5826416015625 360.3497314453125 362.1558837890625 366.706939697265625 377.106781005859375 406.2137451171875 445.845855712890625 489.75811767578125 525.5029296875 531.36395263671875 515.9307861328125 510.23577880859375 515.7677001953125 521.05645751953125 526.9703369140625 535.71612548828125 557.202880859375 582.2386474609375 585.579345703125 580.52984619140625 581.775634765625 609.1585693359375 642.1165771484375 662.4962158203125 685.80804443359375 740.934326171875 807.93121337890625 867.321533203125 896.72198486328125 918.18365478515625 952.84051513671875 979.2738037109375 1009.16436767578125 1051.0848388671875 1073.516845703125 1058.445068359375 1023.47430419921875 983.20843505859375 938.55633544921875 882.636474609375 823.25469970703125 760.8685302734375 701.4566650390625 658.49310302734375 623.70721435546875 602.22125244140625 587.5975341796875 577.38873291015625 570.58245849609375 569.9046630859375 570.09814453125 569.54022216796875 562.447265625 539.4781494140625 539.7269287109375 558.819091796875 565.3045654296875 577.2694091796875 602.1708984375 633.4007568359375 667.949951171875 697.65185546875 739.14849853515625 790.87530517578125 846.48297119140625 904.7684326171875 962.12921142578125 1024.4617919921875 1076.79150390625 1132.423095703125 1187.881591796875 1246.7413330078125 1311.802490234375 1360.2591552734375 1391.6630859375 1408.9647216796875 1425.0067138671875 1431.2257080078125 1411.9107666015625 1388.353759765625 1393.572509765625 1378.6002197265625 1335.131591796875 1282.55126953125 1228.6820068359375 1172.28515625 1128.5880126953125 1084.834228515625 1030.01953125 1022.77886962890625 1072.4801025390625 1136.6807861328125 1204.4844970703125 1278.376220703125 1354.6689453125 1375.8369140625 1362.5162353515625 1334.316162109375 1351.8687744140625 1410.033935546875 1457.176513671875 1426.3626708984375 1344.6949462890625 1268.516845703125 1230.135498046875 1232.4453125 1254.0482177734375 1277.938232421875 1251.0709228515625 1163.72265625 1113.7437744140625 1121.9332275390625 1163.3221435546875 1214.52294921875 1266.180419921875 1315.0145263671875 1361.192626953125 1409.0709228515625 1446.165283203125 1476.4825439453125 1511.461669921875 1518.5887451171875 1497.6190185546875 1478.82958984375 1464.4532470703125 1447.6263427734375 1430.5972900390625 1418.365966796875 1408.63671875 1400.1903076171875 1389.669189453125 1379.4007568359375 1366.36865234375 1355.562255859375 1341.179931640625 1332.4954833984375 1315.718994140625 1284.091796875 1239.15869140625 1194.0313720703125 1140.7147216796875 1074.7083740234375 1010.0516357421875 946.061767578125 887.771484375 834.56793212890625 782.02691650390625 732.4619140625 678.5418701171875 623.17474365234375 562.89520263671875 503.66259765625 459.34930419921875 423.649017333984375 397.034088134765625 389.56805419921875 378.274261474609375 370.443634033203125 346.70526123046875 298.87017822265625 260.641754150390625 233.5324859619140625 209.61767578125 
201.19671630859375 181.984588623046875 157.23565673828125 145.40020751953125 153.97393798828125 165.4300384521484375 163.513275146484375 160.728302001953125 163.7499237060546875 181.0626983642578125 225.736907958984375 277.753936767578125 324.974334716796875 361.886932373046875 365.97314453125 363.60064697265625 369.60760498046875 387.048095703125 412.04351806640625 449.43878173828125 484.906463623046875 488.169158935546875 470.83917236328125 466.1468505859375 475.52496337890625 481.4208984375 487.481781005859375 503.43194580078125 521.51495361328125 538.70721435546875 547.35369873046875 548.36395263671875 552.6383056640625 568.506591796875 587.19610595703125 609.9788818359375 658.38446044921875 720.2734375 781.506103515625 817.02825927734375 828.94049072265625 843.69677734375 868.9381103515625 901.50006103515625 953.33184814453125 999.8712158203125 1021.319580078125 1030.8009033203125 1019.923095703125 984.05279541015625 941.68878173828125 882.78997802734375 823.2020263671875 766.79315185546875 710.82012939453125 658.85296630859375 619.20709228515625 594.90631103515625 581.2235107421875 570.967529296875 565.14080810546875 565.1614990234375 566.00994873046875 566.95074462890625 562.79949951171875 540.77587890625 534.35711669921875 552.90435791015625 561.5072021484375 572.000732421875 594.6861572265625 631.07110595703125 674.5198974609375 711.06561279296875 759.28521728515625 813.0623779296875 863.82647705078125 917.53643798828125 975.313232421875 1031.3414306640625 1075.9951171875 1121.6341552734375 1171.09716796875 1229.70947265625 1300.2176513671875 1356.716064453125 1395.816162109375 1410.999755859375 1405.6773681640625 1385.46142578125 1356.0855712890625 1327.85302734375 1337.9425048828125 1338.3839111328125 1297.5655517578125 1254.08203125 1211.93896484375 1162.3133544921875 1107.942138671875 1049.37548828125 1001.81109619140625 996.59527587890625 1039.615478515625 1096.3079833984375 1158.3802490234375 1232.7064208984375 1314.8104248046875 1324.2904052734375 1301.57421875 1282.932861328125 1328.24755859375 1397.64111328125 1412.0079345703125 1359.140380859375 1274.8360595703125 1207.7467041015625 1159.6832275390625 1150.232177734375 1174.5654296875 1171.9332275390625 1147.3682861328125 1105.9697265625 1077.9656982421875 1077.33740234375 1121.8099365234375 1171.383056640625 1211.737548828125 1258.8270263671875 1301.669189453125 1343.81103515625 1381.1795654296875 1420.4134521484375 1479.181640625 1519.861328125 1510.5931396484375 1490.9976806640625 1478.978515625 1465.5166015625 1455.545654296875 1448.7059326171875 1436.2657470703125 1419.2174072265625 1403.581298828125 1389.8680419921875 1376.18603515625 1364.9078369140625 1352.4705810546875 1345.8037109375 1317.608642578125 1263.3521728515625 1212.61376953125 1165.0152587890625 1114.7554931640625 1054.31982421875 992.37176513671875 931.27093505859375 876.65472412109375 823.93975830078125 760.87841796875 705.13232421875 654.16583251953125 603.8043212890625 546.5174560546875 487.329437255859375 440.26507568359375 407.303955078125 374.85064697265625 350.69171142578125 333.1197509765625 324.901336669921875 307.533599853515625 268.32147216796875 231.5221099853515625 203.710479736328125 193.208282470703125 
202.3369598388671875 194.5200958251953125 173.83648681640625 153.4827728271484375 152.2891845703125 153.20196533203125 146.9617919921875 145.9470062255859375 147.1267547607421875 152.02874755859375 179.4411773681640625 231.6951141357421875 289.436248779296875 346.386016845703125 371.04443359375 368.44512939453125 367.987030029296875 375.542510986328125 391.66204833984375 416.52874755859375 448.526153564453125 457.154693603515625 441.653594970703125 441.962310791015625 450.4766845703125 458.1712646484375 468.505126953125 484.071136474609375 496.31317138671875 508.44573974609375 518.8275146484375 523.35614013671875 529.11419677734375 540.41851806640625 556.2918701171875 581.107666015625 629.73895263671875 687.26422119140625 731.06842041015625 755.554443359375 766.08807373046875 776.69793701171875 804.3023681640625 847.7557373046875 903.5458984375 943.33880615234375 961.58941650390625 985.0750732421875 1004.22955322265625 977.448974609375 936.19573974609375 882.07122802734375 820.00445556640625 764.04425048828125 708.41650390625 657.6168212890625 617.01995849609375 586.49072265625 573.59228515625 565.1082763671875 559.63897705078125 559.58685302734375 561.10040283203125 561.959716796875 561.77606201171875 541.60467529296875 530.4678955078125 545.77301025390625 557.98712158203125 566.30157470703125 588.7247314453125 629.88568115234375 679.88836669921875 724.09478759765625 779.404296875 844.68341064453125 904.92572021484375 957.3101806640625 1004.350341796875 1040.1427001953125 1069.2769775390625 1106 1153.4853515625 1211.4744873046875 1282.252685546875 1344.760986328125 1393.57568359375 1410.989990234375 1388.629150390625 1341.2867431640625 1297.4249267578125 1266.0123291015625 1281.6925048828125 1300.3052978515625 1277.136474609375 1231.07568359375 1186.4378662109375 1147.420166015625 1101.9935302734375 1040.3250732421875 985.1417236328125 971.4019775390625 1003.63470458984375 1063.009033203125 1126.7978515625 1200.6998291015625 1265.264892578125 1259.935302734375 1237.7900390625 1252.294921875 1316.137939453125 1388.262939453125 1381.3740234375 1307.0128173828125 1234.3245849609375 1162.4322509765625 1108.6141357421875 1080.9852294921875 1093.622314453125 1077.3131103515625 1041.5001220703125 999.001953125 1003.63134765625 1028.42041015625 1083.15576171875 1125.7706298828125 1157.26220703125 1196.500244140625 1239.480224609375 1278.7274169921875 1321.1500244140625 1380.119384765625 1453.3082275390625 1498.34765625 1489.887451171875 1469.976806640625 1453.9332275390625 1443.724365234375 1445.271728515625 1446.772705078125 1443.8138427734375 1429.2269287109375 1410.0928955078125 1395.255859375 1384.6463623046875 1372.667724609375 1355.2362060546875 1346.1221923828125 1306.32470703125 1238.4505615234375 1172.3123779296875 1117.0194091796875 1070.55517578125 1019.43927001953125 969.30902099609375 926.3258056640625 877.69561767578125 819.04498291015625 757.031982421875 703.51544189453125 650.01824951171875 597.05975341796875 539.14154052734375 478.447540283203125 431.595611572265625 408.581512451171875 392.082794189453125 367.309356689453125 334.92364501953125 303.818817138671875 273.043731689453125 238.1220550537109375 205.31671142578125 192.276702880859375 197.8585357666015625 
215.4109954833984375 207.2201995849609375 196.88690185546875 183.520721435546875 174.152862548828125 169.0729522705078125 161.9003143310546875 156.267608642578125 151.5084228515625 146.08624267578125 151.0442047119140625 192.76654052734375 259.987335205078125 327.29998779296875 366.80511474609375 373.081329345703125 369.933563232421875 372.10357666015625 380.26898193359375 395.318206787109375 418.295166015625 430.640625 420.907623291015625 421.3074951171875 428.28680419921875 436.9974365234375 451.95391845703125 464.31842041015625 475.680023193359375 487.175933837890625 496.821044921875 502.684173583984375 506.60845947265625 518.39276123046875 528.31427001953125 546.58148193359375 584.02764892578125 628.24627685546875 659.829833984375 682.66912841796875 699.98797607421875 714.73297119140625 748.15704345703125 795.976318359375 852.13140869140625 885.63824462890625 897.4935302734375 929.9007568359375 974.6519775390625 966.66339111328125 929.34283447265625 879.44281005859375 818.0513916015625 760.40948486328125 699.73065185546875 649.75299072265625 611.31268310546875 581.82421875 565.49554443359375 558.23309326171875 555.93182373046875 556.63525390625 557.8369140625 560.4337158203125 560.530029296875 538.83184814453125 526.3214111328125 544.0447998046875 555.55712890625 560.0277099609375 584.316650390625 629.3330078125 683.98748779296875 729.88311767578125 791.4483642578125 863.1312255859375 927.86456298828125 987.53692626953125 1032.3603515625 1057.197509765625 1084.38623046875 1117.3323974609375 1162.513916015625 1218.93359375 1282.2227783203125 1341.3348388671875 1389.200439453125 1402.884521484375 1370.8648681640625 1318.24609375 1257.55908203125 1210.391357421875 1219.232177734375 1244.6417236328125 1247.7874755859375 1217.412109375 1171.124267578125 1124.622314453125 1077.537109375 1029.1845703125 976.51043701171875 948.701416015625 974.7091064453125 1034.47802734375 1100.90234375 1168.9334716796875 1205.922607421875 1190.3240966796875 1186.6861572265625 1237.8204345703125 1312.87353515625 1383.9073486328125 1370.5283203125 1284.876220703125 1211.9522705078125 1129.28466796875 1066.21533203125 1022.03289794921875 1005.03253173828125 1002.58160400390625 980.67919921875 934.2069091796875 937.0478515625 996.30230712890625 1053.9781494140625 1088.295166015625 1111.9005126953125 1141.9569091796875 1182.0665283203125 1226.576171875 1285.475830078125 1358.9271240234375 1432.1199951171875 1469.041015625 1449.75048828125 1421.37939453125 1398.9290771484375 1390.4276123046875 1394.0361328125 1395.894775390625 1414.9556884765625 1425.548583984375 1415.2926025390625 1399.0103759765625 1384.8140869140625 1364.0791015625 1330.5750732421875 1312.7796630859375 1289.1767578125 1228.037841796875 1151.4346923828125 1083.90966796875 1023.419189453125 969.99993896484375 921.95208740234375 887.3270263671875 851.2906494140625 802.5760498046875 749.01885986328125 691.610107421875 631.858154296875 575.91162109375 523.04052734375 467.052947998046875 418.212371826171875 388.81787109375 375.841705322265625 370.69586181640625 361.1173095703125 325.187896728515625 263.124725341796875 215.750213623046875 192.874481201171875 200.11712646484375 219.359619140625 
237.2691802978515625 223.3157806396484375 208.548065185546875 200.812774658203125 194.6074676513671875 194.22296142578125 193.955902099609375 189.345062255859375 181.8663482666015625 158.336669921875 144.9799957275390625 167.995574951171875 231.6974639892578125 295.53778076171875 339.6494140625 362.841766357421875 373.115875244140625 373.80322265625 373.47869873046875 381.098785400390625 394.827423095703125 405.7332763671875 403.6358642578125 401.54541015625 409.244598388671875 420.34442138671875 433.4683837890625 444.791473388671875 457.5511474609375 469.654815673828125 476.63995361328125 481.003265380859375 486.936126708984375 496.33709716796875 500.816253662109375 509.6607666015625 533.563232421875 569.79034423828125 598.9083251953125 623.48748779296875 639.7435302734375 661.33428955078125 699.8551025390625 746.924560546875 800.04339599609375 825.191650390625 836.2362060546875 879.9703369140625 934.153564453125 944.26641845703125 909.385009765625 858.32244873046875 800.42498779296875 747.177001953125 692.63348388671875 646.03668212890625 607.6993408203125 577.71478271484375 560.02655029296875 553.850341796875 553.123046875 552.83447265625 552.4571533203125 556.47119140625 556.15594482421875 533.80364990234375 527.533935546875 547.5631103515625 553.38629150390625 559.2999267578125 585.52935791015625 631.3690185546875 686.4669189453125 739.26593017578125 801.833984375 870.21832275390625 937.235595703125 1001.84552001953125 1043.0552978515625 1062.8509521484375 1101.1854248046875 1140.9761962890625 1180.1583251953125 1224.416259765625 1279.77978515625 1335.5438232421875 1379.955810546875 1392.4481201171875 1352.780029296875 1293.438232421875 1233.052490234375 1176.1842041015625 1158.731201171875 1178.71240234375 1198.5482177734375 1193.9053955078125 1167.1085205078125 1120.83447265625 1063.112060546875 1011.941162109375 962.02642822265625 934.07427978515625 954.4326171875 1009.19940185546875 1083.1064453125 1134.6112060546875 1137.9002685546875 1127.40576171875 1157.989501953125 1228.854248046875 1306.35986328125 1373.071044921875 1363.8349609375 1291.8392333984375 1218.2674560546875 1146.170654296875 1069.8643798828125 991.92828369140625 945.235595703125 959.064453125 941.1571044921875 890.63775634765625 920.048583984375 981.7864990234375 1029.698486328125 1065.7919921875 1084.488037109375 1104.2327880859375 1142.2066650390625 1198.1072998046875 1269.549560546875 1351.0233154296875 1415.2421875 1437.7989501953125 1413.053955078125 1368.998779296875 1336.95751953125 1319.6368408203125 1322.8743896484375 1325.86767578125 1360.6787109375 1396.3489990234375 1407.8502197265625 1388.5001220703125 1352.675537109375 1324.7960205078125 1282.8284912109375 1248.24169921875 1250.1387939453125 1218.2197265625 1146.9910888671875 1076.1435546875 1006.14263916015625 942.69122314453125 886.354248046875 837.884765625 796.6888427734375 763.4761962890625 723.27508544921875 669.72705078125 612.33135986328125 561.10760498046875 510.110931396484375 458.369293212890625 416.29998779296875 387.019378662109375 362.7427978515625 343.639434814453125 339.039703369140625 315.180816650390625 247.5494537353515625 202.1174468994140625 195.2501220703125 226.019134521484375 253.92205810546875 
252.6956634521484375 235.665679931640625 217.921417236328125 205.42364501953125 200.4514007568359375 199.8596038818359375 199.2319488525390625 197.819122314453125 194.147735595703125 177.3354644775390625 153.2086029052734375 153.6373138427734375 190.529052734375 243.8949737548828125 290.58929443359375 322.891571044921875 355.708404541015625 372.480743408203125 375.775970458984375 379.434783935546875 384.969482421875 390.023590087890625 387.0872802734375 382.033905029296875 391.373382568359375 403.708404541015625 416.228912353515625 428.214813232421875 439.341796875 448.569244384765625 456.636932373046875 460.158172607421875 464.772430419921875 472.30615234375 475.072357177734375 476.979400634765625 495.266326904296875 524.0155029296875 551.5550537109375 576.486328125 589.26983642578125 608.89495849609375 647.04644775390625 691.7210693359375 740.60418701171875 760.424560546875 781.11126708984375 831.72747802734375 886.26251220703125 908.15899658203125 872.55706787109375 819.462890625 768.4783935546875 721.46630859375 675.26995849609375 637.33404541015625 600.00079345703125 567.6597900390625 551.8953857421875 549.4781494140625 550.21527099609375 550.47149658203125 550.29473876953125 553.57275390625 548.7169189453125 524.0557861328125 523.1739501953125 545.9786376953125 549.64752197265625 557.794921875 585.34344482421875 633.57000732421875 688.7652587890625 742.15545654296875 801.64727783203125 868.2978515625 938.6632080078125 1004.58966064453125 1050.149169921875 1077.2279052734375 1111.468017578125 1153.97705078125 1196.884033203125 1235.3697509765625 1287.19189453125 1338.129638671875 1381.32958984375 1383.0203857421875 1336.570068359375 1275.5013427734375 1211.5714111328125 1154.4149169921875 1114.4732666015625 1116.39111328125 1136.263916015625 1139.604248046875 1135.8695068359375 1110.9229736328125 1049.2423095703125 989.111328125 941.67431640625 912.30206298828125 929.767333984375 985.73046875 1054.776611328125 1081.4293212890625 1078.906982421875 1095.673828125 1149.7412109375 1222.939208984375 1294.53662109375 1358.460205078125 1365.08447265625 1308.0592041015625 1241.7667236328125 1185.5506591796875 1117.985107421875 1027.285888671875 937.45867919921875 907.2105712890625 889.02166748046875 865.542236328125 911.0078125 958.824951171875 1010.87542724609375 1042.15771484375 1058.7530517578125 1087.80859375 1126.443359375 1190.7406005859375 1259.5765380859375 1319.440673828125 1361.7926025390625 1389.2586669921875 1390.365966796875 1339.3358154296875 1286.06689453125 1252.60595703125 1254.334228515625 1266.9923095703125 1307.8125 1349.3038330078125 1364.29150390625 1349.8829345703125 1302.1512451171875 1270.141845703125 1235.8367919921875 1193.125244140625 1191.4683837890625 1200.5386962890625 1157.92431640625 1091.6461181640625 1024.9095458984375 959.259033203125 899.2152099609375 829.5220947265625 763.76763916015625 718.24078369140625 677.6531982421875 630.98046875 581.2030029296875 537.2774658203125 501.287109375 464.240081787109375 425.424224853515625 397.9044189453125 372.992218017578125 342.4617919921875 316.786285400390625 290.916107177734375 236.52105712890625 197.1404266357421875 205.254058837890625 249.08001708984375 278.577362060546875 
268.852081298828125 246.4344329833984375 225.1391143798828125 209.2473602294921875 202.660186767578125 202.327545166015625 200.7872314453125 198.5159454345703125 194.696868896484375 181.2774200439453125 159.1320648193359375 148.084014892578125 157.89788818359375 184.5861053466796875 226.7062835693359375 272.13916015625 316.48614501953125 347.786346435546875 365.54486083984375 369.56903076171875 368.510223388671875 371.959716796875 370.238983154296875 366.962066650390625 376.16510009765625 389.062469482421875 400.90399169921875 412.47991943359375 422.28778076171875 431.80633544921875 438.5728759765625 440.01373291015625 444.744232177734375 449.03033447265625 449.169830322265625 452.730316162109375 469.84893798828125 493.0374755859375 516.78167724609375 536.80780029296875 545.18267822265625 561.31005859375 594.759033203125 635.3831787109375 675.27362060546875 697.9556884765625 731.70062255859375 783.73309326171875 838.4342041015625 873.0133056640625 850.7086181640625 797.82293701171875 740.408447265625 696.45550537109375 659.28216552734375 626.9759521484375 593.07598876953125 562.8140869140625 550.34271240234375 545.04693603515625 543.9031982421875 543.32647705078125 545.5386962890625 546.79644775390625 540.90008544921875 518.6812744140625 520.49566650390625 543.52239990234375 548.04058837890625 557.91064453125 585.6456298828125 634.76708984375 692.01153564453125 746.63720703125 803.79388427734375 868.353759765625 937.65301513671875 999.08074951171875 1044.3565673828125 1082.2286376953125 1123.14208984375 1166.459716796875 1208.8134765625 1251.404052734375 1298.891845703125 1344.2357177734375 1383.99462890625 1380.994384765625 1338.9765625 1281.6553955078125 1215.736572265625 1146.085205078125 1085.199462890625 1061.5609130859375 1066.2730712890625 1070.3946533203125 1079.314208984375 1076.4776611328125 1019.41741943359375 950.3729248046875 905.24932861328125 887.94769287109375 902.72076416015625 950.00927734375 1002.99542236328125 1029.04833984375 1054.0299072265625 1105.633544921875 1165.4415283203125 1233.6717529296875 1304.4642333984375 1358.91552734375 1359.243896484375 1299.5987548828125 1235.032470703125 1178.828369140625 1121.4605712890625 1038.3023681640625 939.05548095703125 871.8485107421875 844.25433349609375 840.2215576171875 881.51593017578125 927.27105712890625 978.84814453125 1007.351806640625 1027.5303955078125 1067.544677734375 1122.668212890625 1184.0699462890625 1219.709716796875 1253.5155029296875 1287.783203125 1338.889404296875 1380.8603515625 1345.6463623046875 1269.1650390625 1206.0721435546875 1189.35791015625 1209.8487548828125 1259.697021484375 1301.460205078125 1303.0377197265625 1297.8878173828125 1260.7716064453125 1213.6956787109375 1181.77978515625 1146.9013671875 1136.971435546875 1168.9208984375 1170.372802734375 1120.9456787109375 1056.6160888671875 996.2449951171875 931.50872802734375 850.98828125 774.3468017578125 708.83880615234375 650.3367919921875 597.69891357421875 552.12701416015625 509.698760986328125 476.839141845703125 445.890869140625 414.77099609375 387.06768798828125 363.3602294921875 340.779937744140625 316.61236572265625 286.552825927734375 238.2660675048828125 200.12646484375 219.608001708984375 264.662384033203125 296.960693359375 
276.978271484375 248.796356201171875 226.4922332763671875 211.8969268798828125 206.349884033203125 205.149993896484375 202.7141265869140625 197.3513031005859375 191.457000732421875 174.44891357421875 156.5992431640625 152.39837646484375 149.7466278076171875 149.6243743896484375 169.3198699951171875 226.341949462890625 280.08013916015625 304.796112060546875 322.696136474609375 332.581085205078125 333.692413330078125 345.533203125 348.661529541015625 352.92718505859375 364.131561279296875 375.229766845703125 386.225128173828125 396.209930419921875 406.056610107421875 416.61016845703125 419.67633056640625 423.1771240234375 428.665069580078125 430.153228759765625 428.62744140625 436.163726806640625 452.960784912109375 469.048828125 486.91448974609375 503.652740478515625 507.751129150390625 515.37371826171875 538.60528564453125 573.66754150390625 610.38482666015625 642.02740478515625 685.78021240234375 737.72393798828125 791.17718505859375 832.72564697265625 825.41387939453125 783.0869140625 723.41796875 673.49188232421875 645.22064208984375 616.5465087890625 588.20654296875 561.43719482421875 547.60357666015625 541.7471923828125 540.63592529296875 540.81060791015625 542.5057373046875 542.46868896484375 536.3416748046875 518.2967529296875 520.63519287109375 542.1409912109375 547.65240478515625 559.23785400390625 591.35272216796875 638.122314453125 693.69696044921875 745.35650634765625 802.14984130859375 858.62493896484375 918.5135498046875 972.9580078125 1024.7493896484375 1079.052490234375 1133.0362548828125 1180.4747314453125 1217.5296630859375 1258.757080078125 1306.6824951171875 1349.647705078125 1378.7130126953125 1374.1943359375 1338.3592529296875 1293.89697265625 1237.61181640625 1170.4129638671875 1101.264892578125 1047.27001953125 1015.8740234375 1003.3785400390625 1014.00445556640625 1024.7628173828125 983.31024169921875 917.11309814453125 870.79876708984375 867.03839111328125 883.5836181640625 921.29266357421875 964.816650390625 1005.267822265625 1059.5794677734375 1125.3800048828125 1192.52197265625 1260.392822265625 1325.5775146484375 1372.479248046875 1365.0887451171875 1292.3729248046875 1217.6744384765625 1157.13134765625 1103.60595703125 1023.274169921875 932.758544921875 865.1160888671875 817.106689453125 807.438720703125 842.3388671875 889.8807373046875 932.7183837890625 946.4771728515625 974.27850341796875 1027.551513671875 1090.786865234375 1141.3023681640625 1154.1405029296875 1174.3558349609375 1215.9139404296875 1288.862548828125 1362.66845703125 1354.39794921875 1284.476318359375 1201.2618408203125 1144.20849609375 1155.2421875 1207.3106689453125 1244.5233154296875 1237.81201171875 1234.2344970703125 1205.2349853515625 1155.8970947265625 1119.68310546875 1097.818359375 1082.5576171875 1114.4388427734375 1157.5479736328125 1152.1781005859375 1095.165771484375 1025.7672119140625 953.47625732421875 874.3961181640625 801.548095703125 739.9537353515625 683.692626953125 629.46002197265625 576.38385009765625 528.554443359375 490.7266845703125 453.403045654296875 418.028045654296875 383.653076171875 354.342864990234375 328.72705078125 307.353424072265625 280.439849853515625 233.000823974609375 200.43902587890625 227.157501220703125 275.095855712890625 313.799713134765625 
273.9256591796875 241.9329681396484375 224.320068359375 213.4220428466796875 207.81884765625 205.637298583984375 202.2922515869140625 196.3224334716796875 188.6840362548828125 171.469512939453125 159.5631866455078125 164.9576568603515625 158.925689697265625 146.3368988037109375 150.2521820068359375 195.49859619140625 249.7113494873046875 266.43817138671875 277.495819091796875 288.590576171875 298.911651611328125 317.9324951171875 327.057159423828125 337.135711669921875 350.700164794921875 361.66680908203125 368.7454833984375 378.251068115234375 389.5428466796875 398.292755126953125 400.779754638671875 407.602386474609375 411.970245361328125 411.974853515625 412.126953125 421.235748291015625 434.7281494140625 447.9381103515625 462.005462646484375 474.340179443359375 476.95941162109375 475.290679931640625 488.723602294921875 518.472412109375 552.36334228515625 592.62408447265625 647.01824951171875 698.76947021484375 750.572265625 794.01495361328125 792.37548828125 760.057861328125 712.01580810546875 661.133056640625 631.3594970703125 606.41961669921875 582.71380615234375 558.666259765625 544.29986572265625 537.32257080078125 536.415283203125 537.86444091796875 539.89752197265625 537.46600341796875 526.9014892578125 510.437713623046875 518.96734619140625 543.4580078125 554.705078125 569.8975830078125 596.97705078125 637.83062744140625 687.4632568359375 732.10772705078125 778.31024169921875 825.07574462890625 878.60882568359375 934.6845703125 996.93048095703125 1065.2225341796875 1124.5087890625 1175.5360107421875 1220.4495849609375 1261.1522216796875 1304.325927734375 1338.141357421875 1355.8564453125 1353.7781982421875 1329.9432373046875 1297.5205078125 1252.009765625 1197.05615234375 1137.07861328125 1074.7041015625 1018.02789306640625 971.733642578125 956.84918212890625 958.5638427734375 933.9339599609375 883.3846435546875 846.7362060546875 859.16571044921875 891.84197998046875 932.90057373046875 981.83197021484375 1028.147705078125 1078.1942138671875 1139.928955078125 1214.07568359375 1282.6287841796875 1337.7135009765625 1380.98046875 1374.3482666015625 1304.4024658203125 1232.3768310546875 1177.8250732421875 1120.05908203125 1034.3173828125 941.38909912109375 865.5972900390625 802.20794677734375 778.2781982421875 794.1640625 840.27349853515625 883.06988525390625 890.05426025390625 920.22857666015625 978.64422607421875 1037.131103515625 1074.02880859375 1070.26220703125 1089.61767578125 1154.1490478515625 1226.2745361328125 1297.853515625 1304.515869140625 1254.9832763671875 1195.2103271484375 1122.981201171875 1108.144287109375 1151.6341552734375 1178.569091796875 1166.2532958984375 1160.6295166015625 1132.5802001953125 1100.07763671875 1066.6431884765625 1039.88525390625 1022.3463134765625 1056.8162841796875 1122.186279296875 1160.210693359375 1133.6607666015625 1065.2132568359375 980.461669921875 897.36700439453125 833.923583984375 780.7978515625 733.1531982421875 678.87689208984375 632.0885009765625 588.78662109375 540.29376220703125 489.753997802734375 443.807281494140625 393.580230712890625 344.766326904296875 313.94903564453125 296.335052490234375 271.971923828125 221.090362548828125 200.369781494140625 236.101776123046875 288.44354248046875 340.45245361328125 
290.230926513671875 245.449676513671875 223.3083953857421875 213.51025390625 207.868988037109375 205.3571624755859375 199.56536865234375 192.4167327880859375 179.218536376953125 166.32586669921875 166.267333984375 174.824249267578125 170.1746673583984375 153.187713623046875 145.1424102783203125 172.0512847900390625 227.7576141357421875 245.45709228515625 255.91680908203125 269.6005859375 283.32415771484375 298.906829833984375 311.353790283203125 323.197906494140625 336.245574951171875 345.7457275390625 352.025909423828125 360.847930908203125 371.807342529296875 379.017822265625 384.672454833984375 392.682891845703125 396.07568359375 395.558258056640625 395.67474365234375 404.0316162109375 416.4373779296875 427.7476806640625 439.417144775390625 448.077606201171875 449.951568603515625 448.22491455078125 456.05999755859375 478.426513671875 508.071319580078125 552.175048828125 609.19970703125 665.91033935546875 718.94171142578125 770.593994140625 776.613525390625 743.9931640625 701.33056640625 657.15521240234375 624.030517578125 599.59002685546875 580.2164306640625 557.661865234375 541.986083984375 535.39215087890625 533.68646240234375 534.39312744140625 534.24017333984375 530.474365234375 516.273193359375 504.168609619140625 520.79620361328125 544.986328125 563.99755859375 574.69451904296875 594.90533447265625 630.60040283203125 673.06402587890625 710.6776123046875 749.43304443359375 796.0728759765625 851.99639892578125 917.56964111328125 983.521240234375 1051.238525390625 1119.6185302734375 1172.4534912109375 1218.647705078125 1258.427978515625 1288.23046875 1299.686279296875 1305.15283203125 1317.774658203125 1315.7000732421875 1289.4722900390625 1253.1064453125 1210.6195068359375 1157.05517578125 1098.3514404296875 1035.3052978515625 970.11541748046875 918.28265380859375 891.83392333984375 874.36016845703125 846.1588134765625 829.26922607421875 854.93939208984375 911.82843017578125 973.68463134765625 1027.7203369140625 1079.5496826171875 1126.828125 1170.2593994140625 1220.4210205078125 1273.381103515625 1319.9765625 1357.7264404296875 1367.2911376953125 1324.775390625 1272.5296630859375 1213.525390625 1137.6739501953125 1047.5615234375 961.58123779296875 877.265380859375 810.14306640625 765.3094482421875 752.751220703125 790.09991455078125 831.324462890625 838.26531982421875 871.29608154296875 927.429931640625 976.7181396484375 1002.531494140625 993.38922119140625 1017.19488525390625 1099.3946533203125 1162.4986572265625 1208.9427490234375 1214.568603515625 1199.755859375 1176.009033203125 1107.93115234375 1070.45751953125 1088.9925537109375 1104.6878662109375 1089.795166015625 1084.4031982421875 1065.2811279296875 1038.487060546875 1008.59075927734375 980.0689697265625 975.29730224609375 1021.8109130859375 1093.3616943359375 1148.5128173828125 1151.7484130859375 1103.0872802734375 1024.89501953125 942.60546875 879.9945068359375 828.63848876953125 778.33349609375 730.61285400390625 686.38726806640625 631.47955322265625 574.47869873046875 519.80853271484375 461.324249267578125 400.12567138671875 339.795257568359375 300.66455078125 281.842987060546875 251.950775146484375 206.362274169921875 200.999725341796875 244.276092529296875 299.387237548828125 354.9473876953125 
312.436431884765625 264.89349365234375 230.7452850341796875 216.50384521484375 209.1833953857421875 204.017822265625 196.231597900390625 185.9937896728515625 173.0679168701171875 175.64923095703125 185.0346527099609375 189.4585723876953125 180.6311798095703125 159.5802001953125 146.6966552734375 166.9519195556640625 212.28228759765625 234.4703521728515625 249.1343536376953125 262.501129150390625 275.351318359375 287.560638427734375 299.301513671875 310.6663818359375 321.661651611328125 329.923675537109375 334.63079833984375 345.73345947265625 352.8533935546875 357.92559814453125 368.896240234375 376.94287109375 379.837371826171875 379.761566162109375 381.278656005859375 388.522918701171875 399.169189453125 408.97906494140625 418.701416015625 425.115875244140625 428.38970947265625 429.674560546875 439.330047607421875 458.90716552734375 481.637542724609375 521.062744140625 574.238525390625 634.1197509765625 689.8621826171875 748.90765380859375 777.654541015625 753.8170166015625 706.55706787109375 660.7957763671875 628.1112060546875 599.26513671875 575.00592041015625 553.740966796875 539.87255859375 533.36480712890625 533.274169921875 533.9324951171875 530.226318359375 518.73687744140625 503.45928955078125 503.44866943359375 529.36065673828125 548.73992919921875 565.82537841796875 576.00201416015625 597.47991943359375 629.01153564453125 667.598388671875 708.54388427734375 752.318115234375 803.86468505859375 868.87420654296875 934.99188232421875 1004.8741455078125 1067.8187255859375 1126.2073974609375 1177.2467041015625 1220.8480224609375 1255.8626708984375 1271.3018798828125 1255.595947265625 1246.14208984375 1266.196533203125 1285.633056640625 1273.9249267578125 1245.786865234375 1208.6376953125 1162.0718994140625 1104.6282958984375 1040.23681640625 964.79998779296875 903.87335205078125 851.10546875 822.0587158203125 810.21221923828125 817.4176025390625 852.67266845703125 912.199462890625 977.16876220703125 1040.604248046875 1101.164306640625 1152.3709716796875 1188.4974365234375 1213.5955810546875 1242.376220703125 1273.622314453125 1306.3492431640625 1328.560302734375 1293.86279296875 1242.49951171875 1198.8358154296875 1132.36376953125 1043.5936279296875 973.665771484375 899.27264404296875 827.6719970703125 763.72979736328125 724.33770751953125 742.8682861328125 782.35614013671875 790.53857421875 826.45599365234375 881.017578125 917.14801025390625 931.37945556640625 926.35089111328125 966.4730224609375 1033.7242431640625 1090.8675537109375 1122.7613525390625 1120.0841064453125 1136.4866943359375 1149.3826904296875 1101.69873046875 1051.3543701171875 1032.564453125 1033.58056640625 1022.8399658203125 1014.3240966796875 1000.95855712890625 976.9801025390625 948.50958251953125 925.15264892578125 938.00634765625 996.86444091796875 1071.04443359375 1130.3267822265625 1137.0137939453125 1095.72998046875 1045.001220703125 989.8238525390625 933.21795654296875 882.9940185546875 829.29296875 770.88037109375 710.7510986328125 647.65185546875 585.7103271484375 520.2213134765625 452.10577392578125 394.0172119140625 339.016143798828125 296.445037841796875 260.999176025390625 220.2168731689453125 197.171783447265625 215.4836883544921875 255.8691558837890625 303.56158447265625 353.44732666015625 
324.437835693359375 281.639923095703125 245.129547119140625 219.812530517578125 210.3757781982421875 203.7022705078125 195.054473876953125 185.121612548828125 177.346954345703125 195.172515869140625 215.2182159423828125 217.8531036376953125 209.5591888427734375 179.5098419189453125 150.3751983642578125 153.258087158203125 186.472412109375 218.846038818359375 238.4757080078125 253.3326263427734375 264.568023681640625 276.73138427734375 287.561981201171875 297.19683837890625 307.673095703125 315.639495849609375 321.98614501953125 330.76361083984375 336.69573974609375 345.9351806640625 353.746063232421875 359.930450439453125 364.7091064453125 364.631256103515625 366.957183837890625 374.8790283203125 385.004638671875 393.42816162109375 401.762237548828125 406.669281005859375 410.639068603515625 414.683197021484375 426.353240966796875 442.413787841796875 463.149444580078125 497.491790771484375 542.4093017578125 595.50811767578125 651.5159912109375 712.82763671875 758.52716064453125 759.572265625 729.7325439453125 682.8304443359375 641.5233154296875 602.06884765625 566.77197265625 545.1163330078125 535.0086669921875 529.8912353515625 528.742431640625 529.41278076171875 525.25555419921875 508.440887451171875 493.825897216796875 502.383941650390625 527.71478271484375 549.09222412109375 562.6383056640625 574.7681884765625 593.48883056640625 622.2447509765625 661.24493408203125 706.8792724609375 757.02606201171875 814.81658935546875 884.20281982421875 952.26983642578125 1019.81854248046875 1081.75537109375 1141.11669921875 1187.5208740234375 1224.1031494140625 1253.1651611328125 1259.7685546875 1227.0318603515625 1195.2672119140625 1207.487060546875 1237.5777587890625 1242.457763671875 1219.21484375 1177.7637939453125 1126.4918212890625 1071.5540771484375 1016.57763671875 953.14801025390625 888.67431640625 829.12213134765625 790.64471435546875 790.3924560546875 813.2169189453125 846.0965576171875 899.193603515625 961.11138916015625 1011.629638671875 1061.65283203125 1108.062744140625 1143.8150634765625 1162.9244384765625 1185.84033203125 1219.20068359375 1272.1593017578125 1309.5439453125 1268.9234619140625 1200.8922119140625 1145.71484375 1094.6099853515625 1023.89959716796875 966.02423095703125 902.392578125 837.2421875 772.96929931640625 715.9840087890625 704.95404052734375 735.82061767578125 746.38690185546875 784.173828125 834.9287109375 855.97039794921875 862.467529296875 881.87237548828125 932.93829345703125 978.72772216796875 1024.1124267578125 1040.765380859375 1041.2608642578125 1083.7978515625 1142.8074951171875 1128.52392578125 1071.509033203125 1013.97967529296875 981.493408203125 963.37615966796875 949.70867919921875 933.38714599609375 913.67047119140625 889.78924560546875 874.1466064453125 902.07965087890625 966.389892578125 1036.1649169921875 1089.24365234375 1096.2110595703125 1060.1878662109375 1032.11181640625 1020.37786865234375 993.1544189453125 935.09527587890625 866.59747314453125 787.26043701171875 716.16461181640625 645.97113037109375 578.3441162109375 513.79705810546875 454.62677001953125 402.1009521484375 346.874725341796875 291.41680908203125 241.182403564453125 200.791229248046875 205.5559844970703125 239.116180419921875 278.057159423828125 309.1280517578125 340.6473388671875 
337.2073974609375 297.927947998046875 263.291778564453125 225.5908966064453125 211.5801239013671875 204.6500396728515625 196.3378753662109375 184.748626708984375 181.4146881103515625 201.95220947265625 220.2858734130859375 223.2249908447265625 221.12005615234375 203.5715484619140625 166.8276824951171875 145.868988037109375 158.2575836181640625 194.72576904296875 226.0305328369140625 241.5585174560546875 251.836761474609375 262.86444091796875 273.039520263671875 283.288421630859375 292.361968994140625 300.66815185546875 308.264404296875 315.268524169921875 326.1002197265625 337.1163330078125 342.941558837890625 346.38104248046875 349.5985107421875 351.282623291015625 354.58990478515625 361.818817138671875 370.523681640625 379.88531494140625 387.786956787109375 392.978759765625 397.119384765625 401.88409423828125 411.19073486328125 428.169677734375 448.1412353515625 476.639801025390625 514.20556640625 554.51763916015625 607.33807373046875 667.8428955078125 716.07586669921875 742.1214599609375 738.9727783203125 698.91314697265625 653.32623291015625 607.5860595703125 565.40423583984375 538.9384765625 528.39959716796875 526.0294189453125 526.661865234375 523.90484619140625 513.72705078125 494.023773193359375 491.589752197265625 506.7860107421875 523.14569091796875 540.2728271484375 553.20806884765625 567.2637939453125 586.65863037109375 614.10906982421875 647.29302978515625 695.69879150390625 751.74456787109375 811.67974853515625 877.16015625 947.005126953125 1010.08343505859375 1072.810546875 1135.4942626953125 1185.4940185546875 1219.08935546875 1242.420654296875 1245.9241943359375 1209.8609619140625 1160.3338623046875 1149.8748779296875 1178.998291015625 1197.9569091796875 1182.68408203125 1136.2611083984375 1080.0037841796875 1026.3529052734375 974.88226318359375 919.55108642578125 866.00799560546875 812.76116943359375 775.595703125 775.67181396484375 799.4111328125 827.61907958984375 877.36724853515625 929.2691650390625 966.40911865234375 1007.9244384765625 1046.022705078125 1075.0054931640625 1097.9229736328125 1135.3895263671875 1189.7052001953125 1261.1385498046875 1307.4127197265625 1271.9517822265625 1188.17626953125 1117.6121826171875 1051.3385009765625 992.5589599609375 935.509765625 884.84600830078125 840.3995361328125 781.5262451171875 717.38079833984375 679.5565185546875 690.28753662109375 701.81573486328125 744.105224609375 778.41241455078125 791.65093994140625 799.9581298828125 842.07684326171875 884.7550048828125 923.60107421875 960.14202880859375 965.185546875 988.3170166015625 1057.444580078125 1129.6370849609375 1150.024658203125 1100.4326171875 1039.1339111328125 984.25140380859375 940.687744140625 905.5506591796875 876.85540771484375 856.32635498046875 836.53424072265625 831.717041015625 867.08331298828125 930.7435302734375 988.035400390625 1025.3074951171875 1032.621826171875 1006.0794677734375 979.018310546875 994.64715576171875 1011.35247802734375 975.24932861328125 894.48724365234375 810.11907958984375 734.26318359375 662.41314697265625 592.8416748046875 523.4127197265625 464.44354248046875 403.805450439453125 338.841552734375 275.429107666015625 221.8701324462890625 194.827117919921875 218.7633209228515625 268.424530029296875 316.787109375 349.11279296875 368.71820068359375 
365.66162109375 316.37237548828125 281.689117431640625 241.795135498046875 219.575775146484375 208.8972930908203125 197.4180908203125 183.106719970703125 188.4715728759765625 206.285736083984375 222.611328125 227.6727294921875 227.41943359375 220.1558685302734375 191.4606475830078125 162.3943939208984375 151.0311279296875 168.0583038330078125 206.5818939208984375 228.3930206298828125 240.107452392578125 249.7315673828125 260.3822021484375 269.6556396484375 277.447418212890625 285.92041015625 294.873626708984375 305.722320556640625 317.412353515625 326.257843017578125 331.54132080078125 336.24444580078125 338.853424072265625 340.454620361328125 343.150146484375 348.5372314453125 357.301116943359375 367.052276611328125 375.085113525390625 381.921600341796875 387.179168701171875 393.096099853515625 400.668853759765625 413.897064208984375 433.5859375 457.90679931640625 484.334014892578125 516.3978271484375 561.626220703125 619.27545166015625 672.3880615234375 714.95751953125 732.1739501953125 701.86114501953125 658.9305419921875 616.926513671875 574.4447021484375 541.87176513671875 528.20611572265625 524.350341796875 524.5841064453125 521.5250244140625 506.5950927734375 483.7677001953125 496.357086181640625 519.07452392578125 528.0205078125 535.48333740234375 545.68499755859375 562.11822509765625 580.10833740234375 601.82232666015625 636.372314453125 683.76995849609375 743.729736328125 801.32232666015625 863.15228271484375 930.44342041015625 997.0279541015625 1060.415771484375 1122.9603271484375 1174.994140625 1207.5782470703125 1226.235107421875 1226.9349365234375 1195.51953125 1141.589599609375 1106.9322509765625 1122.3836669921875 1150.59619140625 1151.49755859375 1107.2000732421875 1045.729248046875 988.45697021484375 932.3079833984375 878.5792236328125 830.2451171875 790.13336181640625 764.0408935546875 762.4608154296875 777.73577880859375 805.749755859375 847.971923828125 885.7591552734375 917.618408203125 954.7359619140625 991.3353271484375 1027.95849609375 1071.767578125 1130.8905029296875 1198.9580078125 1270.1988525390625 1313.9337158203125 1276.9049072265625 1192.88232421875 1113.9876708984375 1029.675048828125 952.46234130859375 890.25238037109375 840.74468994140625 804.209716796875 763.00946044921875 714.86712646484375 668.4541015625 651.1673583984375 658.59295654296875 696.47296142578125 723.095703125 732.14947509765625 736.68572998046875 781.928955078125 829.30511474609375 872.4796142578125 894.1351318359375 904.490966796875 952.945068359375 1026.5181884765625 1098.1397705078125 1146.499267578125 1131.3609619140625 1079.82861328125 1022.4853515625 963.722412109375 906.63836669921875 855.47357177734375 815.8719482421875 795.84075927734375 801.2359619140625 841.423828125 886.2052001953125 926.74761962890625 953.4744873046875 958.66876220703125 941.45245361328125 922.34539794921875 950.49725341796875 983.98291015625 964.58612060546875 908.9337158203125 836.769775390625 761.1744384765625 683.10357666015625 611.38836669921875 541.7047119140625 467.88385009765625 393.7591552734375 328.847991943359375 267.711669921875 212.0006561279296875 194.9394989013671875 220.154937744140625 279.4183349609375 338.9830322265625 367.717498779296875 383.1177978515625 
398.59027099609375 335.227264404296875 290.67822265625 257.125244140625 228.0704498291015625 212.1185455322265625 190.7496490478515625 183.1960296630859375 197.8643951416015625 214.317596435546875 227.5802001953125 233.1078643798828125 235.45611572265625 231.1358642578125 213.826446533203125 184.3928375244140625 156.8991241455078125 151.1371307373046875 181.3916473388671875 214.8607940673828125 229.258941650390625 240.3894500732421875 250.4228515625 257.19195556640625 262.27276611328125 273.860015869140625 285.6142578125 295.468658447265625 305.081695556640625 313.889923095703125 319.80279541015625 325.714019775390625 327.398468017578125 331.499603271484375 337.843780517578125 344.5955810546875 351.697967529296875 359.543975830078125 366.800140380859375 372.87890625 379.7498779296875 386.14410400390625 393.079498291015625 404.534088134765625 424.34637451171875 447.931854248046875 468.3817138671875 489.7745361328125 523.85205078125 576.884033203125 636.057861328125 688.57598876953125 714.883544921875 693.4625244140625 657.2415771484375 628.69091796875 595.19775390625 553.23406982421875 530.23602294921875 523.5316162109375 523.76947021484375 519.236328125 496.81842041015625 479.85498046875 502.5792236328125 524.74676513671875 528.940185546875 533.007080078125 542.20721435546875 559.15020751953125 580.81488037109375 601.1900634765625 632.7625732421875 675.21649169921875 736.0526123046875 795.94903564453125 854.53399658203125 919.62115478515625 990.14691162109375 1055.8388671875 1115.5941162109375 1164.30859375 1193.251953125 1207.847412109375 1205.10791015625 1179.9803466796875 1129.5936279296875 1079.9281005859375 1072.8189697265625 1103.4443359375 1120.5462646484375 1094.2618408203125 1026.6273193359375 959.06829833984375 897.88116455078125 842.48406982421875 798.6334228515625 765.904052734375 750.97808837890625 754.084716796875 768.6492919921875 794.33416748046875 827.77581787109375 855.908447265625 887.71466064453125 926.9697265625 965.67938232421875 1011.1495361328125 1072.456298828125 1138.0416259765625 1205.064697265625 1267.954345703125 1306.716552734375 1275.5968017578125 1185.8941650390625 1103.5390625 1013.210693359375 938.02996826171875 872.36480712890625 816.6083984375 778.87451171875 745.9522705078125 713.32757568359375 676.33746337890625 636.58563232421875 622.92205810546875 646.20660400390625 670.58319091796875 676.77874755859375 691.140380859375 733.0999755859375 780.29351806640625 819.37274169921875 835.83477783203125 866.6243896484375 928.03485107421875 997.6741943359375 1069.3717041015625 1130.71337890625 1149.09912109375 1109.3167724609375 1049.4686279296875 990.19403076171875 927.02838134765625 864.42071533203125 803.76055908203125 769.893798828125 768.57293701171875 796.98321533203125 832.52984619140625 861.8497314453125 884.16485595703125 888.6341552734375 871.54766845703125 869.98370361328125 911.39239501953125 944.6650390625 918.2196044921875 879.01556396484375 832.255859375 770.301025390625 698.49853515625 627.9073486328125 553.49237060546875 474.09735107421875 400.613555908203125 331.14068603515625 269.355255126953125 214.300811767578125 191.661712646484375 207.4764862060546875 262.335784912109375 330.557769775390625 363.4910888671875 377.720489501953125 
420.597991943359375 358.55328369140625 309.144989013671875 274.0748291015625 234.1301116943359375 204.390716552734375 188.94024658203125 200.9407806396484375 212.46661376953125 222.3730621337890625 228.1463623046875 234.765411376953125 237.5668487548828125 236.264404296875 229.3864288330078125 208.6828460693359375 176.5848541259765625 150.653228759765625 160.47894287109375 199.9117889404296875 218.5427703857421875 228.7612457275390625 236.52813720703125 240.613128662109375 249.5188446044921875 265.65350341796875 275.89105224609375 284.816192626953125 294.47314453125 301.99725341796875 306.6285400390625 313.3883056640625 317.6937255859375 327.1793212890625 343.417724609375 351.313629150390625 353.70843505859375 356.461822509765625 361.938568115234375 372.711273193359375 380.503692626953125 384.28192138671875 390.3988037109375 401.405242919921875 419.56854248046875 440.145843505859375 457.19281005859375 472.958404541015625 503.115936279296875 552.34417724609375 612.10516357421875 668.0333251953125 694.6053466796875 681.63287353515625 654.49249267578125 630.60235595703125 601.33465576171875 562.4423828125 535.99066162109375 526.3359375 523.598388671875 513.10015869140625 485.730072021484375 483.4554443359375 513.14910888671875 527.69024658203125 527.86920166015625 529.78173828125 537.8038330078125 557.37750244140625 580.28839111328125 599.77099609375 629.39874267578125 673.22943115234375 734.7547607421875 791.88543701171875 850.0682373046875 912.0401611328125 978.3931884765625 1045.6002197265625 1107.0040283203125 1156.7257080078125 1182.1356201171875 1189.6995849609375 1183.8974609375 1160.922119140625 1117.5770263671875 1063.722900390625 1037.248291015625 1057.5078125 1080.419189453125 1073.2008056640625 1016.79461669921875 946.036376953125 877.29559326171875 817.01824951171875 770.39617919921875 745.2464599609375 738.21783447265625 742.58575439453125 759.94708251953125 782.041015625 815.97027587890625 853.96661376953125 898.62237548828125 944.58807373046875 988.95794677734375 1032.11279296875 1081.97802734375 1140.457275390625 1204.3209228515625 1266.108154296875 1301.825927734375 1268.5206298828125 1175.9495849609375 1096.533935546875 1024.18994140625 991.2579345703125 942.81890869140625 882.1937255859375 836.4393310546875 799.60516357421875 760.348388671875 709.89593505859375 650.74407958984375 607.0196533203125 602.42742919921875 620.552734375 631.16864013671875 657.7139892578125 698.8258056640625 742.81146240234375 770.49981689453125 794.00811767578125 846.608642578125 908.8270263671875 978.49371337890625 1046.023193359375 1102.6492919921875 1134.1873779296875 1105.277587890625 1042.93115234375 983.3748779296875 925.7586669921875 864.73065185546875 802.52130126953125 754.359130859375 737.3743896484375 750.18060302734375 779.201171875 801.140625 821.3125 824.09661865234375 804.92974853515625 815.112548828125 868.841064453125 901.93463134765625 873.7388916015625 831.04931640625 793.73760986328125 759.2047119140625 708.2852783203125 638.29510498046875 560.0035400390625 478.747283935546875 407.85247802734375 337.2127685546875 276.822265625 224.68841552734375 193.23052978515625 197.3962249755859375 240.2303466796875 303.613739013671875 345.42401123046875 364.097259521484375 
448.8453369140625 386.286346435546875 330.7060546875 292.490203857421875 244.5921173095703125 197.84417724609375 203.770782470703125 220.0159149169921875 220.489501953125 224.121795654296875 228.5779571533203125 236.498809814453125 237.2561798095703125 237.5556793212890625 236.6340789794921875 230.84356689453125 205.488861083984375 166.0943603515625 151.009857177734375 178.74517822265625 205.267547607421875 215.5756683349609375 222.4218902587890625 230.6442718505859375 245.6061248779296875 258.52691650390625 265.924468994140625 273.81365966796875 282.68023681640625 289.6099853515625 293.552337646484375 299.23834228515625 307.81787109375 324.755889892578125 338.184326171875 346.354278564453125 353.030975341796875 353.377288818359375 356.57879638671875 370.991851806640625 382.622039794921875 386.47308349609375 388.7066650390625 399.4703369140625 415.5897216796875 430.896240234375 446.660552978515625 466.238922119140625 492.0438232421875 537.61224365234375 596.127197265625 650.02838134765625 684.14910888671875 679.63909912109375 653.62384033203125 626.697265625 594.22711181640625 559.82244873046875 536.529296875 525.0772705078125 520.58697509765625 504.43292236328125 477.326507568359375 495.126068115234375 520.44769287109375 524.4517822265625 525.3756103515625 527.485595703125 536.26910400390625 557.4278564453125 579.358642578125 595.36712646484375 625.11553955078125 672.36865234375 730.255615234375 783.980712890625 835.68157958984375 891.80792236328125 957.3624267578125 1026.603515625 1093.7071533203125 1147.294189453125 1171.564697265625 1176.854248046875 1171.2945556640625 1149.283203125 1111.017822265625 1059.960205078125 1015.17608642578125 1012.478759765625 1031.4232177734375 1036.98046875 1000.75494384765625 934.03680419921875 863.59527587890625 803.953369140625 761.2218017578125 731.77655029296875 721.94647216796875 727.9891357421875 742.67547607421875 767.76824951171875 804.1461181640625 843.13629150390625 890.20001220703125 936.2633056640625 980.05804443359375 1026.286865234375 1078.0350341796875 1136.86181640625 1197.231689453125 1251.39404296875 1292.0714111328125 1269.407470703125 1203.760498046875 1149.12060546875 1102.66455078125 1071.6685791015625 1024.9180908203125 969.411865234375 920.9693603515625 878.46514892578125 822.4644775390625 755.82293701171875 686.68109130859375 619.661376953125 578.54345703125 580.7994384765625 599.0367431640625 628.57666015625 673.11383056640625 714.6336669921875 734.36993408203125 770.3592529296875 825.927001953125 887.52978515625 957.69927978515625 1016.5238037109375 1062.304931640625 1101.357177734375 1101.2269287109375 1046.454833984375 982.348876953125 923.65167236328125 861.081787109375 799.24688720703125 746.48834228515625 716.15643310546875 710.89642333984375 725.059814453125 742.06622314453125 763.33551025390625 765.20892333984375 747.8173828125 769.35430908203125 822.30499267578125 852.9962158203125 833.17926025390625 789.4688720703125 745.05169677734375 716.81365966796875 689.2684326171875 639.727294921875 566.22613525390625 493.401611328125 418.33709716796875 346.374114990234375 287.55059814453125 243.95782470703125 203.691864013671875 193.058441162109375 222.76416015625 273.7308349609375 314.162750244140625 342.1331787109375 
481.7017822265625 411.83831787109375 349.611785888671875 304.532562255859375 248.159332275390625 195.4734039306640625 212.9187469482421875 224.1736602783203125 223.5887908935546875 224.4088287353515625 229.4384307861328125 235.525054931640625 237.907745361328125 237.466094970703125 238.745849609375 239.3026885986328125 227.7546539306640625 196.409912109375 158.7354888916015625 156.4462432861328125 183.6303253173828125 200.9042205810546875 214.492706298828125 226.8853607177734375 237.226654052734375 246.08111572265625 255.256866455078125 263.585906982421875 273.93548583984375 280.36627197265625 283.44720458984375 289.596710205078125 297.355224609375 315.4876708984375 331.380340576171875 339.722381591796875 347.59918212890625 349.33172607421875 350.00439453125 364.367401123046875 378.892333984375 382.9713134765625 383.413238525390625 392.21160888671875 406.118255615234375 419.078399658203125 438.69287109375 456.6214599609375 480.130218505859375 519.50970458984375 574.3138427734375 634.74017333984375 684.53363037109375 692.10308837890625 662.25885009765625 630.8585205078125 596.2110595703125 564.66522216796875 541.984619140625 528.04925537109375 517.509765625 491.63836669921875 474.26678466796875 505.60247802734375 522.567626953125 521.30938720703125 523.45263671875 525.9345703125 534.81884765625 553.81439208984375 572.41741943359375 589.4246826171875 617.915283203125 660.23260498046875 713.3162841796875 761.49700927734375 809.9151611328125 871.8453369140625 940.62261962890625 1012.14227294921875 1077.5078125 1130.1075439453125 1155.677734375 1161.9259033203125 1158.5762939453125 1140.7022705078125 1107.4439697265625 1061.344482421875 1004.32135009765625 969.47161865234375 978.6312255859375 1002.729736328125 984.0087890625 923.107666015625 852.00921630859375 792.25555419921875 751.628662109375 722.99102783203125 708.39361572265625 709.78021240234375 724.12646484375 752.95306396484375 774.9228515625 802.89117431640625 846.21441650390625 890.376708984375 939.63372802734375 996.95660400390625 1062.4447021484375 1107.857666015625 1149.705322265625 1202.27099609375 1257.659912109375 1265.00048828125 1218.4566650390625 1182.6644287109375 1151.622802734375 1115.4039306640625 1071.1817626953125 1021.18365478515625 970.4910888671875 920.235107421875 858.8590087890625 786.64208984375 710.992431640625 638.41387939453125 575.44219970703125 553.57403564453125 568.4937744140625 600.12481689453125 650.56878662109375 682.33892822265625 704.073974609375 747.60736083984375 801.1964111328125 864.81927490234375 930.04547119140625 977.99053955078125 1016.80224609375 1058.119384765625 1085.135986328125 1065.2628173828125 1006.6812744140625 943.2606201171875 879.03924560546875 813.0667724609375 752.80230712890625 706.376708984375 681.8477783203125 680.3905029296875 690.49755859375 704.5870361328125 709.53857421875 697.39935302734375 727.0323486328125 774.99090576171875 801.8797607421875 793.1492919921875 755.52703857421875 707.90277099609375 669.6644287109375 650.06512451171875 627.4368896484375 572.3580322265625 501.90765380859375 429.550201416015625 366.44842529296875 312.912750244140625 273.58642578125 233.6640472412109375 197.275177001953125 205.6797943115234375 243.14678955078125 285.461212158203125 316.500030517578125 
505.7838134765625 435.47796630859375 369.570159912109375 313.0992431640625 247.050445556640625 197.2630767822265625 217.951812744140625 226.94769287109375 226.34796142578125 225.6855621337890625 230.080535888671875 235.58795166015625 238.7471160888671875 237.5742950439453125 237.1104888916015625 237.0507965087890625 234.20751953125 217.943023681640625 183.5246734619140625 152.0222625732421875 162.7806243896484375 187.525909423828125 208.2867431640625 218.8932342529296875 226.7209930419921875 237.3985443115234375 248.639129638671875 256.114990234375 262.220794677734375 269.160125732421875 276.64288330078125 283.093780517578125 286.39508056640625 299.063690185546875 320.479461669921875 332.24566650390625 341.0823974609375 344.733917236328125 349.867340087890625 366.793212890625 379.490386962890625 379.701324462890625 376.130035400390625 384.44317626953125 396.89019775390625 409.340301513671875 427.97418212890625 445.7451171875 470.437744140625 505.816650390625 554.7900390625 623.20947265625 686.48272705078125 705.0535888671875 677.19293212890625 636.28839111328125 599.244384765625 571.4158935546875 549.35943603515625 530.79443359375 510.921478271484375 480.25225830078125 473.71453857421875 505.902496337890625 520.22052001953125 520.83349609375 521.777587890625 524.27093505859375 535.38818359375 550.75360107421875 566.07305908203125 584.032470703125 607.08441162109375 643.637939453125 686.3087158203125 730.61395263671875 791.93304443359375 858.19256591796875 927.431884765625 999.4091796875 1062.1143798828125 1104.195556640625 1121.4923095703125 1128.8800048828125 1128.9832763671875 1116.7506103515625 1091.1768798828125 1055.58984375 1004.13470458984375 945.584228515625 927.91156005859375 960.115478515625 968.346435546875 918.62347412109375 847.9637451171875 789.53955078125 749.17010498046875 714.76080322265625 690.77471923828125 688.93927001953125 707.8438720703125 725.10491943359375 737.09429931640625 768.87994384765625 821.07598876953125 879.89056396484375 940.66461181640625 998.1307373046875 1037.9908447265625 1055.694580078125 1091.131103515625 1145.49365234375 1206.6036376953125 1214.0614013671875 1162.7806396484375 1139.20361328125 1127.409423828125 1107.0355224609375 1083.843017578125 1046.6953125 996.51983642578125 934.4456787109375 868.52191162109375 798.4403076171875 724.918212890625 649.9246826171875 577.64776611328125 536.84771728515625 539.25830078125 571.62939453125 617.5572509765625 647.53094482421875 677.99725341796875 727.563720703125 786.01763916015625 848.87884521484375 898.628662109375 931.51806640625 965.9544677734375 1006.00128173828125 1047.6842041015625 1064.48583984375 1024.93017578125 955.18841552734375 888.9222412109375 825.9024658203125 766.71356201171875 712.03424072265625 672.0301513671875 651.42816162109375 649.50921630859375 651.6846923828125 658.06573486328125 655.29876708984375 683.29052734375 724.30059814453125 753.27960205078125 757.35040283203125 726.158203125 679.23291015625 633.04864501953125 609.6934814453125 593.74969482421875 553.21600341796875 495.00433349609375 445.48687744140625 406.025146484375 355.29583740234375 310.280853271484375 271.052886962890625 222.701995849609375 195.702301025390625 211.16070556640625 250.724090576171875 278.190032958984375 
527.83355712890625 458.22509765625 387.458221435546875 317.225830078125 248.53582763671875 205.0691375732421875 214.842071533203125 227.970428466796875 228.1546478271484375 226.9625244140625 231.2396697998046875 236.486358642578125 239.0869903564453125 237.6032562255859375 236.7030792236328125 236.0521697998046875 235.5604095458984375 231.5979461669921875 207.27044677734375 165.5838165283203125 151.2278594970703125 165.571075439453125 191.113372802734375 208.6595001220703125 221.023529052734375 231.893341064453125 241.864166259765625 246.493255615234375 250.5570526123046875 258.474151611328125 269.359527587890625 278.559722900390625 280.61859130859375 287.315338134765625 308.49560546875 326.44903564453125 334.897491455078125 339.331085205078125 346.708587646484375 361.612579345703125 369.0885009765625 369.7049560546875 369.98846435546875 378.5758056640625 390.449249267578125 403.94049072265625 420.49298095703125 436.316497802734375 462.322296142578125 497.970001220703125 540.2462158203125 606.97381591796875 671.894775390625 700.0203857421875 682.802490234375 643.6280517578125 607.7337646484375 578.0162353515625 556.08990478515625 536.28900146484375 509.3946533203125 470.7646484375 477.695953369140625 514.67449951171875 524.99554443359375 523.83087158203125 522.56378173828125 524.52142333984375 532.5284423828125 546.0111083984375 561.5047607421875 577.2833251953125 599.6131591796875 631.22998046875 664.06536865234375 715.5999755859375 780.45611572265625 849.57135009765625 917.0111083984375 987.32965087890625 1042.2508544921875 1067.4757080078125 1074.4249267578125 1074.8582763671875 1075.368896484375 1072.7872314453125 1058.3983154296875 1031.6585693359375 988.7550048828125 934.15802001953125 888.5482177734375 901.87506103515625 934.835205078125 906.11224365234375 843.761962890625 790.1900634765625 742.8114013671875 697.40106201171875 666.9630126953125 670.2921142578125 684.9866943359375 689.7398681640625 714.8065185546875 766.17974853515625 825.975830078125 887.4549560546875 937.13311767578125 967.10662841796875 975.682373046875 995.65594482421875 1043.587646484375 1107.4908447265625 1159.852294921875 1152.394775390625 1095.9510498046875 1066.215087890625 1046.0301513671875 1028.597900390625 1023.48199462890625 1013.61273193359375 992.45025634765625 939.9775390625 878.37799072265625 812.90716552734375 747.104248046875 673.32403564453125 592.9561767578125 531.67901611328125 511.725860595703125 533.9002685546875 572.410400390625 607.95941162109375 650.26019287109375 707.48028564453125 772.4371337890625 819.60064697265625 850.28497314453125 878.37664794921875 913.97979736328125 956.39111328125 1007.39227294921875 1042.99658203125 1031.5650634765625 970.805419921875 907.86724853515625 847.56903076171875 790.6490478515625 732.21417236328125 681.4852294921875 643.3875732421875 621.91644287109375 610.9228515625 610.71441650390625 613.703125 636.73040771484375 671.56195068359375 702.7955322265625 718.98828125 700.0299072265625 656.50006103515625 607.78436279296875 574.014404296875 561.168701171875 535.65997314453125 509.563232421875 487.309722900390625 449.889190673828125 398.343780517578125 352.40496826171875 310.840484619140625 264.4183349609375 210.095123291015625 192.897552490234375 217.3278961181640625 244.7569122314453125 
517.6151123046875 461.6549072265625 397.303955078125 326.741973876953125 265.48443603515625 220.1761322021484375 204.370513916015625 223.2917327880859375 230.4884796142578125 229.2394561767578125 233.11083984375 243.5252685546875 249.6524200439453125 245.96954345703125 243.2288055419921875 242.9125823974609375 240.6413116455078125 237.9444427490234375 227.5526123046875 197.3646240234375 159.1739959716796875 149.1690216064453125 167.649688720703125 196.6523590087890625 214.2327423095703125 222.0691070556640625 229.3672027587890625 235.875335693359375 241.8865203857421875 247.034423828125 260.701263427734375 271.93157958984375 276.15325927734375 280.94189453125 298.852508544921875 321.3958740234375 329.8648681640625 336.700439453125 344.08929443359375 350.265716552734375 356.27984619140625 367.4691162109375 374.8720703125 380.370635986328125 389.18780517578125 401.544464111328125 415.568267822265625 429.9569091796875 453.8687744140625 489.099884033203125 528.3077392578125 581.5228271484375 638.05877685546875 674.7032470703125 672.1937255859375 639.48309326171875 608.3297119140625 581.6632080078125 562.56396484375 541.87939453125 501.21014404296875 464.572723388671875 485.05364990234375 515.7181396484375 529.07086181640625 527.6746826171875 526.060302734375 529.7559814453125 533.325439453125 540.4298095703125 553.31646728515625 569.169677734375 593.6318359375 617.28466796875 649.14501953125 707.35797119140625 771.25262451171875 837.28448486328125 904.66925048828125 965.6751708984375 1005.68133544921875 1018.249267578125 1022.775146484375 1017.90325927734375 1020.47406005859375 1022.23651123046875 1014.11651611328125 994.50006103515625 954.4744873046875 902.11517333984375 845.3768310546875 846.676513671875 887.5711669921875 882.1373291015625 832.192626953125 781.9901123046875 725.43377685546875 666.064697265625 639.23291015625 653.44024658203125 656.78204345703125 661.27264404296875 700.18267822265625 757.30975341796875 812.2706298828125 861.4459228515625 891.14422607421875 905.58050537109375 910.2850341796875 949.1513671875 1006.347412109375 1067.3990478515625 1108.3492431640625 1085.798095703125 1036.1898193359375 994.84844970703125 966.15191650390625 952.25445556640625 941.41827392578125 937.42034912109375 941.77777099609375 932.3472900390625 893.22930908203125 828.547607421875 761.630615234375 689.1483154296875 612.266357421875 541.94427490234375 494.130584716796875 492.529876708984375 523.2589111328125 563.6817626953125 623.3050537109375 689.9462890625 743.60504150390625 766.86346435546875 789.89581298828125 819.17132568359375 860.83990478515625 912.1517333984375 970.41192626953125 1016.267333984375 1022.7852783203125 977.35009765625 917.26275634765625 855.64385986328125 797.67144775390625 741.96246337890625 690.9378662109375 644.51220703125 612.22027587890625 591.63995361328125 577.1361083984375 578.50616455078125 596.45782470703125 624.155517578125 655.68096923828125 676.60784912109375 669.77264404296875 636.55194091796875 587.83935546875 539.52252197265625 524.47406005859375 511.2210693359375 520.839111328125 530.5068359375 499.737457275390625 452.0958251953125 404.212005615234375 351.012664794921875 304.8333740234375 246.5611724853515625 196.9617919921875 203.47161865234375 237.3007354736328125 
471.9537353515625 421.026458740234375 372.024169921875 320.0023193359375 262.7281494140625 218.0771026611328125 202.716644287109375 219.9991912841796875 232.1990203857421875 233.26171875 240.3154754638671875 253.3897552490234375 254.41082763671875 250.665435791015625 251.822998046875 253.160919189453125 254.0150299072265625 251.58404541015625 246.222381591796875 237.3384552001953125 202.2686004638671875 158.1590728759765625 150.5897369384765625 172.3730010986328125 198.402984619140625 213.2111663818359375 223.124176025390625 231.41839599609375 237.1730194091796875 238.9131622314453125 248.957183837890625 262.8746337890625 270.885772705078125 276.373443603515625 295.25 319.0904541015625 326.732818603515625 334.215179443359375 339.734893798828125 340.484344482421875 357.979736328125 371.191192626953125 377.37750244140625 384.630340576171875 387.174774169921875 394.84185791015625 409.589385986328125 424.520965576171875 445.352447509765625 480.410858154296875 515.63629150390625 556.287109375 602.52313232421875 642.1275634765625 650.10333251953125 626.7532958984375 599.4390869140625 579.29815673828125 564.86383056640625 539.7216796875 492.882049560546875 455.998565673828125 478.621978759765625 516.70697021484375 532.69036865234375 530.68798828125 529.84893798828125 533.03173828125 535.91436767578125 537.5936279296875 543.052734375 559.2432861328125 582.46478271484375 604.01922607421875 640.8309326171875 695.33123779296875 761.84393310546875 825.0201416015625 885.7235107421875 933.29046630859375 953.40301513671875 957.1248779296875 965.61651611328125 963.28082275390625 967.47467041015625 966.6748046875 963.01287841796875 953.04779052734375 923.599365234375 862.72528076171875 798.9796142578125 793.85858154296875 831.44140625 837.85516357421875 801.38641357421875 759.24774169921875 702.25860595703125 640.73944091796875 614.099853515625 627.1512451171875 624.4403076171875 642.40032958984375 684.427978515625 739.33001708984375 789.97308349609375 816.33349609375 835.9285888671875 845.17401123046875 863.0643310546875 910.9976806640625 966.39324951171875 1023.30633544921875 1061.544921875 1029.270263671875 978.25 938.2264404296875 899.87249755859375 879.50946044921875 867.3875732421875 862.08935546875 867.26385498046875 882.12579345703125 882.49530029296875 836.5802001953125 774.04876708984375 708.55694580078125 636.71527099609375 567.05145263671875 499.05999755859375 467.85931396484375 487.306915283203125 538.9356689453125 606.60382080078125 666.7747802734375 695.5640869140625 710.7587890625 737.274658203125 769.47247314453125 819.73614501953125 877.88006591796875 930.883056640625 979.4871826171875 1000.71563720703125 967.29791259765625 911.85504150390625 859.38348388671875 810.7333984375 761.12335205078125 706.754638671875 653.44915771484375 607.13641357421875 581.32476806640625 565.8150634765625 551.9576416015625 562.00494384765625 582.9957275390625 608.21734619140625 632.62994384765625 638.5921630859375 615.54620361328125 571.179443359375 516.47503662109375 484.660614013671875 479.639678955078125 504.588134765625 530.36578369140625 534.09576416015625 507.920074462890625 454.38372802734375 390.394927978515625 334.792755126953125 277.243804931640625 211.0494842529296875 196.7055816650390625 231.4229888916015625 
428.668914794921875 376.52081298828125 342.277069091796875 300.3331298828125 234.889739990234375 204.2669677734375 213.7807464599609375 229.507537841796875 233.9314727783203125 239.6575775146484375 251.2902374267578125 256.19879150390625 257.041961669921875 255.7676544189453125 255.9088134765625 255.24468994140625 257.135345458984375 256.370086669921875 253.745635986328125 252.638275146484375 238.5292205810546875 192.0142669677734375 154.3909149169921875 151.506011962890625 175.22296142578125 203.1710662841796875 217.739105224609375 225.8893890380859375 230.37091064453125 232.4381561279296875 237.061370849609375 251.2686614990234375 264.910247802734375 272.675872802734375 293.856048583984375 317.959716796875 324.095428466796875 327.93511962890625 329.948394775390625 334.07025146484375 347.3929443359375 359.70062255859375 375.525970458984375 380.507537841796875 380.022857666015625 388.662078857421875 403.37054443359375 417.844390869140625 437.799652099609375 473.2369384765625 505.6719970703125 535.83624267578125 575.627685546875 617.24224853515625 634.67535400390625 623.27178955078125 600.93182373046875 581.10858154296875 564.0494384765625 533.999755859375 494.735321044921875 456.7467041015625 452.728271484375 497.566864013671875 532.2591552734375 535.03521728515625 534.241455078125 538.40283203125 541.820068359375 538.73162841796875 534.0008544921875 549.8336181640625 570.48114013671875 596.61676025390625 641.82696533203125 703.03662109375 765.3372802734375 819.07232666015625 868.40191650390625 894.34295654296875 891.94921875 888.287353515625 904.86175537109375 909.2093505859375 917.6871337890625 919.73309326171875 917.49456787109375 908.17913818359375 885.56268310546875 834.6927490234375 760.23077392578125 737.27471923828125 776.34783935546875 790.61614990234375 759.88421630859375 717.171630859375 668.35504150390625 621.9871826171875 590.26214599609375 590.31787109375 596.54931640625 626.26226806640625 676.27001953125 724.33917236328125 751.378173828125 762.6915283203125 779.76531982421875 792.785888671875 824.74932861328125 877.3526611328125 932.90936279296875 997.5 1033.8685302734375 987.7532958984375 926.843017578125 885.556884765625 841.2894287109375 810.78887939453125 798.32989501953125 793.47174072265625 797.80340576171875 818.23565673828125 841.64306640625 819.63702392578125 780.9884033203125 728.447021484375 660.0999755859375 586.4580078125 509.389129638671875 454.108795166015625 459.967132568359375 516.1561279296875 575.2120361328125 618.8082275390625 638.81463623046875 657.9295654296875 694.6842041015625 737.94500732421875 787.88671875 839.6727294921875 889.405517578125 941.851318359375 969.65960693359375 936.68377685546875 876.02020263671875 831.638916015625 794.2611083984375 756.2164306640625 716.9742431640625 671.03173828125 614.694091796875 570.5556640625 548.10687255859375 532.17010498046875 534.44091796875 545.8563232421875 561.5535888671875 590.507568359375 608.23297119140625 595.32275390625 549.93243408203125 496.53656005859375 451.7071533203125 446.444610595703125 472.14837646484375 499.30596923828125 522.77777099609375 533.888427734375 494.10797119140625 424.7413330078125 357.99298095703125 297.8836669921875 229.0130767822265625 195.3447418212890625 226.778411865234375 
391.4200439453125 341.58612060546875 314.668670654296875 284.396240234375 228.9132537841796875 205.833953857421875 220.2494964599609375 236.5085906982421875 239.5237274169921875 251.567169189453125 258.240478515625 258.102020263671875 259.4384765625 261.784912109375 262.44464111328125 262.00079345703125 261.841827392578125 257.987518310546875 255.26202392578125 252.5125274658203125 249.5224609375 220.053009033203125 183.3111419677734375 155.3784027099609375 153.551513671875 178.38470458984375 207.3581695556640625 222.7845306396484375 224.518096923828125 227.74603271484375 229.3399505615234375 238.6284332275390625 257.85076904296875 271.212554931640625 294.71466064453125 317.389892578125 321.204833984375 321.21307373046875 324.758148193359375 335.081268310546875 343.896881103515625 358.672760009765625 374.116485595703125 375.599029541015625 375.087432861328125 384.76690673828125 398.04376220703125 412.21875 432.911865234375 466.15283203125 499.713409423828125 531.20880126953125 558.2569580078125 595.53173828125 621.53900146484375 621.61328125 607.846923828125 584.98773193359375 563.2762451171875 534.28668212890625 497.1873779296875 463.685333251953125 434.2681884765625 458.922393798828125 510.36309814453125 537.9464111328125 541.7774658203125 543.49481201171875 547.57421875 545.56939697265625 528.79107666015625 530.4346923828125 553.329345703125 587.58038330078125 638.56072998046875 707.52099609375 758.9769287109375 798.26580810546875 834.60284423828125 844.87261962890625 828.814453125 819.64288330078125 835.5667724609375 851.87139892578125 865.6796875 871.5521240234375 874.29766845703125 865.82623291015625 845.2620849609375 804.253662109375 731.3988037109375 693.8292236328125 728.141845703125 748.32379150390625 718.4833984375 679.710693359375 641.06622314453125 601.31988525390625 562.22711181640625 560.1591796875 583.0694580078125 626.61993408203125 671.51116943359375 690.15264892578125 699.4072265625 714.29388427734375 734.817626953125 761.96484375 811.10888671875 868.86724853515625 929.41912841796875 989.32550048828125 1008.5872802734375 954.7667236328125 889.25018310546875 836.1151123046875 788.75274658203125 747.41204833984375 727.64715576171875 723.3304443359375 728.45880126953125 758.4354248046875 781.92755126953125 765.3050537109375 740.74652099609375 706.41827392578125 657.45062255859375 589.4229736328125 515.12066650390625 450.511260986328125 431.543548583984375 473.877044677734375 526.39276123046875 564.925537109375 591.0048828125 619.1396484375 659.87841796875 703.98876953125 746.82049560546875 797.65460205078125 855.57525634765625 908.44317626953125 939.34881591796875 902.9017333984375 829.04486083984375 776.95159912109375 735.45330810546875 706.3094482421875 692.161376953125 673.9708251953125 631.5689697265625 580.5523681640625 536.3193359375 512.3035888671875 509.51055908203125 508.759490966796875 518.51080322265625 544.40570068359375 574.4447021484375 576.4974365234375 533.12347412109375 476.018707275390625 421.1070556640625 405.766571044921875 429.919342041015625 462.228851318359375 491.1029052734375 523.4801025390625 514.10638427734375 454.120147705078125 379.306610107421875 312.527679443359375 242.4553070068359375 197.0127410888671875 220.5730438232421875 
352.2958984375 309.13818359375 281.878692626953125 260.6832275390625 230.5097503662109375 211.8998565673828125 219.3632965087890625 239.184478759765625 250.0271759033203125 261.291748046875 262.703582763671875 263.938140869140625 264.6502685546875 267.27337646484375 269.33447265625 267.85211181640625 265.819244384765625 260.017578125 254.4809417724609375 250.7495269775390625 248.7755889892578125 233.4403228759765625 211.6832275390625 183.52093505859375 156.1390838623046875 156.072113037109375 182.15301513671875 211.6879119873046875 220.468414306640625 223.4741973876953125 225.067779541015625 230.6593475341796875 248.2523040771484375 268.033538818359375 295.406402587890625 317.9412841796875 317.615081787109375 315.608551025390625 326.31256103515625 338.112701416015625 346.420928955078125 357.346954345703125 363.153778076171875 368.6617431640625 375.309051513671875 381.60546875 392.592437744140625 406.365081787109375 426.125823974609375 458.1385498046875 491.48980712890625 520.54931640625 542.36297607421875 575.32574462890625 609.668701171875 621.0369873046875 614.852294921875 590.0692138671875 564.4632568359375 539.83160400390625 503.069305419921875 468.01690673828125 429.230133056640625 433.640899658203125 484.839080810546875 530.43359375 547.047119140625 547.0743408203125 549.83148193359375 549.67706298828125 530.9609375 516.13897705078125 539.4974365234375 577.12298583984375 621.9716796875 678.7623291015625 720.2093505859375 747.8333740234375 769.42852783203125 784.72021484375 764.98345947265625 749.192626953125 761.2423095703125 784.607421875 801.3411865234375 811.89410400390625 821.82037353515625 819.88397216796875 805.79351806640625 773.32354736328125 703.30047607421875 653.294677734375 680.193115234375 699.13189697265625 671.91845703125 641.94451904296875 604.78839111328125 558.63232421875 532.83319091796875 548.73394775390625 590.14141845703125 632.18798828125 642.30010986328125 644.82257080078125 665.2974853515625 708.49932861328125 746.5181884765625 782.6536865234375 831.08056640625 889.8236083984375 946.79876708984375 971.3353271484375 955.61724853515625 918.4150390625 870.3441162109375 819.8399658203125 759.16748046875 701.97314453125 664.71270751953125 652.26019287109375 666.20416259765625 698.92425537109375 712.28839111328125 698.726806640625 679.429443359375 659.39080810546875 638.566650390625 594.00885009765625 527.49981689453125 455.8570556640625 412.14837646484375 429.31097412109375 479.420501708984375 522.9114990234375 555.6995849609375 582.32000732421875 618.6641845703125 663.71795654296875 713.2674560546875 771.36932373046875 828.836669921875 876.70635986328125 903.36517333984375 861.4635009765625 782.60980224609375 725.44390869140625 679.91925048828125 647.85400390625 636.156005859375 639.53472900390625 630.29833984375 589.22198486328125 537.86785888671875 500.5885009765625 486.07257080078125 480.166412353515625 480.776611328125 503.21728515625 542.1226806640625 565.76226806640625 537.2745361328125 474.474334716796875 404.1690673828125 370.24810791015625 384.660858154296875 423.325164794921875 457.27874755859375 489.466949462890625 496.58148193359375 460.182586669921875 389.886505126953125 320.46722412109375 243.6774444580078125 196.5407257080078125 213.4714202880859375 
309.16790771484375 269.19354248046875 243.7194061279296875 228.2863006591796875 220.4605712890625 218.0305633544921875 231.3231658935546875 249.326690673828125 262.111419677734375 267.541717529296875 267.11865234375 267.974945068359375 271.50909423828125 272.477813720703125 272.106231689453125 269.086181640625 266.165802001953125 263.26348876953125 256.91265869140625 252.384033203125 249.2189178466796875 238.0775604248046875 219.5112762451171875 200.562744140625 176.755767822265625 154.459014892578125 157.1690673828125 181.5595550537109375 208.434844970703125 219.691802978515625 221.44140625 225.1517333984375 239.7701873779296875 261.912567138671875 287.18463134765625 311.30596923828125 311.900665283203125 316.385101318359375 330.744873046875 339.42431640625 341.6461181640625 345.15435791015625 355.604278564453125 370.630706787109375 377.24786376953125 381.87957763671875 392.660308837890625 404.6754150390625 421.4136962890625 447.968231201171875 476.0032958984375 505.51593017578125 525.82330322265625 559.4066162109375 599.403564453125 621.6920166015625 621.46246337890625 594.2645263671875 567.7646484375 546.52215576171875 513.5611572265625 475.962677001953125 428.77679443359375 417.7125244140625 459.973846435546875 498.108489990234375 530.783935546875 546.07391357421875 545.63836669921875 543.48846435546875 523.4482421875 503.562835693359375 522.78070068359375 560.71026611328125 603.25762939453125 632.51361083984375 652.966796875 673.36114501953125 687.8980712890625 710.940673828125 705.5491943359375 682.3121337890625 693.1812744140625 717.970458984375 730.78192138671875 746.35125732421875 756.97393798828125 765.64190673828125 764.6490478515625 738.58514404296875 672.44183349609375 613.9095458984375 629.0994873046875 642.14013671875 614.70867919921875 584.4771728515625 551.15948486328125 513.6968994140625 511.960296630859375 539.4703369140625 567.39862060546875 595.14825439453125 604.437255859375 629.7701416015625 681.73834228515625 747.7369384765625 802.76043701171875 842.24993896484375 876.467041015625 922.7960205078125 951.21343994140625 917.12078857421875 886.1048583984375 871.623046875 858.926025390625 827.9893798828125 769.46063232421875 691.41876220703125 618.46710205078125 590.7269287109375 606.89447021484375 637.759521484375 644.60394287109375 631.30426025390625 616.223876953125 600.48394775390625 593.11395263671875 579.38372802734375 537.3670654296875 467.7291259765625 405.262237548828125 396.566650390625 443.616790771484375 485.4542236328125 508.001617431640625 537.26055908203125 585.56610107421875 640.09051513671875 695.61273193359375 755.87274169921875 806.37066650390625 846.44854736328125 865.58245849609375 820.29180908203125 744.49810791015625 682.450439453125 630.65704345703125 596.0260009765625 576.9188232421875 581.78485107421875 598.85284423828125 588.692626953125 547.80291748046875 497.4886474609375 467.18585205078125 455.607208251953125 447.827972412109375 465.872406005859375 506.76446533203125 547.02093505859375 545.38916015625 487.938262939453125 411.942230224609375 351.50579833984375 345.914215087890625 387.380340576171875 423.447418212890625 451.78436279296875 468.11260986328125 451.72332763671875 389.194793701171875 312.677276611328125 235.0357818603515625 195.0373687744140625 203.4477996826171875 
260.482513427734375 235.7272796630859375 221.259033203125 228.2361907958984375 237.161041259765625 245.0951080322265625 254.027008056640625 269.20184326171875 276.453033447265625 274.86798095703125 273.94122314453125 272.437042236328125 273.825775146484375 273.76904296875 273.568695068359375 270.5777587890625 269.65399169921875 266.212615966796875 262.259124755859375 256.7188720703125 248.4676513671875 242.0086822509765625 220.1585693359375 200.672088623046875 187.0993499755859375 169.7894439697265625 151.1787872314453125 154.3942413330078125 186.67999267578125 214.4254913330078125 218.876922607421875 223.6144256591796875 234.68505859375 253.9181976318359375 274.70391845703125 292.801055908203125 304.376800537109375 320.926544189453125 332.38885498046875 335.2681884765625 333.777923583984375 344.281829833984375 363.842681884765625 378.005096435546875 381.471435546875 383.970245361328125 393.2230224609375 405.2242431640625 420.951812744140625 442.71563720703125 466.943115234375 497.357696533203125 523.27984619140625 558.42022705078125 592.568603515625 615.28985595703125 622.0206298828125 602.44085693359375 574.5418701171875 545.70037841796875 512.023681640625 470.902801513671875 422.309478759765625 402.853912353515625 423.399749755859375 456.118255615234375 498.712493896484375 526.00775146484375 522.5701904296875 530.02313232421875 513.64288330078125 486.000335693359375 501.121490478515625 539.44464111328125 567.43780517578125 574.72076416015625 584.1483154296875 595.9464111328125 612.205322265625 632.65911865234375 639.65118408203125 618.5982666015625 626.56207275390625 652.146240234375 664.70269775390625 679.24102783203125 687.6964111328125 704.959716796875 715.01263427734375 699.24407958984375 649.71142578125 584.689453125 574.424560546875 586.8895263671875 561.8544921875 523.53436279296875 493.82342529296875 477.566497802734375 489.304473876953125 516.355224609375 552.67529296875 582.18707275390625 606.448486328125 645.34918212890625 699.48236083984375 764.862548828125 825.1644287109375 877.63018798828125 922.24725341796875 953.057861328125 924.324462890625 861.23577880859375 817.130126953125 789.46917724609375 793.55438232421875 797.5897216796875 752.86505126953125 684.034912109375 591.40399169921875 540.482421875 548.8780517578125 571.84661865234375 580.4940185546875 565.68701171875 556.72650146484375 544.03875732421875 537.6864013671875 541.9410400390625 524.5838623046875 467.60736083984375 401.724639892578125 373.28173828125 411.561431884765625 443.428131103515625 472.8763427734375 520.544921875 580.204345703125 639.57098388671875 692.356201171875 739.5184326171875 772.36444091796875 799.07464599609375 820.4527587890625 796.03759765625 726.13372802734375 659.13226318359375 597.654296875 548.6990966796875 524.36328125 528.02093505859375 548.18389892578125 559.811767578125 553.3602294921875 508.229888916015625 461.84344482421875 435.05841064453125 422.477508544921875 434.311248779296875 475.39031982421875 520.07647705078125 523.67242431640625 480.389312744140625 412.680328369140625 342.5943603515625 316.77349853515625 353.3115234375 390.449005126953125 421.123321533203125 435.205902099609375 423.13909912109375 370.185211181640625 296.022247314453125 219.66534423828125 193.680389404296875 204.8056488037109375 
228.1864013671875 226.7597808837890625 242.3548736572265625 268.119049072265625 264.974853515625 262.25970458984375 271.06988525390625 281.99090576171875 282.22918701171875 279.398529052734375 277.200714111328125 275.557708740234375 275.409515380859375 275.772613525390625 274.7647705078125 273.158660888671875 274.59429931640625 273.481719970703125 266.472564697265625 257.758514404296875 247.1770172119140625 241.6165008544921875 220.8360443115234375 199.6519622802734375 186.0391082763671875 179.7208709716796875 164.59271240234375 149.4503326416015625 163.4589996337890625 200.65936279296875 216.778564453125 223.025360107421875 230.885223388671875 245.8863983154296875 263.389190673828125 280.16845703125 302.067138671875 321.009613037109375 330.4681396484375 329.8609619140625 334.049591064453125 350.81494140625 368.48541259765625 381.89874267578125 386.39874267578125 387.801910400390625 393.5675048828125 406.197235107421875 422.466766357421875 441.83880615234375 470.31829833984375 501.483917236328125 526.21685791015625 556.6795654296875 584.99835205078125 603.2698974609375 613.12384033203125 601.85455322265625 578.77178955078125 546.21710205078125 510.462738037109375 468.7928466796875 420.78741455078125 386.63409423828125 386.820343017578125 429.149505615234375 480.539642333984375 493.987152099609375 485.747833251953125 514.46453857421875 502.15179443359375 466.4251708984375 478.125274658203125 503.71502685546875 510.971771240234375 512.0701904296875 522.57598876953125 533.30804443359375 542.45208740234375 562.9278564453125 570.63616943359375 557.098876953125 563.01324462890625 585.8431396484375 598.89813232421875 609.3179931640625 617.6031494140625 638.0185546875 654.02374267578125 656.8486328125 628.3121337890625 569.16888427734375 528.12066650390625 534.71600341796875 522.91302490234375 476.0863037109375 451.266510009765625 454.10107421875 478.46636962890625 521.11865234375 581.36053466796875 627.70172119140625 657.75164794921875 689.0640869140625 729.26422119140625 785.86407470703125 845.6434326171875 898.3431396484375 948.85980224609375 950.4324951171875 878.7989501953125 814.21240234375 759.41546630859375 718.96893310546875 713.61090087890625 726.84588623046875 715.03851318359375 651.00927734375 566.57147216796875 506.296142578125 493.60455322265625 510.26544189453125 516.839111328125 500.41192626953125 499.064422607421875 486.04608154296875 475.14794921875 493.599945068359375 495.15679931640625 453.612213134765625 389.880462646484375 352.95184326171875 376.34649658203125 414.842803955078125 467.49114990234375 530.2071533203125 587.1844482421875 636.958740234375 675.60491943359375 699.2916259765625 721.56207275390625 748.47393798828125 772.068603515625 763.8857421875 718.09002685546875 648.0062255859375 584.50732421875 525.40814208984375 491.338165283203125 486.472015380859375 497.459686279296875 514.41363525390625 524.2843017578125 499.343292236328125 453.92669677734375 411.701873779296875 398.333892822265625 408.781707763671875 449.422454833984375 484.859619140625 477.3104248046875 444.33935546875 393.393646240234375 331.545867919921875 295.16748046875 321.58734130859375 359.31005859375 388.2078857421875 392.68524169921875 381.056854248046875 334.8531494140625 267.659027099609375 202.5497283935546875 200.4215545654296875 226.6746978759765625 
257.415496826171875 272.61505126953125 298.322601318359375 310.834075927734375 286.087188720703125 272.674835205078125 284.097869873046875 288.938751220703125 286.443023681640625 282.9583740234375 279.808319091796875 278.166168212890625 276.7003173828125 274.709869384765625 273.06951904296875 272.8330078125 274.257415771484375 274.38629150390625 267.767913818359375 259.2410888671875 247.7767486572265625 242.156280517578125 224.53167724609375 199.163543701171875 187.1858367919921875 183.030181884765625 176.7355499267578125 158.0782318115234375 150.0606231689453125 181.9168243408203125 214.67755126953125 221.937957763671875 226.48187255859375 239.45745849609375 257.86505126953125 274.674591064453125 294.205291748046875 315.2017822265625 323.235992431640625 324.043701171875 332.764862060546875 350.292236328125 369.9598388671875 381.947296142578125 384.79364013671875 386.229522705078125 389.794525146484375 403.7607421875 422.1944580078125 445.247772216796875 480.16357421875 509.717041015625 528.52056884765625 553.2862548828125 576.38232421875 594.680419921875 604.78668212890625 596.06024169921875 574.07672119140625 547.2711181640625 513.79833984375 471.97613525390625 427.65380859375 388.83331298828125 376.6123046875 418.666748046875 465.8526611328125 463.07562255859375 452.1700439453125 486.44622802734375 476.6680908203125 433.48419189453125 431.213958740234375 442.093414306640625 443.10064697265625 446.143890380859375 459.6883544921875 470.32440185546875 476.56591796875 502.0784912109375 509.38079833984375 499.118560791015625 503.10247802734375 513.8634033203125 519.14501953125 526.48797607421875 543.14556884765625 571.1405029296875 585.59320068359375 593.5184326171875 586.9041748046875 558.34326171875 508.535552978515625 486.77166748046875 483.1025390625 446.42718505859375 428.54742431640625 446.045989990234375 487.151214599609375 544.37408447265625 612.2606201171875 671.44512939453125 713.487548828125 741.89599609375 773.81207275390625 812.89007568359375 860.919189453125 911.27301025390625 946.5909423828125 934.80047607421875 854.51837158203125 786.5413818359375 719.524169921875 653.95068359375 638.55328369140625 648.92138671875 659.1837158203125 620.90972900390625 549.31890869140625 484.0384521484375 449.674224853515625 452.746063232421875 460.89337158203125 443.0789794921875 448.26654052734375 434.32220458984375 420.729461669921875 445.47119140625 455.112335205078125 437.916473388671875 389.24298095703125 342.387969970703125 348.146331787109375 394.597930908203125 453.0736083984375 511.257354736328125 561.149169921875 602.7672119140625 626.67840576171875 641.46478271484375 665.74346923828125 697.3338623046875 713.8572998046875 712.05419921875 692.63140869140625 636.3792724609375 580.51055908203125 528.54302978515625 484.26519775390625 458.661590576171875 457.08929443359375 471.367950439453125 474.244781494140625 467.739227294921875 433.12005615234375 385.12725830078125 363.13323974609375 374.55047607421875 414.645843505859375 436.501800537109375 424.28228759765625 395.838104248046875 362.468719482421875 313.864471435546875 271.193695068359375 285.617156982421875 321.726776123046875 338.5821533203125 338.3878173828125 320.082733154296875 282.837310791015625 231.546112060546875 194.650726318359375 213.62371826171875 244.6750640869140625 
324.90557861328125 337.07586669921875 339.192108154296875 329.47216796875 295.949798583984375 282.873138427734375 293.279388427734375 297.27276611328125 293.979248046875 287.651336669921875 284.10137939453125 280.7763671875 278.748992919921875 276.213043212890625 273.90240478515625 272.89251708984375 275.455047607421875 274.4913330078125 268.5928955078125 260.414337158203125 249.3489837646484375 244.5363922119140625 234.322235107421875 209.7121124267578125 190.5479583740234375 184.4133758544921875 180.7210235595703125 167.5900421142578125 150.5606536865234375 162.766998291015625 203.8876190185546875 219.05328369140625 221.5337982177734375 233.7135467529296875 251.86358642578125 267.711639404296875 285.657257080078125 306.62774658203125 311.21221923828125 316.489715576171875 326.581390380859375 344.221405029296875 363.965179443359375 378.85888671875 384.31036376953125 384.635955810546875 385.551910400390625 400.331085205078125 424.196197509765625 453.1536865234375 490.201690673828125 512.179443359375 523.6630859375 545.71759033203125 565.39202880859375 584.23431396484375 598.119384765625 596.55181884765625 568.98394775390625 538.77789306640625 503.041717529296875 457.78863525390625 410.59637451171875 373.0609130859375 374.01519775390625 425.04052734375 447.756988525390625 427.263519287109375 417.29522705078125 448.2308349609375 450.339141845703125 401.2076416015625 367.93280029296875 364.95257568359375 370.93572998046875 371.286041259765625 376.975433349609375 392.8424072265625 404.1224365234375 425.65997314453125 443.95892333984375 437.633026123046875 442.341705322265625 442.2713623046875 440.2098388671875 438.89581298828125 456.123931884765625 489.1712646484375 515.2127685546875 525.31353759765625 526.94287109375 524.5811767578125 496.14935302734375 456.84283447265625 440.515533447265625 417.274505615234375 414.728057861328125 447.902069091796875 503.0123291015625 570.79351806640625 639.93798828125 700.5616455078125 754.4412841796875 783.9560546875 796.403564453125 809.3388671875 830.3048095703125 868.46868896484375 896.125 913.397216796875 873.8658447265625 792.00933837890625 706.12310791015625 621.3782958984375 575.24835205078125 575.3082275390625 589.9072265625 593.32861328125 541.1448974609375 475.120025634765625 420.4111328125 406.5546875 411.221099853515625 391.602630615234375 394.28216552734375 382.4405517578125 374.71917724609375 396.352020263671875 405.289581298828125 413.0460205078125 390.466094970703125 340.475006103515625 322.46392822265625 365.79638671875 427.359222412109375 483.781158447265625 527.0360107421875 560.69647216796875 578.109619140625 589.98175048828125 614.75506591796875 647.22021484375 650.606201171875 652.33929443359375 646.66796875 594.7803955078125 564.87493896484375 540.2420654296875 495.5142822265625 454.297821044921875 429.21588134765625 426.065673828125 417.908111572265625 433.467010498046875 413.96099853515625 361.6058349609375 334.979095458984375 341.685821533203125 371.529327392578125 383.394561767578125 368.235809326171875 340.017120361328125 309.157470703125 273.677459716796875 243.182525634765625 247.458099365234375 269.9754638671875 276.547576904296875 269.447662353515625 251.9998321533203125 225.3384857177734375 200.8056793212890625 199.006011962890625 229.099517822265625 255.40643310546875 
388.50244140625 388.5438232421875 370.18829345703125 339.779998779296875 303.3443603515625 297.69464111328125 306.841033935546875 306.971527099609375 301.3280029296875 294.99639892578125 291.178253173828125 284.114227294921875 280.302459716796875 277.613128662109375 274.321685791015625 273.477691650390625 274.670623779296875 274.93353271484375 271.304962158203125 262.39056396484375 250.280670166015625 240.9794769287109375 236.949981689453125 225.943695068359375 198.1942596435546875 186.0994110107421875 182.4482879638671875 173.209014892578125 155.871551513671875 153.04473876953125 184.7455291748046875 214.264373779296875 218.04315185546875 227.6730804443359375 246.557525634765625 262.261138916015625 278.03045654296875 299.34521484375 305.0135498046875 318.437286376953125 327.736114501953125 340.618316650390625 358.86004638671875 376.509552001953125 383.868255615234375 382.4140625 384.424102783203125 399.39959716796875 430.8873291015625 463.828765869140625 494.027313232421875 509.89410400390625 516.88543701171875 534.124267578125 553.2738037109375 573.22686767578125 590.84844970703125 599.0185546875 578.2890625 536.1502685546875 494.642333984375 446.7186279296875 398.77044677734375 360.806243896484375 387.716400146484375 438.17791748046875 431.58868408203125 396.969818115234375 381.533935546875 403.84100341796875 417.489044189453125 379.027252197265625 331.329925537109375 299.68109130859375 296.019195556640625 299.084686279296875 301.50830078125 310.655059814453125 329.594970703125 346.467559814453125 367.1510009765625 379.35650634765625 383.376251220703125 368.13311767578125 354.750335693359375 357.08251953125 378.69549560546875 411.038177490234375 448.01898193359375 459.95599365234375 471.986907958984375 487.0565185546875 476.14306640625 438.693634033203125 406.978515625 392.6861572265625 406.303070068359375 450.862579345703125 512.94342041015625 585.4544677734375 651.80987548828125 713.0335693359375 768.0101318359375 774.62542724609375 755.26434326171875 755.4664306640625 769.90399169921875 801.3760986328125 831.4202880859375 863.86102294921875 868.8204345703125 817.1446533203125 722.47235107421875 639.21759033203125 554.85430908203125 510.054931640625 516.79620361328125 532.65057373046875 516.86907958984375 466.92047119140625 406.997802734375 373.2393798828125 366.779937744140625 350.2587890625 341.82373046875 332.965728759765625 329.99169921875 345.591522216796875 361.371246337890625 387.363250732421875 373.418975830078125 324.362884521484375 300.637481689453125 338.371673583984375 400.42706298828125 454.911895751953125 496.24725341796875 521.0714111328125 533.859130859375 544.55987548828125 570.58343505859375 597.1055908203125 595.06353759765625 610.11505126953125 613.20074462890625 555.64691162109375 520.84124755859375 516.27752685546875 495.807037353515625 459.152587890625 419.002960205078125 388.049285888671875 375.27642822265625 401.0916748046875 400.587677001953125 356.7779541015625 320.4906005859375 308.099761962890625 318.895111083984375 321.795501708984375 307.944091796875 282.85418701171875 253.8906097412109375 226.9990234375 207.5911712646484375 206.7366943359375 211.25689697265625 212.365081787109375 210.12579345703125 202.070068359375 189.844512939453125 189.2239227294921875 209.3110504150390625 242.2294769287109375 264.96136474609375 
446.09283447265625 440.574737548828125 402.707000732421875 350.390625 317.461944580078125 316.399322509765625 321.2308349609375 316.034912109375 308.00738525390625 303.668487548828125 299.30096435546875 289.4588623046875 283.95037841796875 280.410369873046875 276.32666015625 273.83331298828125 273.9661865234375 275.94952392578125 273.658599853515625 264.496429443359375 253.1107330322265625 237.2352752685546875 229.29193115234375 222.648345947265625 200.912506103515625 187.04229736328125 184.175567626953125 174.5972137451171875 155.7277984619140625 151.0909271240234375 174.5600738525390625 210.4000244140625 218.6698760986328125 226.457977294921875 242.9898529052734375 258.9063720703125 271.137298583984375 289.0291748046875 308.330474853515625 326.624847412109375 333.60638427734375 341.853973388671875 359.655059814453125 376.664581298828125 380.85601806640625 380.10296630859375 385.3941650390625 401.53125 435.0616455078125 469.601776123046875 492.923583984375 503.67327880859375 511.672760009765625 522.0426025390625 541.04705810546875 561.81573486328125 581.776611328125 596.166748046875 584.09552001953125 542.299072265625 492.66619873046875 444.902984619140625 399.61016845703125 359.447601318359375 394.74041748046875 432.4432373046875 407.759246826171875 373.742401123046875 355.69793701171875 369.46484375 376.43359375 338.2730712890625 295.0633544921875 249.84759521484375 224.876129150390625 224.8594818115234375 222.3887481689453125 224.742584228515625 241.362396240234375 260.185638427734375 287.535552978515625 313.37713623046875 322.3287353515625 286.659820556640625 270.3375244140625 276.430267333984375 305.327972412109375 340.194244384765625 379.81671142578125 406.1112060546875 441.26519775390625 453.052337646484375 434.0804443359375 405.204254150390625 378.81640625 374.86114501953125 406.179534912109375 462.661285400390625 531.41143798828125 601.705078125 663.69891357421875 723.51312255859375 757.5382080078125 727.9525146484375 692.0552978515625 687.91094970703125 707.19708251953125 739.78021240234375 771.33721923828125 804.81854248046875 821.839599609375 804.0926513671875 756.13525390625 674.29498291015625 563.72271728515625 480.527374267578125 451.741729736328125 468.25244140625 462.95330810546875 422.92327880859375 381.17095947265625 348.18701171875 337.7581787109375 325.77880859375 310.559844970703125 299.27471923828125 293.229095458984375 302.34881591796875 322.39276123046875 349.748565673828125 342.171661376953125 300.9097900390625 282.701416015625 312.64306640625 371.156982421875 421.61663818359375 456.53778076171875 478.95953369140625 493.09906005859375 505.315093994140625 528.50848388671875 547.8704833984375 553.30267333984375 573.7330322265625 578.74700927734375 536.80029296875 490.097869873046875 474.54052734375 469.292266845703125 447.45989990234375 411.079254150390625 368.1317138671875 343.684600830078125 358.82293701171875 364.52392578125 340.857879638671875 309.211517333984375 286.960968017578125 275.75628662109375 268.10223388671875 252.746917724609375 231.7494049072265625 207.9953155517578125 192.5425872802734375 185.5877685546875 183.9259796142578125 183.879974365234375 185.0524139404296875 188.626739501953125 188.3709259033203125 188.254913330078125 205.5240936279296875 236.066619873046875 259.222137451171875 273.81707763671875 
504.12579345703125 474.582183837890625 414.29107666015625 358.233184814453125 336.107177734375 335.413330078125 333.040435791015625 327.764495849609375 321.948974609375 319.350860595703125 315.264678955078125 300.819915771484375 291.11492919921875 287.22607421875 283.264923095703125 277.307830810546875 274.8482666015625 274.715728759765625 273.74481201171875 265.7666015625 255.18426513671875 237.391693115234375 220.0345611572265625 211.2219085693359375 196.735260009765625 186.354278564453125 183.62359619140625 172.379180908203125 153.1567535400390625 149.9790496826171875 183.36297607421875 212.8140869140625 219.40850830078125 224.91766357421875 239.231842041015625 255.4695587158203125 266.665496826171875 281.920501708984375 300.548187255859375 315.3463134765625 326.97686767578125 343.025146484375 364.523284912109375 372.440521240234375 371.075714111328125 377.358489990234375 384.904541015625 400.924896240234375 434.8487548828125 470.812347412109375 489.0662841796875 500.249481201171875 506.767730712890625 512.533203125 531.03857421875 554.28558349609375 570.18914794921875 584.65203857421875 579.86016845703125 538.8917236328125 481.13671875 435.53485107421875 393.28350830078125 357.690765380859375 392.596710205078125 417.304290771484375 390.96820068359375 358.381927490234375 335.322357177734375 332.3223876953125 333.79632568359375 297.241424560546875 243.831390380859375 199.149322509765625 176.6827545166015625 174.0654296875 168.29486083984375 168.6941680908203125 177.2145843505859375 189.248809814453125 214.7186431884765625 239.5088958740234375 239.8653717041015625 209.9612274169921875 195.420745849609375 208.3563385009765625 236.803070068359375 276.25506591796875 321.99847412109375 362.137603759765625 413.09356689453125 428.811187744140625 393.614532470703125 364.848358154296875 351.730438232421875 367.646453857421875 413.940093994140625 473.72296142578125 538.4256591796875 604.06524658203125 654.5791015625 696.344482421875 703.89080810546875 664.94586181640625 630.92095947265625 624.20648193359375 643.89892578125 674.22137451171875 708.5150146484375 747.5716552734375 763.1727294921875 748.041015625 726.19647216796875 684.465576171875 595.6697998046875 495.72064208984375 424.566253662109375 410.133270263671875 403.63623046875 368.015655517578125 329.605072021484375 313.369903564453125 310.856781005859375 304.58013916015625 294.35736083984375 282.921173095703125 273.204864501953125 273.035369873046875 286.075286865234375 309.89337158203125 310.338226318359375 276.470977783203125 263.59588623046875 291.594573974609375 345.0662841796875 391.077362060546875 411.849456787109375 432.15057373046875 454.16033935546875 473.48486328125 497.1973876953125 511.413482666015625 518.6097412109375 536.52703857421875 543.156494140625 514.416015625 475.66485595703125 444.387786865234375 430.571197509765625 417.046234130859375 394.06103515625 356.716766357421875 318.463470458984375 317.997283935546875 315.934906005859375 301.372802734375 280.760284423828125 261.761138916015625 243.724365234375 228.1690521240234375 208.4728851318359375 195.4374237060546875 189.1168212890625 195.40350341796875 205.818206787109375 208.08563232421875 207.889678955078125 205.679351806640625 204.1504669189453125 214.1923828125 225.182220458984375 242.821258544921875 261.805084228515625 274.282318115234375 284.4659423828125 
519.93743896484375 468.8682861328125 409.136322021484375 360.697265625 347.16192626953125 346.316802978515625 346.874481201171875 348.185455322265625 351.002410888671875 351.82354736328125 346.824615478515625 331.126220703125 312.763519287109375 304.9156494140625 298.23614501953125 286.649810791015625 277.950897216796875 273.39837646484375 272.281524658203125 267.01214599609375 259.600921630859375 247.6395416259765625 223.7880706787109375 208.19384765625 194.640472412109375 185.499053955078125 181.68084716796875 167.237945556640625 150.7742767333984375 155.8398895263671875 196.416900634765625 213.019073486328125 218.38427734375 225.0236968994140625 241.136077880859375 254.3141021728515625 263.1751708984375 275.43341064453125 290.972442626953125 307.2496337890625 323.917877197265625 346.163421630859375 363.1414794921875 362.762939453125 365.804901123046875 374.255584716796875 383.942626953125 405.734283447265625 435.45758056640625 470.168365478515625 488.6600341796875 496.645721435546875 500.6400146484375 502.72113037109375 519.222900390625 543.4671630859375 554.727294921875 566.2791748046875 561.0556640625 510.131683349609375 445.98443603515625 409.39324951171875 371.492462158203125 349.771392822265625 400.72943115234375 403.7266845703125 370.790130615234375 345.6212158203125 325.122039794921875 304.1961669921875 298.988861083984375 262.51214599609375 198.3536529541015625 162.2493133544921875 155.924835205078125 167.0231781005859375 175.8439788818359375 173.9316253662109375 167.3548736572265625 165.7413482666015625 168.10089111328125 179.549346923828125 178.907928466796875 163.9894561767578125 157.806060791015625 162.5815582275390625 179.243804931640625 211.3663330078125 259.1875 307.053314208984375 366.109619140625 397.058197021484375 365.910491943359375 335.80682373046875 341.846527099609375 381.09063720703125 436.397308349609375 491.7696533203125 541.07470703125 584.1351318359375 607.97015380859375 633.89300537109375 634.55450439453125 604.1871337890625 573.4737548828125 567.85247802734375 588.105712890625 608.795654296875 646.9625244140625 690.73809814453125 704.18389892578125 684.9697265625 674.314453125 651.23199462890625 591.2069091796875 511.121490478515625 432.797698974609375 375.929473876953125 348.8057861328125 320.615997314453125 292.04730224609375 284.76995849609375 286.79425048828125 282.614654541015625 276.372589111328125 268.479034423828125 260.46160888671875 255.959564208984375 258.324188232421875 272.685577392578125 272.608551025390625 247.0238189697265625 246.582611083984375 283.63568115234375 324.83477783203125 359.390045166015625 374.90777587890625 396.557647705078125 425.83270263671875 452.18804931640625 471.996429443359375 482.836395263671875 490.277435302734375 505.73858642578125 511.118896484375 489.05712890625 459.35321044921875 422.41741943359375 387.924224853515625 375.090545654296875 368.07843017578125 338.974639892578125 294.25 280.829681396484375 277.33917236328125 263.168701171875 245.503265380859375 226.6227874755859375 203.6581878662109375 192.9052581787109375 185.1087493896484375 189.7679901123046875 213.40057373046875 244.333404541015625 264.031341552734375 266.800079345703125 261.960968017578125 253.5972442626953125 244.2575225830078125 254.3170928955078125 257.63531494140625 262.330902099609375 277.500640869140625 290.321807861328125 298.746307373046875 
512.9073486328125 456.953338623046875 399.887176513671875 363.3387451171875 359.815521240234375 360.80413818359375 366.162384033203125 379.075592041015625 393.549652099609375 401.717315673828125 397.29754638671875 379.218536376953125 352.1546630859375 333.185821533203125 319.39166259765625 301.35186767578125 281.32391357421875 272.659759521484375 270.732513427734375 267.821563720703125 262.586700439453125 250.912506103515625 224.70977783203125 204.335418701171875 192.5504913330078125 183.929656982421875 180.48858642578125 164.4044189453125 147.6292572021484375 156.372222900390625 196.0639190673828125 211.016510009765625 215.653289794921875 222.16827392578125 236.776702880859375 251.2928466796875 260.695709228515625 270.919769287109375 286.8739013671875 308.279876708984375 325.53277587890625 341.927947998046875 351.217864990234375 358.243438720703125 368.580841064453125 378.328155517578125 388.762359619140625 412.342681884765625 438.815399169921875 467.05206298828125 488.1890869140625 495.865966796875 493.79339599609375 493.781494140625 507.518768310546875 527.43017578125 536.44793701171875 542.81146240234375 534.2515869140625 482.91912841796875 416.038604736328125 386.30352783203125 351.664520263671875 336.44696044921875 413.08624267578125 401.790435791015625 352.734222412109375 325.473236083984375 312.80322265625 286.815765380859375 268.88018798828125 234.383148193359375 171.8616790771484375 159.5265960693359375 179.9320068359375 211.6010894775390625 228.4676361083984375 223.9228668212890625 206.49591064453125 186.123687744140625 166.8247222900390625 161.8800506591796875 163.0689849853515625 164.7438507080078125 175.4073944091796875 176.4434814453125 164.367828369140625 166.6448516845703125 200.5803680419921875 257.187530517578125 315.44287109375 352.074676513671875 330.452362060546875 314.155853271484375 342.46942138671875 386.30841064453125 430.938812255859375 478.74908447265625 519.7562255859375 531.5889892578125 536.7657470703125 566.78021240234375 574.77716064453125 550.75152587890625 523.38018798828125 518.13525390625 534.985595703125 551.899169921875 589.66400146484375 634.986572265625 642.16046142578125 624.921142578125 624.6514892578125 610.8411865234375 550.3529052734375 485.583648681640625 429.861419677734375 371.635101318359375 320.343414306640625 293.54052734375 275.799774169921875 265.380096435546875 263.27581787109375 261.46246337890625 258.284637451171875 255.1319732666015625 250.481842041015625 245.608306884765625 246.2259368896484375 250.9660797119140625 241.9311370849609375 225.8910064697265625 241.644805908203125 275.288543701171875 296.939056396484375 323.201263427734375 345.179901123046875 378.967559814453125 405.720947265625 423.444671630859375 434.23968505859375 441.88525390625 454.918914794921875 470.38037109375 474.5882568359375 460.263336181640625 439.73980712890625 401.651092529296875 356.848114013671875 331.638580322265625 318.734405517578125 300.408050537109375 262.77862548828125 237.64678955078125 234.70611572265625 221.427825927734375 204.579925537109375 191.77423095703125 182.7001495361328125 185.6628875732421875 197.611297607421875 225.4884796142578125 268.326995849609375 299.069793701171875 302.9232177734375 301.51324462890625 300.18585205078125 287.27777099609375 273.4166259765625 273.6636962890625 273.71978759765625 281.941497802734375 297.330596923828125 310.572113037109375 320.753143310546875 
508.038116455078125 453.40032958984375 401.54620361328125 375.774383544921875 377.152679443359375 377.381439208984375 390.255279541015625 414.052886962890625 435.69195556640625 454.66900634765625 447.60247802734375 424.255462646484375 393.55987548828125 365.066680908203125 344.33819580078125 324.70574951171875 297.989349365234375 277.945587158203125 272.279876708984375 267.5321044921875 257.89923095703125 246.7419281005859375 220.5874176025390625 198.9785308837890625 187.585693359375 181.838470458984375 180.45245361328125 166.9962005615234375 145.7424774169921875 147.438232421875 176.6183319091796875 203.1118927001953125 214.8211822509765625 223.9105987548828125 233.6570892333984375 248.0475921630859375 260.35333251953125 271.97467041015625 282.876617431640625 302.89654541015625 321.66595458984375 333.317840576171875 339.054656982421875 360.08978271484375 374.92620849609375 384.1065673828125 399.619964599609375 425.586578369140625 448.277069091796875 464.835479736328125 482.568115234375 491.52496337890625 488.147247314453125 488.4725341796875 495.782379150390625 510.90008544921875 519.447509765625 519.0557861328125 507.59625244140625 459.5240478515625 394.505950927734375 362.421295166015625 331.74456787109375 334.02301025390625 421.954315185546875 400.919586181640625 343.949462890625 311.325408935546875 294.183746337890625 267.91448974609375 244.67364501953125 208.056732177734375 162.4939422607421875 175.1397705078125 219.6749114990234375 254.1367645263671875 257.417572021484375 254.7265167236328125 248.15570068359375 231.796875 209.2200469970703125 198.3271636962890625 190.4984130859375 193.6353759765625 206.0049896240234375 211.840972900390625 200.561279296875 174.78277587890625 166.8802947998046875 208.8313140869140625 263.440704345703125 305.7625732421875 298.89990234375 299.2476806640625 331.094757080078125 359.2186279296875 386.671539306640625 430.44677734375 469.41766357421875 463.914520263671875 459.998992919921875 498.659271240234375 515.0166015625 495.684417724609375 477.9874267578125 477.36236572265625 487.152374267578125 505.03973388671875 538.4949951171875 576.93878173828125 581.8631591796875 566.56439208984375 572.35888671875 565.898681640625 508.04046630859375 444.3299560546875 390.224456787109375 341.00634765625 298.31597900390625 271.9083251953125 258.336639404296875 247.2527313232421875 241.42138671875 240.606048583984375 237.540374755859375 236.6492462158203125 234.0757598876953125 229.46466064453125 228.1461029052734375 228.286529541015625 215.883056640625 204.8765716552734375 219.2496795654296875 238.9520263671875 251.8760223388671875 274.71038818359375 300.601959228515625 338.991180419921875 369.650604248046875 386.2236328125 384.23858642578125 384.1796875 404.791717529296875 422.011505126953125 431.12591552734375 423.49456787109375 404.338287353515625 374.514373779296875 337.211669921875 296.9942626953125 265.637115478515625 246.2962799072265625 217.325347900390625 195.85894775390625 190.4001007080078125 186.1628265380859375 187.8782958984375 194.9688873291015625 207.0225067138671875 225.4404449462890625 248.840911865234375 281.812835693359375 316.05731201171875 328.857391357421875 326.576416015625 324.821929931640625 323.35028076171875 310.159149169921875 299.70526123046875 303.957855224609375 313.6251220703125 328.971771240234375 342.0595703125 349.51629638671875 350.770538330078125 
498.42071533203125 449.717315673828125 406.362152099609375 388.895355224609375 394.601959228515625 404.3743896484375 421.592132568359375 445.67138671875 468.706695556640625 487.9696044921875 483.24005126953125 465.480987548828125 435.921356201171875 401.1092529296875 371.699371337890625 348.628753662109375 325.4613037109375 297.748199462890625 276.68505859375 265.75360107421875 248.7596893310546875 227.9401702880859375 209.9302825927734375 197.4841766357421875 184.0310211181640625 177.239410400390625 176.7718963623046875 170.006256103515625 148.366851806640625 143.3637847900390625 155.890869140625 188.2803802490234375 212.409698486328125 225.1184234619140625 234.90509033203125 246.3187408447265625 263.098419189453125 273.582427978515625 279.56549072265625 297.517822265625 313.76171875 324.27081298828125 335.5858154296875 356.641571044921875 376.292083740234375 389.53729248046875 412.52325439453125 439.60357666015625 456.711700439453125 463.088165283203125 476.595245361328125 489.012969970703125 484.795013427734375 481.60198974609375 485.09716796875 496.43487548828125 502.350799560546875 500.435333251953125 484.9393310546875 436.49468994140625 367.292083740234375 328.214141845703125 299.7451171875 343.51751708984375 422.714874267578125 390.72894287109375 331.553375244140625 294.48486328125 271.46142578125 250.749481201171875 229.576324462890625 193.6156005859375 160.3473663330078125 187.1380615234375 243.951416015625 271.829620361328125 268.052947998046875 264.884490966796875 264.838287353515625 258.389801025390625 247.480194091796875 239.0132293701171875 232.79278564453125 227.5576171875 226.9007720947265625 228.3886260986328125 226.5294342041015625 207.42425537109375 173.7126922607421875 172.9142608642578125 215.2630615234375 265.29327392578125 272.0665283203125 281.600128173828125 305.005706787109375 309.111724853515625 323.047454833984375 357.3099365234375 394.26226806640625 399.749603271484375 399.642547607421875 438.398712158203125 456.32635498046875 444.38671875 434.788726806640625 441.3489990234375 448.04364013671875 463.91510009765625 488.590911865234375 511.958404541015625 521.04254150390625 520.66937255859375 532.33612060546875 526.193115234375 474.11676025390625 408.2430419921875 350.875274658203125 301.577178955078125 267.8438720703125 249.6229400634765625 236.4087371826171875 225.08734130859375 217.022857666015625 212.96002197265625 204.709320068359375 199.8073272705078125 194.74725341796875 191.897705078125 190.8648529052734375 188.399658203125 185.6008148193359375 185.5990142822265625 188.5969390869140625 190.21466064453125 196.277313232421875 216.7557525634765625 246.851959228515625 280.11212158203125 317.468170166015625 344.196319580078125 338.79315185546875 318.814361572265625 338.12591552734375 365.423126220703125 384.1622314453125 382.463348388671875 362.267425537109375 337.675048828125 301.69677734375 257.429779052734375 219.3605804443359375 197.1523284912109375 181.99530029296875 178.96844482421875 186.4011688232421875 199.4468841552734375 221.9835357666015625 244.2613983154296875 262.954681396484375 285.335601806640625 309.743804931640625 329.40869140625 345.0355224609375 348.20172119140625 346.168212890625 345.8680419921875 341.584930419921875 329.595977783203125 326.1151123046875 350.177001953125 376.45086669921875 397.279815673828125 404.329986572265625 398.8914794921875 386.994903564453125 
498.74505615234375 450.99444580078125 410.34844970703125 402.219268798828125 420.277313232421875 435.999908447265625 452.566741943359375 474.2755126953125 499.82965087890625 517.8551025390625 520.504638671875 505.931427001953125 477.86151123046875 442.393707275390625 403.457122802734375 375.381683349609375 354.756011962890625 323.149871826171875 287.982025146484375 270.908538818359375 253.2982940673828125 224.122467041015625 207.714874267578125 197.634735107421875 185.3154296875 177.95654296875 178.2888641357421875 172.9743194580078125 155.0278472900390625 143.2601470947265625 145.7653656005859375 172.7572021484375 207.3314056396484375 224.0289459228515625 234.4290771484375 243.7285919189453125 257.850433349609375 268.951629638671875 277.457061767578125 296.939117431640625 313.52197265625 327.983367919921875 343.116943359375 362.899078369140625 382.14556884765625 397.62127685546875 426.20281982421875 450.13299560546875 463.73822021484375 465.5609130859375 470.082427978515625 483.6514892578125 481.305999755859375 474.614990234375 477.75830078125 484.77520751953125 486.83966064453125 485.881591796875 465.494781494140625 411.485626220703125 346.3287353515625 299.68035888671875 271.08184814453125 333.44537353515625 394.773681640625 359.229278564453125 307.164031982421875 273.987030029296875 255.7247314453125 240.546844482421875 217.2166595458984375 180.3690338134765625 161.0050811767578125 196.671417236328125 253.6127166748046875 281.18310546875 283.24853515625 275.17193603515625 271.1727294921875 267.711395263671875 261.698699951171875 256.756591796875 249.6875457763671875 242.1990814208984375 239.3482513427734375 239.32794189453125 234.5603179931640625 226.8291778564453125 207.1433563232421875 177.497039794921875 178.2211151123046875 219.5595703125 246.021636962890625 253.9165191650390625 266.861114501953125 257.12445068359375 257.062774658203125 282.7784423828125 310.3304443359375 326.233245849609375 335.54302978515625 370.49493408203125 389.518890380859375 389.14532470703125 404.279205322265625 415.756866455078125 412.513214111328125 425.149444580078125 446.242828369140625 462.763519287109375 477.33917236328125 490.364959716796875 506.55242919921875 493.061187744140625 439.054412841796875 374.5633544921875 314.079498291015625 269.88446044921875 242.0011749267578125 228.2161407470703125 213.59100341796875 200.0062408447265625 188.9507293701171875 182.35650634765625 177.8784027099609375 180.49151611328125 184.208526611328125 187.3252410888671875 178.1145172119140625 183.9060821533203125 198.486328125 197.3243560791015625 188.6281585693359375 183.461212158203125 175.80499267578125 178.9520111083984375 197.672698974609375 227.23529052734375 259.433563232421875 285.967864990234375 291.51092529296875 270.81817626953125 275.594024658203125 303.954681396484375 328.396881103515625 329.845123291015625 303.152587890625 274.1583251953125 241.581146240234375 208.774932861328125 187.8185577392578125 181.73291015625 190.065338134765625 206.792877197265625 235.2845306396484375 262.978973388671875 286.633026123046875 309.179595947265625 319.302886962890625 330.419403076171875 355.238983154296875 375.339508056640625 381.22344970703125 377.14410400390625 371.202850341796875 371.40325927734375 370.2457275390625 354.802703857421875 342.301239013671875 375.560699462890625 427.69073486328125 460.1292724609375 461.9464111328125 448.0751953125 432.495941162109375 
492.4083251953125 449.805755615234375 421.0909423828125 432.7354736328125 455.52557373046875 465.562591552734375 476.79888916015625 498.709930419921875 530.67645263671875 556.1590576171875 560.64886474609375 543.6522216796875 513.30462646484375 478.5457763671875 436.19171142578125 403.63922119140625 382.058502197265625 351.93988037109375 311.6624755859375 284.410736083984375 259.120391845703125 229.3961334228515625 209.9524688720703125 197.8407440185546875 189.41925048828125 183.4793548583984375 181.278228759765625 173.8462371826171875 161.3662872314453125 148.8111572265625 144.151702880859375 157.4024505615234375 193.5921173095703125 222.3447113037109375 234.55316162109375 241.8499298095703125 251.3390655517578125 263.681396484375 274.741668701171875 291.818817138671875 309.902313232421875 322.274658203125 337.32806396484375 364.834259033203125 389.039154052734375 406.2442626953125 435.4912109375 456.45001220703125 468.50152587890625 469.807708740234375 466.51708984375 475.451690673828125 475.3651123046875 468.604522705078125 470.946807861328125 476.318359375 474.3189697265625 469.413330078125 442.3232421875 387.248870849609375 337.407470703125 289.537017822265625 261.82269287109375 329.176177978515625 353.961334228515625 317.67437744140625 279.840789794921875 257.15386962890625 246.8919219970703125 231.3140869140625 205.5150604248046875 169.463287353515625 172.0321502685546875 216.1508941650390625 264.653350830078125 293.869171142578125 308.01617431640625 294.1278076171875 281.154998779296875 274.7271728515625 271.318817138671875 270.3056640625 265.550262451171875 258.159423828125 254.345672607421875 253.212158203125 244.590850830078125 236.228485107421875 224.161407470703125 193.972564697265625 166.724029541015625 174.3845977783203125 204.4455108642578125 219.925689697265625 218.15777587890625 204.0418548583984375 199.1153411865234375 211.7516326904296875 241.576904296875 261.969146728515625 289.316741943359375 314.450927734375 330.55023193359375 351.42254638671875 383.70318603515625 388.74993896484375 380.98529052734375 392.80108642578125 409.238433837890625 427.347808837890625 453.219329833984375 472.11724853515625 487.40679931640625 472.1605224609375 416.556243896484375 350.183349609375 291.01513671875 248.9876251220703125 220.9874725341796875 207.109588623046875 191.050048828125 177.6603546142578125 177.3236846923828125 187.7976226806640625 204.2577667236328125 222.099578857421875 230.1021575927734375 235.88018798828125 235.80999755859375 248.0926971435546875 268.765472412109375 279.138916015625 264.41131591796875 240.82720947265625 213.942718505859375 191.8270111083984375 179.877166748046875 185.7946014404296875 202.418701171875 223.9436798095703125 234.5597381591796875 228.4574737548828125 228.7556304931640625 247.6028900146484375 262.995391845703125 258.459228515625 235.8622894287109375 212.38787841796875 195.116607666015625 182.1761016845703125 182.3873138427734375 205.970703125 241.391876220703125 276.499114990234375 307.425079345703125 334.086517333984375 358.23699951171875 376.048431396484375 386.76318359375 392.712127685546875 410.274505615234375 425.31573486328125 430.851898193359375 424.95855712890625 412.997802734375 406.585906982421875 401.941070556640625 373.4554443359375 354.091522216796875 381.619110107421875 439.05999755859375 489.603546142578125 510.160736083984375 499.811737060546875 485.226837158203125 
473.213470458984375 448.12860107421875 449.80682373046875 469.573638916015625 481.661102294921875 491.032806396484375 501.6883544921875 528.45794677734375 566.31884765625 591.5684814453125 592.70941162109375 571.6202392578125 541.2362060546875 503.222015380859375 457.3778076171875 426.684295654296875 398.968719482421875 369.47015380859375 337.2274169921875 302.33026123046875 275.525787353515625 245.3553924560546875 217.103302001953125 201.5677642822265625 194.0932159423828125 184.9930572509765625 180.3093719482421875 172.8805084228515625 162.8922882080078125 153.723175048828125 145.1686248779296875 149.1627349853515625 181.7607421875 221.54205322265625 233.723297119140625 241.3218231201171875 249.7016143798828125 258.739410400390625 271.733673095703125 285.505950927734375 304.68072509765625 319.01361083984375 332.471893310546875 358.28466796875 387.848297119140625 408.650848388671875 435.92694091796875 457.3359375 467.33001708984375 468.678863525390625 465.421173095703125 465.6524658203125 461.717681884765625 457.72515869140625 459.36114501953125 458.97296142578125 452.201324462890625 443.9029541015625 418.431793212890625 373.452423095703125 325.99334716796875 281.01263427734375 255.063873291015625 317.089385986328125 312.259063720703125 281.8624267578125 261.891571044921875 249.542816162109375 241.126861572265625 218.123046875 180.4070892333984375 162.8478851318359375 190.3125152587890625 232.3713531494140625 273.114837646484375 308.679168701171875 325.828582763671875 319.29632568359375 310.39288330078125 301.96990966796875 293.219207763671875 285.80401611328125 279.0028076171875 274.20281982421875 272.77459716796875 267.10430908203125 256.220367431640625 244.7928466796875 231.2078857421875 209.388702392578125 183.2469482421875 162.0205535888671875 165.875396728515625 182.0396270751953125 181.2007904052734375 169.5872650146484375 167.9421844482421875 173.0915374755859375 190.2274017333984375 215.8343658447265625 252.7165069580078125 280.27978515625 311.971771240234375 343.289276123046875 366.943145751953125 358.28399658203125 349.99298095703125 365.260650634765625 391.479339599609375 418.763763427734375 439.0338134765625 454.917938232421875 470.13299560546875 459.687744140625 405.57855224609375 338.4102783203125 284.8748779296875 241.6465606689453125 206.2750701904296875 191.6246490478515625 177.4703369140625 175.11590576171875 204.18511962890625 232.6897430419921875 260.79144287109375 281.211761474609375 288.899139404296875 305.746063232421875 325.82940673828125 329.119720458984375 337.25811767578125 356.412078857421875 348.9788818359375 312.017822265625 268.3515625 237.1821746826171875 207.3597564697265625 186.9498748779296875 177.297119140625 182.1984100341796875 185.8928680419921875 186.1678924560546875 190.700103759765625 197.9449005126953125 201.999725341796875 199.4043426513671875 189.1864013671875 181.3564910888671875 181.397552490234375 193.7879638671875 220.1266632080078125 265.47161865234375 309.7803955078125 345.978057861328125 377.072906494140625 405.633575439453125 431.003173828125 445.341644287109375 457.9791259765625 465.57110595703125 475.35498046875 482.83538818359375 487.084136962890625 481.909423828125 456.89361572265625 436.17376708984375 412.314788818359375 382.0087890625 367.65911865234375 390.641448974609375 445.6676025390625 503.952972412109375 546.47601318359375 548.47406005859375 534.4100341796875 
469.963592529296875 475.4754638671875 488.898345947265625 493.695068359375 499.438873291015625 512.463623046875 529.8583984375 558.99481201171875 598.45269775390625 619.73065185546875 617.250244140625 599.7855224609375 571.3931884765625 534.97967529296875 491.24169921875 457.328765869140625 423.4610595703125 388.4105224609375 357.8011474609375 320.490447998046875 288.84228515625 265.402801513671875 231.8657073974609375 206.786102294921875 196.0426177978515625 185.3467559814453125 179.360595703125 170.678863525390625 163.2320404052734375 158.1123046875 148.402679443359375 148.31488037109375 173.27947998046875 220.3486785888671875 235.3234405517578125 239.9181060791015625 248.8558197021484375 255.07867431640625 265.9334716796875 276.532745361328125 296.593231201171875 314.731109619140625 325.424530029296875 345.732025146484375 378.214691162109375 407.826019287109375 434.5560302734375 455.617706298828125 464.27850341796875 465.68756103515625 462.141357421875 455.619049072265625 449.67596435546875 444.886077880859375 437.79132080078125 427.3568115234375 414.748748779296875 404.153839111328125 391.033660888671875 362.197906494140625 323.21197509765625 271.507232666015625 238.5950775146484375 279.55194091796875 280.78759765625 263.013763427734375 254.1132049560546875 246.5665283203125 232.809967041015625 196.18988037109375 162.46441650390625 172.3560943603515625 213.8111572265625 243.827423095703125 278.87823486328125 319.730926513671875 341.188720703125 346.798309326171875 349.111419677734375 339.788299560546875 318.59674072265625 307.7843017578125 305.62921142578125 297.469940185546875 290.321136474609375 281.026885986328125 269.315399169921875 254.3448333740234375 237.9583892822265625 221.1294097900390625 202.9519195556640625 178.198699951171875 163.08270263671875 162.8546905517578125 167.9113616943359375 173.45751953125 190.7169647216796875 186.734222412109375 173.2161865234375 180.9143829345703125 216.8249664306640625 254.54229736328125 293.4901123046875 326.009796142578125 334.00628662109375 325.594451904296875 330.774322509765625 359.208221435546875 391.7735595703125 414.998291015625 422.569061279296875 435.230499267578125 442.502716064453125 435.142822265625 389.1973876953125 329.81365966796875 283.90045166015625 243.64678955078125 203.87933349609375 187.0976104736328125 173.836761474609375 186.8305511474609375 232.2943267822265625 279.66448974609375 314.285400390625 334.035797119140625 344.68463134765625 361.384002685546875 386.772369384765625 400.09173583984375 413.821563720703125 430.603179931640625 428.185089111328125 389.736328125 335.32928466796875 292.21514892578125 258.205535888671875 230.93951416015625 207.2012176513671875 189.0073089599609375 182.002532958984375 179.8089599609375 178.673583984375 178.2331695556640625 179.47100830078125 184.4007110595703125 190.0057220458984375 198.675994873046875 214.497833251953125 244.5488128662109375 286.204559326171875 336.535736083984375 379.54412841796875 404.766937255859375 439.83807373046875 467.71539306640625 496.439971923828125 510.74127197265625 521.38006591796875 531.9971923828125 537.867919921875 540.1768798828125 541.85101318359375 525.67498779296875 482.552276611328125 441.95208740234375 415.562225341796875 408.35491943359375 395.674468994140625 400.684722900390625 454.125091552734375 515.56396484375 568.994873046875 586.22222900390625 572.55072021484375 
497.552764892578125 509.973785400390625 508.36566162109375 509.715576171875 520.4271240234375 537.59716796875 556.95355224609375 578.87542724609375 613.781494140625 637.051513671875 636.38275146484375 623.67279052734375 598.91351318359375 565.8924560546875 529.73004150390625 495.331298828125 455.072021484375 413.151153564453125 377.465545654296875 338.592315673828125 302.292266845703125 274.922760009765625 245.7310028076171875 215.699066162109375 196.7868499755859375 185.179595947265625 176.0284881591796875 167.5720367431640625 162.962890625 160.753387451171875 150.5065155029296875 143.7796783447265625 157.5203399658203125 203.8006744384765625 233.086639404296875 239.133270263671875 247.593719482421875 253.6918792724609375 263.7523193359375 270.463775634765625 290.7052001953125 309.412139892578125 317.197296142578125 336.382080078125 369.29461669921875 402.365081787109375 431.295623779296875 454.705902099609375 463.3858642578125 462.295867919921875 455.283843994140625 446.305816650390625 437.3587646484375 422.7281494140625 407.309661865234375 396.015472412109375 381.192840576171875 364.127471923828125 354.190948486328125 336.750946044921875 313.123809814453125 276.389556884765625 230.9622650146484375 239.4936676025390625 260.316497802734375 255.3379364013671875 250.1408843994140625 242.153839111328125 213.5352783203125 170.98516845703125 159.4902496337890625 192.276611328125 234.0362396240234375 255.176361083984375 286.82720947265625 335.30419921875 357.124542236328125 360.8570556640625 360.09783935546875 348.855712890625 336.47442626953125 343.154510498046875 349.640350341796875 333.1021728515625 313.165069580078125 304.658294677734375 292.35260009765625 275.395538330078125 255.4343109130859375 237.380950927734375 224.7700042724609375 212.3866729736328125 198.4151763916015625 191.602569580078125 201.5796356201171875 218.428375244140625 235.626495361328125 231.36480712890625 202.755828857421875 171.4246673583984375 179.0861663818359375 214.7816619873046875 255.952667236328125 289.292633056640625 295.71759033203125 308.905181884765625 339.9298095703125 370.4295654296875 391.70001220703125 399.89984130859375 401.289459228515625 413.423858642578125 408.559844970703125 400.696441650390625 369.412628173828125 316.435821533203125 282.7086181640625 252.3885955810546875 211.7866058349609375 186.488250732421875 176.407257080078125 207.253936767578125 258.273284912109375 315.796417236328125 358.1634521484375 366.90576171875 374.210113525390625 393.4993896484375 420.805084228515625 441.63067626953125 458.984893798828125 476.54815673828125 487.015777587890625 457.37664794921875 404.0191650390625 356.426605224609375 321.453369140625 287.73822021484375 268.4310302734375 249.29949951171875 234.2667388916015625 219.684967041015625 208.3030242919921875 207.080780029296875 211.8615264892578125 223.3176422119140625 242.58331298828125 264.297332763671875 289.179901123046875 320.628173828125 351.7352294921875 395.9307861328125 442.79168701171875 471.776275634765625 503.433258056640625 540.2962646484375 573.0787353515625 590.6771240234375 593.94879150390625 598.82952880859375 602.06512451171875 598.883056640625 583.606689453125 542.60894775390625 486.80560302734375 444.889923095703125 438.45587158203125 449.9617919921875 431.2889404296875 412.71783447265625 448.330963134765625 513.14404296875 572.28662109375 610.95037841796875 612.2249755859375 
527.10693359375 532.3492431640625 532.38275146484375 538.1826171875 550.80255126953125 574.58563232421875 587.91400146484375 595.84503173828125 623.363525390625 651.1962890625 656.386962890625 644.0572509765625 620.7313232421875 591.55908203125 558.17169189453125 522.19091796875 481.260467529296875 437.62872314453125 398.870086669921875 362.4393310546875 320.346405029296875 283.405181884765625 257.9117431640625 231.38519287109375 208.8253021240234375 192.433074951171875 177.24920654296875 168.4735565185546875 164.0783538818359375 162.035675048828125 154.794281005859375 141.49273681640625 145.8737945556640625 176.5811614990234375 222.3686065673828125 241.3623199462890625 245.226104736328125 249.5254058837890625 257.319732666015625 263.694061279296875 277.14996337890625 294.873626708984375 309.126007080078125 331.360321044921875 362.442718505859375 397.709991455078125 426.870452880859375 456.359130859375 470.581787109375 466.1884765625 451.276397705078125 434.393646240234375 414.97772216796875 393.161773681640625 376.797271728515625 369.646636962890625 352.7337646484375 331.9810791015625 317.9127197265625 306.014556884765625 292.292755126953125 271.579010009765625 228.531829833984375 217.47698974609375 247.7224578857421875 251.16082763671875 245.7195281982421875 226.20025634765625 184.3663330078125 156.9195556640625 175.99139404296875 220.782958984375 252.299530029296875 268.3927001953125 297.53253173828125 342.38470458984375 368.272491455078125 370.679351806640625 368.00689697265625 358.732879638671875 360.500823974609375 367.423858642578125 368.150909423828125 349.024749755859375 336.586639404296875 340.125091552734375 326.023956298828125 304.31036376953125 277.8424072265625 265.912017822265625 252.5098876953125 240.64117431640625 236.288116455078125 238.051177978515625 250.469573974609375 271.07916259765625 283.709869384765625 270.3321533203125 237.62371826171875 201.52752685546875 172.36456298828125 177.2436981201171875 207.249267578125 240.9250946044921875 270.278411865234375 309.877044677734375 344.00592041015625 369.765472412109375 383.344390869140625 379.779144287109375 371.8079833984375 382.9713134765625 377.133880615234375 364.6673583984375 342.633148193359375 306.32232666015625 285.147216796875 263.052215576171875 229.57421875 188.79229736328125 183.01837158203125 218.4207000732421875 274.552001953125 333.89422607421875 367.0389404296875 373.36181640625 391.02569580078125 419.852386474609375 450.157928466796875 483.887939453125 508.535888671875 530.01898193359375 542.5001220703125 520.0828857421875 476.363494873046875 439.036834716796875 417.572967529296875 409.73663330078125 396.330169677734375 353.133636474609375 329.69378662109375 287.19000244140625 256.339324951171875 278.312103271484375 274.08135986328125 284.794464111328125 311.993988037109375 337.268341064453125 362.9906005859375 382.961944580078125 408.535552978515625 445.2822265625 498.554229736328125 537.65484619140625 567.65728759765625 605.46478271484375 645.90960693359375 679.18084716796875 683.87530517578125 680.20379638671875 672.4334716796875 654.847900390625 612.06134033203125 548.4058837890625 487.7303466796875 466.91033935546875 485.01806640625 490.987945556640625 465.756805419921875 433.33477783203125 449.0999755859375 504.203216552734375 562.8624267578125 615.1768798828125 644.10394287109375 
557.16583251953125 556.75054931640625 559.9893798828125 573.89202880859375 585.94140625 616.14874267578125 634.93023681640625 630.004150390625 639.8082275390625 662.06292724609375 676.96221923828125 670.3734130859375 648.93988037109375 623.04583740234375 595.01898193359375 555.1300048828125 509.884490966796875 464.02032470703125 420.048614501953125 382.258453369140625 342.2257080078125 300.61700439453125 274.9227294921875 253.12969970703125 231.7720489501953125 213.172393798828125 184.1428680419921875 170.202178955078125 165.4903411865234375 162.32769775390625 159.741973876953125 147.120330810546875 142.93939208984375 155.229888916015625 198.7230377197265625 238.38775634765625 245.0698089599609375 247.873321533203125 251.6329498291015625 256.88433837890625 262.962066650390625 282.742919921875 306.487701416015625 326.579254150390625 355.3447265625 390.651702880859375 422.5963134765625 452.385101318359375 472.541229248046875 474.410491943359375 455.311370849609375 425.88568115234375 391.69921875 361.8009033203125 340.3538818359375 334.9437255859375 321.43701171875 307.358734130859375 292.041351318359375 278.16949462890625 267.249603271484375 254.140350341796875 223.3979949951171875 200.901611328125 231.94903564453125 246.9939422607421875 234.6073760986328125 197.189056396484375 161.6659393310546875 162.664459228515625 204.71697998046875 239.3340606689453125 261.4840087890625 279.600677490234375 310.206817626953125 350.0283203125 376.746307373046875 382.234283447265625 376.1109619140625 369.7789306640625 373.64605712890625 379.94439697265625 378.756683349609375 359.101043701171875 359.827850341796875 364.768951416015625 348.903228759765625 314.863372802734375 294.93890380859375 304.284149169921875 292.431182861328125 272.985626220703125 269.02880859375 277.610076904296875 292.67279052734375 305.712860107421875 302.905426025390625 292.73883056640625 269.01129150390625 239.347900390625 211.446929931640625 180.0912017822265625 172.5477447509765625 197.88262939453125 234.690887451171875 269.407440185546875 301.940521240234375 333.4769287109375 350.70458984375 347.986572265625 340.729217529296875 355.5804443359375 354.3472900390625 339.48590087890625 322.964508056640625 301.572540283203125 286.41912841796875 265.824920654296875 235.850860595703125 189.5306243896484375 177.45330810546875 215.5213470458984375 269.727142333984375 317.93597412109375 350.37762451171875 372.674224853515625 405.21478271484375 444.50054931640625 487.247650146484375 530.7430419921875 560.2564697265625 588.92364501953125 601.9129638671875 586.0333251953125 555.8980712890625 529.90753173828125 519.91925048828125 509.608917236328125 476.5614013671875 425.594146728515625 372.033172607421875 316.628387451171875 298.894012451171875 330.68798828125 331.16619873046875 349.726043701171875 375.768280029296875 400.873779296875 426.300933837890625 448.378662109375 472.29827880859375 502.406402587890625 552.41107177734375 601.62554931640625 645.8963623046875 677.990234375 709.67694091796875 743.3939208984375 757.826904296875 753.42559814453125 734.23114013671875 692.2947998046875 626.921142578125 556.9786376953125 504.727752685546875 508.436981201171875 532.48504638671875 524.318115234375 488.193023681640625 451.09478759765625 455.878997802734375 499.947845458984375 549.31195068359375 595.695068359375 640.59832763671875 
595.06878662109375 584.860595703125 591.07318115234375 619.63385009765625 631.0172119140625 651.20489501953125 683.449951171875 689.90472412109375 681.57415771484375 679.512939453125 697.163818359375 701.479736328125 676.19525146484375 647.22137451171875 619.7891845703125 587.388427734375 540.4456787109375 490.6700439453125 444.58154296875 404.389312744140625 363.5157470703125 319.660186767578125 287.677215576171875 267.637359619140625 255.436004638671875 239.0339813232421875 205.0477447509765625 180.0422821044921875 170.08544921875 164.586883544921875 162.172515869140625 153.3304443359375 144.741119384765625 146.5829010009765625 169.2436676025390625 214.8340911865234375 237.5772552490234375 243.7382354736328125 248.78656005859375 251.3130035400390625 259.01361083984375 278.1500244140625 300.87237548828125 321.891876220703125 346.96173095703125 380.020721435546875 412.476654052734375 439.883148193359375 461.375396728515625 464.32281494140625 443.206817626953125 406.701629638671875 370.985870361328125 336.804351806640625 307.84088134765625 294.19818115234375 283.934539794921875 272.09674072265625 256.798797607421875 240.189697265625 223.3956451416015625 213.6636962890625 199.286956787109375 184.89813232421875 208.7947235107421875 219.565643310546875 199.972930908203125 167.0996246337890625 158.014068603515625 187.9249725341796875 226.8112945556640625 253.195404052734375 280.562225341796875 299.647003173828125 323.90789794921875 361.479522705078125 388.631622314453125 394.648345947265625 388.44488525390625 383.067626953125 383.23309326171875 390.207672119140625 389.4046630859375 372.246368408203125 377.580108642578125 374.93212890625 354.010101318359375 321.11468505859375 309.864013671875 331.28509521484375 327.89093017578125 314.2569580078125 319.56561279296875 327.47467041015625 332.61029052734375 330.16473388671875 317.74102783203125 305.903839111328125 290.313079833984375 274.490875244140625 249.879241943359375 220.8541717529296875 189.4387054443359375 177.3499603271484375 187.270782470703125 210.5800628662109375 246.575958251953125 280.909271240234375 301.7991943359375 314.88897705078125 312.761474609375 325.182891845703125 331.2581787109375 319.074737548828125 308.436309814453125 294.35400390625 282.039886474609375 261.2437744140625 227.8007659912109375 185.7528076171875 175.9468231201171875 212.1724090576171875 258.937591552734375 295.5537109375 324.51373291015625 365.49749755859375 420.119232177734375 466.963958740234375 513.4022216796875 560.67987060546875 589.82049560546875 609.03106689453125 618.58795166015625 618.74468994140625 610.00115966796875 597.248291015625 587.92767333984375 555.86431884765625 502.459991455078125 437.5419921875 371.630889892578125 319.144439697265625 339.181365966796875 379.48974609375 372.469635009765625 400.797943115234375 440.497833251953125 472.3624267578125 501.8013916015625 527.69342041015625 551.7147216796875 576.37139892578125 610.50885009765625 659.7044677734375 714.64666748046875 748.12005615234375 767.35345458984375 786.66619873046875 798.10284423828125 795.138671875 760.78631591796875 694.9659423828125 620.10052490234375 561.234130859375 541.09344482421875 560.12542724609375 564.0133056640625 546.94287109375 512.27972412109375 472.82843017578125 460.572021484375 487.2421875 522.57135009765625 562.41229248046875 608.38739013671875 
656.84906005859375 632.0013427734375 622.43792724609375 662.2030029296875 687.3638916015625 698.1910400390625 730.439208984375 757.13671875 747.7760009765625 716.3033447265625 714.35064697265625 720.83642578125 700.98486328125 670.18603515625 638.4515380859375 608.2301025390625 568.4232177734375 521.46173095703125 468.9852294921875 423.152435302734375 380.230133056640625 334.26446533203125 295.61444091796875 273.303680419921875 264.052276611328125 253.2960052490234375 223.33984375 192.1225738525390625 174.6642913818359375 166.55938720703125 163.5081634521484375 157.54052734375 146.0921173095703125 144.216796875 149.9163055419921875 176.267974853515625 205.19671630859375 225.458892822265625 245.6905670166015625 243.4954376220703125 254.066162109375 277.167236328125 296.384765625 315.992156982421875 340.256805419921875 369.181671142578125 398.09661865234375 420.881927490234375 436.427337646484375 434.967041015625 405.443084716796875 372.6485595703125 346.6640625 309.67242431640625 278.759979248046875 259.726470947265625 244.1824188232421875 222.225860595703125 199.8607177734375 183.2106781005859375 169.587188720703125 164.081634521484375 160.2135162353515625 160.0504302978515625 171.8878631591796875 177.428955078125 165.962554931640625 156.11090087890625 176.64630126953125 215.611053466796875 241.763031005859375 278.026031494140625 316.156951904296875 337.485015869140625 353.375457763671875 379.121978759765625 402.353912353515625 409.214996337890625 411.260498046875 415.27569580078125 408.31390380859375 402.4666748046875 395.002197265625 388.435577392578125 395.324920654296875 388.111572265625 365.349853515625 337.619842529296875 333.526611328125 355.730712890625 357.08880615234375 353.87762451171875 357.396331787109375 353.80902099609375 348.30517578125 340.069976806640625 328.510772705078125 317.7080078125 305.758758544921875 292.584136962890625 274.016754150390625 248.194183349609375 229.720062255859375 204.053131103515625 175.69012451171875 173.477020263671875 194.6590728759765625 221.482177734375 247.01605224609375 271.153778076171875 278.106597900390625 290.27471923828125 296.24090576171875 288.414825439453125 279.35345458984375 272.479766845703125 260.802215576171875 236.218994140625 199.016082763671875 172.7277679443359375 180.7239990234375 221.2468719482421875 269.12249755859375 306.830108642578125 339.301361083984375 387.593597412109375 438.820037841796875 476.530914306640625 511.57952880859375 543.65716552734375 565.5235595703125 583.946533203125 595.39312744140625 604.61944580078125 606.18267822265625 601.4776611328125 584.81353759765625 543.93487548828125 478.732147216796875 405.517547607421875 354.396270751953125 355.834075927734375 405.860137939453125 442.995880126953125 418.928436279296875 432.951812744140625 494.1383056640625 549.716796875 593.90704345703125 615.42529296875 628.89208984375 656.75823974609375 696.74456787109375 727.43389892578125 756.1685791015625 780.4791259765625 798.90887451171875 818.4749755859375 830.6314697265625 820.6124267578125 767.82196044921875 684.093017578125 608.23486328125 585.79534912109375 596.3533935546875 609.66375732421875 597.98541259765625 576.71759033203125 547.76953125 514.93743896484375 482.70367431640625 489.413177490234375 515.888671875 545.81231689453125 584.32745361328125 
705.78533935546875 689.55859375 662.8424072265625 701.62548828125 748.255615234375 764.953369140625 787.150634765625 814.20660400390625 800.2159423828125 763.5552978515625 743.49188232421875 738.1431884765625 721.8909912109375 694.1990966796875 659.6312255859375 623.97906494140625 586.2650146484375 543.052734375 492.610565185546875 440.180694580078125 397.8277587890625 353.4541015625 305.956573486328125 278.29791259765625 268.458343505859375 258.10601806640625 237.228668212890625 206.228057861328125 181.3697662353515625 171.2391510009765625 166.8383636474609375 160.9584503173828125 150.9062042236328125 144.753936767578125 142.5115814208984375 147.1007080078125 163.211822509765625 200.3631134033203125 237.2628326416015625 234.79656982421875 247.7383270263671875 274.139129638671875 292.901641845703125 314.211090087890625 339.862213134765625 366.816986083984375 386.574462890625 401.032012939453125 406.52447509765625 400.130401611328125 374.65020751953125 351.78533935546875 321.701690673828125 281.157470703125 250.5168304443359375 225.1859893798828125 196.4803466796875 169.8233795166015625 158.10382080078125 156.1109466552734375 157.86602783203125 160.434417724609375 156.622283935546875 152.532745361328125 154.27130126953125 154.213958740234375 157.5168914794921875 175.2216339111328125 206.0458221435546875 234.7328338623046875 265.07000732421875 308.1427001953125 350.471282958984375 376.63507080078125 400.95782470703125 423.57745361328125 427.2274169921875 429.63232421875 436.72149658203125 447.14752197265625 446.368438720703125 423.1922607421875 403.71588134765625 406.781402587890625 421.29608154296875 415.243743896484375 391.82208251953125 362.529998779296875 364.658355712890625 378.88311767578125 377.24884033203125 376.70849609375 373.555938720703125 366.764862060546875 357.829132080078125 348.3603515625 337.71612548828125 328.70318603515625 320.0858154296875 307.98236083984375 290.63092041015625 270.274078369140625 256.16510009765625 237.0472412109375 209.5769805908203125 179.0790863037109375 167.750946044921875 177.9210205078125 193.02777099609375 214.2535400390625 231.57177734375 244.2004852294921875 244.2904052734375 236.764373779296875 227.8277740478515625 225.047119140625 211.4344635009765625 188.1399688720703125 171.1893463134765625 174.237152099609375 198.237060546875 237.380523681640625 287.810882568359375 340.002899169921875 383.730865478515625 423.2125244140625 445.11187744140625 462.734375 486.324462890625 505.516448974609375 519.4110107421875 533.8853759765625 547.77691650390625 557.877685546875 559.4805908203125 550.2501220703125 531.616943359375 499.38922119140625 440.967864990234375 390.70965576171875 391.561737060546875 429.514617919921875 472.9930419921875 497.140228271484375 470.818328857421875 466.606201171875 537.202880859375 602.34722900390625 661.13623046875 701.61474609375 713.67547607421875 743.33441162109375 779.07659912109375 789.92584228515625 792.8995361328125 807.6712646484375 823.95758056640625 843.43865966796875 857.15716552734375 842.7296142578125 779.41070556640625 685.15203857421875 631.30511474609375 642.97052001953125 654.41119384765625 654.85394287109375 634.78509521484375 609.52545166015625 586.70343017578125 559.9764404296875 515.35076904296875 509.24957275390625 538.92449951171875 572.36669921875 601.1368408203125 
733.37115478515625 740.6279296875 716.00848388671875 737.732421875 789.45953369140625 827.60595703125 850.15777587890625 863.47967529296875 846.11724853515625 815.3984375 783.34881591796875 764.62689208984375 741.670654296875 712.091552734375 676.4442138671875 638.2677001953125 599.27783203125 554.19195556640625 510.95184326171875 459.727691650390625 414.654266357421875 373.97332763671875 323.958099365234375 288.942138671875 274.1490478515625 264.67767333984375 256.241302490234375 228.2406005859375 194.0499114990234375 179.1727142333984375 174.3727874755859375 167.5690155029296875 157.00457763671875 148.8270721435546875 143.18597412109375 141.2454376220703125 145.8913421630859375 172.3789825439453125 212.400115966796875 227.2241058349609375 249.1450042724609375 268.607208251953125 287.45587158203125 313.46148681640625 336.554718017578125 363.3624267578125 379.462158203125 385.095001220703125 384.787322998046875 375.59490966796875 358.809600830078125 333.472930908203125 289.30029296875 248.9077606201171875 218.7716217041015625 183.7369842529296875 156.9539642333984375 152.496429443359375 172.78717041015625 193.74957275390625 206.4464874267578125 209.8477020263671875 205.0722198486328125 196.0679473876953125 187.798736572265625 183.4874725341796875 195.0449981689453125 215.6237640380859375 237.5992584228515625 269.223968505859375 307.7392578125 342.615936279296875 388.807891845703125 419.76824951171875 442.83026123046875 469.843597412109375 464.20294189453125 453.706268310546875 464.7381591796875 478.00762939453125 474.35345458984375 446.7750244140625 425.459197998046875 429.33282470703125 447.30560302734375 445.03839111328125 416.302978515625 387.05999755859375 396.97882080078125 413.03564453125 404.098236083984375 392.911712646484375 386.754791259765625 378.344818115234375 369.68389892578125 360.402862548828125 352.4210205078125 344.416717529296875 335.47412109375 322.017791748046875 306.26885986328125 291.390777587890625 276.76959228515625 257.6600341796875 237.8823394775390625 219.549835205078125 193.2722625732421875 176.9968109130859375 174.9004364013671875 175.6893157958984375 185.180419921875 193.16046142578125 187.793701171875 179.68267822265625 177.8363800048828125 177.5398712158203125 177.8176116943359375 177.508270263671875 188.5674285888671875 203.834259033203125 218.5450439453125 253.96295166015625 305.546173095703125 364.160797119140625 418.910064697265625 455.894439697265625 469.423309326171875 468.784332275390625 472.15240478515625 485.76080322265625 495.5748291015625 504.3724365234375 512.96759033203125 518.1624755859375 513.62371826171875 499.2947998046875 479.096038818359375 454.402618408203125 423.8453369140625 430.66815185546875 469.562255859375 501.92431640625 531.86541748046875 546.00067138671875 517.79217529296875 499.79412841796875 562.97601318359375 634.68804931640625 696.0726318359375 749.466064453125 779.35986328125 804.89959716796875 826.28594970703125 827.94085693359375 827.34515380859375 840.08935546875 852.8414306640625 866.236328125 880.098876953125 867.98883056640625 806.1402587890625 719.8504638671875 688.68182373046875 712.441650390625 715.8841552734375 704.62945556640625 680.55078125 645.967529296875 612.068603515625 578.85125732421875 537.09124755859375 532.20562744140625 569.19146728515625 605.603271484375 629.0576171875 
757.05938720703125 791.589111328125 780.46783447265625 788.1895751953125 818.80352783203125 877.21466064453125 912.03802490234375 905.39385986328125 879.5218505859375 855.04376220703125 823.39776611328125 792.10296630859375 757.60955810546875 717.0517578125 675.78857421875 634.54498291015625 596.256591796875 553.86474609375 515.54705810546875 470.439849853515625 424.08062744140625 382.3837890625 335.958709716796875 299.56243896484375 280.28076171875 267.178802490234375 255.1726226806640625 236.1244964599609375 211.6246795654296875 190.7147064208984375 181.24261474609375 173.4551239013671875 162.5517578125 155.53497314453125 151.886016845703125 147.195068359375 142.7986602783203125 154.173553466796875 186.08197021484375 221.1539764404296875 246.42047119140625 260.77508544921875 281.66845703125 308.565643310546875 335.326690673828125 361.538116455078125 373.966705322265625 375.231231689453125 368.9345703125 356.02679443359375 338.5777587890625 300.774993896484375 253.9905242919921875 217.2109527587890625 181.961456298828125 154.532867431640625 158.3302459716796875 188.0940399169921875 223.6300506591796875 235.4680328369140625 236.0018768310546875 232.417327880859375 230.1240234375 223.3096160888671875 219.6410675048828125 223.7374420166015625 242.505645751953125 267.712005615234375 288.483245849609375 315.599273681640625 364.862762451171875 395.48028564453125 423.33392333984375 460.544769287109375 484.37890625 505.16253662109375 497.34869384765625 480.56488037109375 496.61016845703125 515.34375 506.012298583984375 473.61822509765625 450.689422607421875 457.173187255859375 469.160675048828125 462.192108154296875 434.63623046875 423.502716064453125 437.62420654296875 443.486602783203125 429.8668212890625 415.76824951171875 405.311370849609375 397.135986328125 386.540771484375 377.814544677734375 372.7923583984375 365.256591796875 354.424468994140625 340.1361083984375 329.48602294921875 317.366973876953125 295.767822265625 272.15472412109375 251.573089599609375 238.665313720703125 228.651031494140625 217.4896392822265625 204.95159912109375 190.589935302734375 179.1516876220703125 175.427642822265625 175.6944122314453125 181.1158294677734375 187.1128387451171875 194.9879913330078125 210.056396484375 217.395355224609375 228.859771728515625 231.988861083984375 241.576934814453125 281.172515869140625 342.959320068359375 406.027069091796875 455.002166748046875 489.88922119140625 513.52947998046875 515.10614013671875 501.90673828125 496.395660400390625 495.852508544921875 502.083038330078125 509.68804931640625 513.61163330078125 501.066314697265625 492.241607666015625 480.677337646484375 456.711700439453125 460.42535400390625 493.1817626953125 534.8515625 563.9263916015625 583.34576416015625 594.697021484375 581.521484375 552.28851318359375 584.66204833984375 667.66387939453125 749.35968017578125 803.79949951171875 828.70501708984375 851.79779052734375 862.26348876953125 857.60595703125 855.17138671875 868.77642822265625 881.12457275390625 888.74761962890625 896.366455078125 886.9400634765625 838.784912109375 767.70001220703125 752.92547607421875 774.69171142578125 772.17852783203125 751.49822998046875 722.03179931640625 677.87603759765625 630.48919677734375 591.988525390625 557.7725830078125 559.84234619140625 595.83404541015625 631.2841796875 650.83538818359375 
770.3607177734375 825.41265869140625 846.32562255859375 853.23736572265625 865.12432861328125 911.53436279296875 949.93780517578125 938.28961181640625 903.739501953125 873.419677734375 846.60809326171875 813.04193115234375 767.088623046875 714.00445556640625 664.0953369140625 623.60906982421875 591.50848388671875 554.21295166015625 513.37774658203125 465.381500244140625 418.799224853515625 379.927398681640625 340.592681884765625 307.46820068359375 285.029296875 270.55523681640625 259.42767333984375 247.7472381591796875 226.373199462890625 201.7574005126953125 192.881011962890625 188.17877197265625 176.6945343017578125 166.406463623046875 161.5311431884765625 155.76141357421875 145.3222808837890625 143.6121673583984375 165.99395751953125 203.8315582275390625 232.052642822265625 249.07464599609375 275.124114990234375 298.71746826171875 330.020294189453125 359.154815673828125 368.657501220703125 367.3994140625 354.080108642578125 335.214263916015625 309.9593505859375 264.60736083984375 221.834716796875 186.8379058837890625 159.2646026611328125 162.594085693359375 197.6797637939453125 233.6941986083984375 250.616058349609375 255.28594970703125 256.137908935546875 256.3238525390625 251.6905364990234375 244.4035186767578125 257.1219482421875 287.20867919921875 318.19232177734375 353.519073486328125 368.030059814453125 365.180908203125 397.26373291015625 446.183868408203125 474.12353515625 502.5140380859375 531.38519287109375 543.9190673828125 530.96368408203125 514.6043701171875 528.05133056640625 548.5897216796875 527.74346923828125 487.194427490234375 475.31378173828125 490.14508056640625 499.7132568359375 484.85784912109375 466.01531982421875 467.2352294921875 474.44244384765625 465.927093505859375 446.76495361328125 435.592742919921875 430.826629638671875 427.757781982421875 422.544586181640625 415.244842529296875 403.91412353515625 386.06494140625 374.2886962890625 362.34832763671875 370.696319580078125 365.952728271484375 329.51129150390625 296.04315185546875 271.87457275390625 253.5302886962890625 243.09033203125 239.0084228515625 234.9501495361328125 225.8099517822265625 213.758453369140625 204.2163543701171875 206.23248291015625 215.1129302978515625 220.844940185546875 233.47064208984375 237.16827392578125 240.0566253662109375 253.382049560546875 257.017333984375 265.705535888671875 314.6082763671875 377.467864990234375 439.084381103515625 483.7249755859375 527.33416748046875 570.2684326171875 579.437744140625 559.63299560546875 541.8486328125 524.9190673828125 514.943603515625 517.90020751953125 519.6597900390625 508.217987060546875 511.92767333984375 509.5328369140625 500.133941650390625 512.76568603515625 542.2584228515625 580.2984619140625 612.63189697265625 639.6441650390625 660.30267333984375 670.20574951171875 640.70086669921875 622.919189453125 693.79266357421875 789.27447509765625 839.565185546875 872.3306884765625 898.8369140625 899.6129150390625 887.1727294921875 882.219482421875 890.31463623046875 900.4912109375 909.15850830078125 912.05328369140625 897.39825439453125 855.42681884765625 793.2265625 790.94293212890625 816.6395263671875 814.720458984375 790.98529052734375 751.642333984375 703.42352294921875 662.32769775390625 629.79974365234375 594.9078369140625 581.5556640625 617.2052001953125 665.8642578125 690.13189697265625 
798.68133544921875 852.7830810546875 908.882568359375 926.3343505859375 926.454345703125 948.57696533203125 977.9290771484375 961.33404541015625 925.28973388671875 893.3148193359375 863.7325439453125 828.04486083984375 775.77288818359375 713.1776123046875 658.404052734375 620.44122314453125 588.44403076171875 556.311767578125 517.31280517578125 473.316558837890625 430.1351318359375 387.97076416015625 347.385009765625 315.7060546875 293.75103759765625 279.032257080078125 265.733062744140625 252.9930572509765625 233.14984130859375 208.7016448974609375 202.1363525390625 199.1856842041015625 187.8899383544921875 176.3736114501953125 166.4658966064453125 157.8855743408203125 149.79168701171875 141.05487060546875 148.5448760986328125 174.0976715087890625 199.9639434814453125 226.569366455078125 266.08245849609375 290.788604736328125 320.421844482421875 350.821319580078125 361.209991455078125 355.892791748046875 333.53424072265625 303.88519287109375 272.13104248046875 228.6291961669921875 189.517303466796875 160.6322021484375 164.3149871826171875 201.1021270751953125 238.7584381103515625 259.259246826171875 264.8175048828125 275.47406005859375 286.799285888671875 294.401336669921875 291.783721923828125 271.980133056640625 283.51629638671875 326.726318359375 373.75665283203125 414.86773681640625 436.655975341796875 428.17523193359375 435.954071044921875 482.39385986328125 523.56939697265625 554.08099365234375 576.9395751953125 589.1007080078125 576.0174560546875 557.81927490234375 565.60467529296875 569.76611328125 535.44061279296875 498.90863037109375 504.908660888671875 524.53546142578125 543.34088134765625 532.91180419921875 518.71453857421875 516.51507568359375 510.472625732421875 490.7252197265625 469.40191650390625 459.74884033203125 461.5223388671875 469.165374755859375 472.3697509765625 465.29241943359375 438.8660888671875 407.47802734375 391.8687744140625 391.095794677734375 411.36663818359375 414.0885009765625 373.562103271484375 325.0439453125 292.5274658203125 274.8441162109375 262.47637939453125 254.34716796875 252.7136688232421875 244.9247589111328125 235.7846221923828125 228.2777099609375 230.1757965087890625 237.6770172119140625 240.75665283203125 253.69696044921875 255.8786773681640625 260.855377197265625 276.298370361328125 288.217254638671875 292.42938232421875 326.242279052734375 387.5338134765625 449.531524658203125 496.60711669921875 543.2828369140625 594.447998046875 625.18060302734375 615.1436767578125 594.87933349609375 575.35076904296875 557.62860107421875 543.2496337890625 531.750732421875 524.5587158203125 536.2635498046875 544.643310546875 551.28033447265625 569.4764404296875 594.6776123046875 624.21588134765625 663.1632080078125 699.95928955078125 723.61444091796875 740.2572021484375 716.965576171875 677.20782470703125 729.3291015625 812.468017578125 863.85833740234375 905.32861328125 935.035400390625 934.65460205078125 924.7076416015625 913.659423828125 911.22686767578125 915.9495849609375 928.1673583984375 927.397705078125 902.34619140625 857.3704833984375 805.4613037109375 810.73260498046875 839.60980224609375 843.23565673828125 822.739013671875 780.76837158203125 731.84619140625 696.10711669921875 667.2222900390625 629.77783203125 603.25714111328125 640.82733154296875 698.55474853515625 740.1480712890625 
848.31585693359375 901.04296875 963.719482421875 998.42437744140625 989.08941650390625 993.569091796875 1008.77618408203125 985.24462890625 947.68975830078125 913.3236083984375 882.25604248046875 847.2340087890625 798.01397705078125 730.63763427734375 672.46746826171875 631.03546142578125 594.134521484375 560.65771484375 527.10174560546875 486.848785400390625 443.7967529296875 399.882080078125 358.156768798828125 326.449127197265625 300.313720703125 280.335296630859375 267.8636474609375 257.052825927734375 239.206085205078125 215.63043212890625 208.932281494140625 201.79205322265625 198.3557586669921875 186.259124755859375 173.00299072265625 163.1990966796875 154.4930572509765625 145.322052001953125 141.3202667236328125 148.7752532958984375 167.324981689453125 195.520751953125 238.554168701171875 275.146484375 304.8179931640625 336.566741943359375 353.643035888671875 343.65814208984375 308.61944580078125 267.61480712890625 229.71875 190.1159515380859375 165.51641845703125 171.3859405517578125 205.77215576171875 245.4335174560546875 267.855010986328125 276.953033447265625 282.897216796875 292.81396484375 302.606964111328125 315.60601806640625 325.228759765625 315.983673095703125 307.635223388671875 325.6419677734375 368.86822509765625 423.2867431640625 463.03424072265625 479.702056884765625 489.5220947265625 528.1705322265625 575.8433837890625 612.1627197265625 633.4464111328125 643.51806640625 632.5006103515625 617.775146484375 612.20574951171875 593.1839599609375 548.368408203125 522.21759033203125 541.30865478515625 564.80633544921875 589.7279052734375 600.14349365234375 592.34344482421875 582.45672607421875 560.51971435546875 529.21173095703125 501.570281982421875 488.7928466796875 492.812255859375 508.037811279296875 511.892852783203125 497.570648193359375 460.823577880859375 426.64599609375 412.113494873046875 423.621337890625 447.490875244140625 450.19757080078125 409.023345947265625 352.92523193359375 316.723846435546875 298.356903076171875 287.8565673828125 278.551239013671875 270.946807861328125 262.413116455078125 254.63751220703125 251.465057373046875 251.6011962890625 256.544189453125 256.792816162109375 266.505157470703125 280.810272216796875 299.077362060546875 313.61761474609375 331.0675048828125 337.710296630859375 336.101654052734375 379.245758056640625 440.514678955078125 497.148468017578125 546.76666259765625 611.6397705078125 662.17626953125 670.56903076171875 658.598388671875 637.69793701171875 609.02508544921875 575.65216064453125 546.0096435546875 545.0645751953125 573.05535888671875 592.53533935546875 604.22528076171875 625.81256103515625 655.67413330078125 688.92413330078125 720.1031494140625 756.6815185546875 785.494873046875 799.5306396484375 767.78082275390625 725.62841796875 764.74652099609375 840.7484130859375 891.27752685546875 935.028564453125 964.9486083984375 965.53155517578125 957.3599853515625 948.1953125 939.697998046875 938.02734375 941.01666259765625 934.69647216796875 905.0216064453125 857.950927734375 823.75738525390625 830.3968505859375 855.76153564453125 868.13995361328125 853.9599609375 822.9169921875 777.9876708984375 730.4012451171875 691.31085205078125 645.2208251953125 623.72674560546875 662.99371337890625 722.471435546875 781.8389892578125 
909.163818359375 957.4599609375 1020.155029296875 1055.3050537109375 1043.054443359375 1042.70947265625 1042.3223876953125 1012.44482421875 976.0511474609375 931.81201171875 899.3414306640625 867.5567626953125 828.19525146484375 773.389404296875 718.98773193359375 671.06536865234375 629.15777587890625 590.88037109375 557.1541748046875 518.6458740234375 475.893585205078125 423.686126708984375 372.88031005859375 334.800811767578125 306.65460205078125 284.36407470703125 268.920166015625 256.91644287109375 241.4553070068359375 224.21844482421875 217.54302978515625 212.811798095703125 217.4918365478515625 207.27972412109375 187.851165771484375 175.5977020263671875 161.856109619140625 149.7836456298828125 142.7856292724609375 142.230194091796875 147.9750823974609375 168.571502685546875 202.7529296875 243.5201416015625 280.884490966796875 319.49151611328125 341.781005859375 327.345428466796875 281.899810791015625 239.316375732421875 197.1537628173828125 162.7331085205078125 171.5752105712890625 208.096588134765625 242.1280517578125 265.666412353515625 276.55694580078125 285.07183837890625 295.56414794921875 307.2900390625 315.732757568359375 326.24298095703125 343.03204345703125 357.0396728515625 347.6011962890625 345.26837158203125 354.137908935546875 390.087371826171875 438.125152587890625 482.911407470703125 521.18218994140625 565.95062255859375 617.26806640625 658.9053955078125 689.33465576171875 704.37066650390625 694.332275390625 681.82135009765625 658.2032470703125 618.7969970703125 567.365234375 546.6854248046875 573.85382080078125 611.541259765625 645.30169677734375 671.71875 672.55853271484375 651.07464599609375 615.4949951171875 579.89764404296875 545.08221435546875 527.676513671875 531.2628173828125 540.874755859375 539.3009033203125 521.6739501953125 482.35516357421875 449.363494873046875 437.7943115234375 448.717071533203125 472.750701904296875 473.7340087890625 436.99530029296875 386.85614013671875 351.223968505859375 332.489013671875 320.1697998046875 304.52813720703125 297.555633544921875 286.532928466796875 272.66168212890625 274.39129638671875 275.835174560546875 279.47076416015625 282.64306640625 292.03973388671875 308.963470458984375 333.4208984375 344.568115234375 360.83251953125 390.604644775390625 372.320709228515625 384.982696533203125 447.43402099609375 510.97509765625 574.11419677734375 646.852783203125 699.33544921875 721.6854248046875 712.97894287109375 686.8714599609375 644.23388671875 592.75592041015625 558.65838623046875 569.14599609375 610.14312744140625 640.975341796875 660.78076171875 692.72528076171875 727.79742431640625 755.4716796875 777.49420166015625 811.31134033203125 842.07159423828125 852.93109130859375 819.65869140625 766.99163818359375 786.9007568359375 857.0767822265625 911.7232666015625 953.37103271484375 980.93695068359375 987.41448974609375 981.21002197265625 976.81170654296875 971.15399169921875 966.444091796875 954.91455078125 934.55029296875 899.16888427734375 859.79052734375 856.94537353515625 867.752685546875 874.89678955078125 885.96484375 882.24853515625 858.9129638671875 815.38372802734375 759.30706787109375 704.5638427734375 662.5362548828125 658.4127197265625 696.6168212890625 750.701904296875 812.59014892578125 
978.4046630859375 1029.3807373046875 1086.2244873046875 1104.7957763671875 1092.1014404296875 1089.1627197265625 1071.81494140625 1036.390869140625 997.18084716796875 950.1888427734375 916.85595703125 890.68890380859375 855.359619140625 818.26385498046875 776.63970947265625 738.5638427734375 691.4521484375 642.30242919921875 600.5128173828125 552.52569580078125 495.729522705078125 439.148834228515625 391.690277099609375 351.5721435546875 317.5233154296875 294.024505615234375 276.675201416015625 260.805755615234375 245.7841644287109375 233.5988922119140625 227.78936767578125 230.94677734375 234.0566864013671875 234.8787841796875 217.175048828125 194.1947784423828125 172.3379669189453125 154.344146728515625 146.7263031005859375 142.8176116943359375 139.6053619384765625 149.2791900634765625 173.0880889892578125 206.0878753662109375 249.744171142578125 296.200347900390625 324.227081298828125 301.25518798828125 257.30908203125 219.7628173828125 178.382293701171875 156.5203704833984375 188.4700164794921875 227.8986053466796875 257.7337646484375 273.28985595703125 278.810943603515625 288.358917236328125 302.347137451171875 324.066436767578125 338.5045166015625 344.080780029296875 358.330230712890625 380.557861328125 391.09869384765625 392.354827880859375 385.88983154296875 383.557220458984375 407.411956787109375 455.56671142578125 508.743804931640625 568.00537109375 627.74456787109375 679.0009765625 724.15936279296875 760.07879638671875 758.28228759765625 737.78607177734375 701.909912109375 646.9052734375 590.30242919921875 573.1400146484375 603.662841796875 653.3194580078125 701.757568359375 736.6639404296875 743.06787109375 716.60430908203125 674.79742431640625 627.10455322265625 585.371826171875 573.2344970703125 580.5850830078125 573.93780517578125 558.5191650390625 536.99664306640625 496.70147705078125 470.588714599609375 467.5550537109375 478.122528076171875 500.985809326171875 507.771148681640625 481.9180908203125 442.523834228515625 402.771453857421875 375.497802734375 357.07147216796875 334.5625 330.7117919921875 325.42236328125 320.056396484375 311.07330322265625 307.7923583984375 316.277313232421875 329.838897705078125 340.172760009765625 336.903717041015625 343.1650390625 363.8974609375 392.132354736328125 429.07037353515625 412.42999267578125 406.918060302734375 466.319976806640625 533.5911865234375 608.2099609375 680.63836669921875 744.90533447265625 772.7625732421875 755.148193359375 712.70159912109375 657.69189453125 600.06207275390625 573.05804443359375 596.3341064453125 635.5399169921875 677.05487060546875 710.87652587890625 749.57452392578125 787.34381103515625 811.96563720703125 828.283447265625 854.83428955078125 885.1475830078125 892.225830078125 861.56182861328125 807.4146728515625 799.434326171875 862.39398193359375 923.8895263671875 966.541015625 995.91534423828125 1011.5628662109375 1012.463623046875 1007.88165283203125 1000.3690185546875 990.01312255859375 972.84613037109375 941.96038818359375 900.83746337890625 879.80987548828125 894.44134521484375 907.25640869140625 907.2811279296875 917.7322998046875 912.649658203125 880.45166015625 825.8670654296875 769.92584228515625 722.2703857421875 691.03271484375 700.729736328125 739.5113525390625 792.28985595703125 846.0537109375 
1031.56298828125 1087.1812744140625 1138.5001220703125 1153.61962890625 1137.7115478515625 1121.8607177734375 1093.83642578125 1059.9923095703125 1022.57110595703125 980.35748291015625 943.7139892578125 916.1351318359375 884.379638671875 852.871826171875 821.0601806640625 786.4281005859375 742.23565673828125 692.06689453125 637.429931640625 574.5361328125 512.39312744140625 455.555206298828125 410.0162353515625 364.8221435546875 331.002349853515625 307.765350341796875 285.583709716796875 264.6923828125 250.257904052734375 243.917510986328125 242.2487945556640625 248.6461639404296875 250.8071441650390625 255.13275146484375 249.881927490234375 222.46331787109375 189.3600616455078125 165.7966766357421875 150.2750244140625 144.8480987548828125 140.9485931396484375 141.2177276611328125 151.2800140380859375 176.2970123291015625 213.5245819091796875 261.060150146484375 296.417144775390625 274.931671142578125 236.960906982421875 206.3057098388671875 168.9502105712890625 161.660980224609375 207.2190093994140625 243.4494171142578125 268.055328369140625 277.6444091796875 283.176788330078125 291.74737548828125 322.08270263671875 364.679718017578125 380.429229736328125 378.18603515625 383.684814453125 397.386199951171875 429.191314697265625 452.762664794921875 444.36187744140625 428.541290283203125 418.871063232421875 436.021087646484375 479.62762451171875 540.1165771484375 603.62847900390625 655.3526611328125 708.31842041015625 763.936767578125 795.12506103515625 779.29437255859375 730.861328125 670.9520263671875 615.19305419921875 600.05859375 638.30328369140625 689.98248291015625 746.7210693359375 794.28466796875 806.8333740234375 776.958251953125 722.8258056640625 673.02117919921875 644.8992919921875 635.90087890625 639.0556640625 625.5225830078125 589.44427490234375 548.86859130859375 513.21771240234375 505.386505126953125 503.725921630859375 517.4998779296875 537.60357666015625 547.59197998046875 534.5667724609375 504.539215087890625 467.72784423828125 437.584564208984375 410.728973388671875 365.14910888671875 368.618560791015625 392.286285400390625 395.0731201171875 365.500640869140625 344.763580322265625 364.259307861328125 394.33056640625 396.858734130859375 380.736175537109375 369.195343017578125 385.61053466796875 433.220306396484375 473.381317138671875 454.383392333984375 423.88525390625 463.8232421875 536.78179931640625 618.8626708984375 704.3702392578125 777.10711669921875 797.29669189453125 774.97601318359375 726.658447265625 667.36102294921875 609.6705322265625 594.901123046875 625.54620361328125 651.23040771484375 695.399658203125 742.1988525390625 778.97906494140625 813.19287109375 839.86016845703125 859.547119140625 884.86871337890625 910.5743408203125 920.99139404296875 901.64349365234375 851.890380859375 817.0447998046875 852.93572998046875 916.56146240234375 966.48077392578125 1001.0906982421875 1020.23138427734375 1030.486328125 1029.8575439453125 1023.09698486328125 1011.88189697265625 991.7034912109375 953.44110107421875 918.96942138671875 917.66888427734375 931.0709228515625 938.90447998046875 943.3154296875 958.1641845703125 948.177490234375 900.17181396484375 837.34765625 786.85150146484375 750.282958984375 725.3712158203125 744.2587890625 780.78143310546875 835.33465576171875 892.51129150390625 
1072.383544921875 1116.6041259765625 1162.7177734375 1186.6680908203125 1176.8447265625 1150.2652587890625 1117.9627685546875 1084.5660400390625 1056.212158203125 1019.93560791015625 979.435546875 940.955078125 909.86151123046875 880.1044921875 850.40716552734375 819.1072998046875 780.4676513671875 725.77386474609375 665.69390869140625 597.07781982421875 530.14447021484375 475.237152099609375 431.816070556640625 388.52056884765625 355.123626708984375 329.048126220703125 298.56610107421875 275.699462890625 258.658721923828125 253.03485107421875 257.203704833984375 258.11065673828125 257.543121337890625 257.253387451171875 258.55706787109375 236.440765380859375 199.8444061279296875 184.4202423095703125 164.2006072998046875 149.1526031494140625 144.5066986083984375 142.010223388671875 144.106048583984375 158.5749053955078125 186.31927490234375 223.885589599609375 262.883819580078125 250.6986541748046875 222.84613037109375 196.314727783203125 161.8608856201171875 174.8006134033203125 223.957855224609375 257.04937744140625 275.2576904296875 281.404144287109375 289.82659912109375 307.5626220703125 348.693359375 397.3428955078125 417.888427734375 422.125030517578125 428.2769775390625 432.599853515625 453.28179931640625 492.6756591796875 502.62939453125 488.14532470703125 471.959136962890625 467.12939453125 476.32904052734375 511.282958984375 567.44488525390625 622.5963134765625 679.38427734375 740.42706298828125 795.7060546875 805.46075439453125 758.8463134765625 701.88397216796875 650.866943359375 622.4661865234375 658.33099365234375 725.5462646484375 790.06982421875 843.8026123046875 859.0328369140625 817.58282470703125 766.8782958984375 736.35003662109375 716.48321533203125 706.1671142578125 705.47998046875 675.7933349609375 618.89422607421875 564.0443115234375 543.97320556640625 554.3623046875 553.58990478515625 566.43756103515625 580.992919921875 588.60821533203125 578.7061767578125 555.1912841796875 526.71136474609375 491.53411865234375 445.23394775390625 388.167877197265625 409.583282470703125 456.101165771484375 466.410797119140625 429.7874755859375 386.44927978515625 401.993865966796875 445.89581298828125 451.74658203125 429.747650146484375 398.314422607421875 419.4227294921875 483.399383544921875 529.53448486328125 512.0826416015625 462.24517822265625 461.994476318359375 519.6396484375 608.8162841796875 709.6490478515625 776.0010986328125 799.02227783203125 783.97979736328125 738.0953369140625 679.37786865234375 625.3338623046875 612.51837158203125 650.65716552734375 683.72113037109375 715.78582763671875 755.555908203125 791.44482421875 819.011474609375 845.69732666015625 872.4200439453125 904.13433837890625 928.862060546875 939.81024169921875 935.4627685546875 903.7947998046875 854.4481201171875 848.15045166015625 900.62091064453125 958.60870361328125 1004.06195068359375 1025.788330078125 1037.6146240234375 1042.859375 1041.967041015625 1031.8575439453125 1007.72625732421875 966.8062744140625 954.7244873046875 970.0450439453125 980.12322998046875 978.08294677734375 978.24810791015625 988.97760009765625 974.870361328125 921.91815185546875 857.052001953125 812.0084228515625 779.3636474609375 756.94134521484375 777.94244384765625 812.9273681640625 866.0313720703125 935.75927734375 
1105.601318359375 1137.851318359375 1176.7850341796875 1201.062255859375 1198.49755859375 1169.1318359375 1134.2708740234375 1101.8741455078125 1077.4324951171875 1051.8529052734375 1017.13531494140625 972.917724609375 933.806884765625 903.45947265625 872.55169677734375 841.13226318359375 807.51593017578125 757.6805419921875 692.171875 626.457763671875 565.1685791015625 511.6480712890625 464.83111572265625 421.9652099609375 387.86138916015625 359.580841064453125 321.573883056640625 292.46002197265625 270.99322509765625 263.6429443359375 267.87835693359375 264.274017333984375 260.11627197265625 254.7276153564453125 255.484375 242.84893798828125 204.9250640869140625 190.781585693359375 181.906036376953125 158.975830078125 147.7292327880859375 142.48504638671875 141.8972930908203125 147.6069183349609375 169.4876556396484375 194.626678466796875 228.199951171875 230.436004638671875 208.2564849853515625 184.4606170654296875 162.6531982421875 192.5604705810546875 231.3190155029296875 261.283599853515625 278.687530517578125 288.763427734375 303.909515380859375 328.25360107421875 367.812652587890625 412.75299072265625 436.3875732421875 454.213714599609375 471.620880126953125 486.696319580078125 503.23529052734375 533.07257080078125 558.034912109375 552.34783935546875 537.62939453125 529.20013427734375 516.530029296875 514.1195068359375 545.209228515625 601.490966796875 667.01190185546875 737.87799072265625 801.75567626953125 829.07769775390625 793.06549072265625 735.43475341796875 691.9825439453125 659.41748046875 667.67681884765625 731.04571533203125 802.52899169921875 868.51251220703125 890.750732421875 859.92974853515625 833.75244140625 816.29931640625 795.32269287109375 777.3077392578125 756.47540283203125 702.35150146484375 636.12689208984375 585.41131591796875 587.3780517578125 615.92791748046875 614.7027587890625 621.7630615234375 636.95147705078125 643.34521484375 632.77386474609375 605.04473876953125 566.47430419921875 502.4609375 439.6259765625 406.84735107421875 442.978668212890625 496.068267822265625 515.410888671875 478.54205322265625 431.754791259765625 443.490753173828125 490.81280517578125 500.089080810546875 464.39678955078125 425.33819580078125 441.065887451171875 501.00244140625 561.78765869140625 573.7977294921875 531.241943359375 499.893463134765625 516.75823974609375 600.47979736328125 690.29998779296875 755.30047607421875 786.1954345703125 783.285400390625 751.1185302734375 703.92059326171875 658.7850341796875 638.519775390625 654.337158203125 693.53271484375 730.4205322265625 768.46063232421875 806.37457275390625 831.6715087890625 860.47509765625 896.427978515625 932.2393798828125 958.6490478515625 971.510009765625 972.8282470703125 949.1396484375 897.41925048828125 868.55804443359375 909.32354736328125 971.62530517578125 1021.5914306640625 1047.416748046875 1056.8983154296875 1059.9376220703125 1060.7420654296875 1053.9630126953125 1022.0926513671875 985.6099853515625 998.07281494140625 1021.0362548828125 1022.235107421875 1014.496337890625 1013.381591796875 1018.4228515625 1000.57867431640625 943.554443359375 886.6240234375 855.6695556640625 819.6279296875 795.5067138671875 818.91180419921875 846.98065185546875 888.77679443359375 951.098876953125 
1138.2484130859375 1154.1260986328125 1170.9681396484375 1185.9033203125 1192.2427978515625 1178.712890625 1150.5279541015625 1120.100341796875 1088.6761474609375 1065.024658203125 1044.492919921875 1011.3072509765625 963.6536865234375 924.38995361328125 894.13800048828125 860.111083984375 825.83441162109375 784.655517578125 734.233154296875 675.74444580078125 621.17401123046875 568.434814453125 512.87152099609375 455.39056396484375 410.448150634765625 378.641876220703125 342.315887451171875 307.644622802734375 285.553558349609375 279.777252197265625 276.422637939453125 269.350372314453125 258.689727783203125 252.348114013671875 251.8659515380859375 249.7840423583984375 221.29437255859375 196.73077392578125 191.12139892578125 174.4279327392578125 152.0988006591796875 144.968353271484375 140.6880035400390625 143.7391510009765625 156.932373046875 176.0644683837890625 199.4394683837890625 212.2838287353515625 197.0784912109375 173.8581695556640625 167.537689208984375 206.4055938720703125 236.1312103271484375 264.69403076171875 284.17645263671875 299.064056396484375 315.119384765625 343.235595703125 384.586944580078125 424.747589111328125 446.418975830078125 467.8011474609375 496.090484619140625 531.3759765625 561.8887939453125 591.33978271484375 619.19097900390625 621.99224853515625 610.70831298828125 598.4012451171875 580.53155517578125 558.82757568359375 560.83099365234375 604.50018310546875 674.72552490234375 752.52642822265625 821.74603271484375 855.2977294921875 821.9759521484375 767.76910400390625 738.8905029296875 709.6285400390625 695.13336181640625 740.8619384765625 807.378662109375 875.841552734375 920.73016357421875 920.09783935546875 908.42779541015625 897.21697998046875 872.827392578125 829.64837646484375 777.739501953125 715.8319091796875 654.76123046875 621.72857666015625 638.16607666015625 669.0428466796875 671.51654052734375 680.8748779296875 696.86474609375 706.21563720703125 687.7545166015625 641.9273681640625 584.32470703125 505.665863037109375 440.228729248046875 433.972320556640625 482.0284423828125 530.789306640625 551.91864013671875 515.74359130859375 474.164520263671875 497.964202880859375 545.00799560546875 547.09857177734375 503.54248046875 458.41070556640625 471.3272705078125 502.96783447265625 544.718505859375 590.80255126953125 593.25689697265625 577.46173095703125 550.25714111328125 583.039794921875 652.87261962890625 721.66729736328125 765.30645751953125 773.26019287109375 756.578125 723.6346435546875 688.798095703125 674.71844482421875 664.94171142578125 690.10931396484375 731.7764892578125 773.37091064453125 815.05450439453125 845.1693115234375 877.025634765625 910.34991455078125 947.86114501953125 986.84326171875 1017.77960205078125 1022.938720703125 997.11566162109375 944.6165771484375 904.400390625 936.58197021484375 996.81719970703125 1044.251953125 1075.192138671875 1086.3243408203125 1087.160400390625 1084.5765380859375 1073.9884033203125 1039.9525146484375 1003.9285888671875 1025.019775390625 1051.3746337890625 1051.3145751953125 1050.7615966796875 1043.9788818359375 1044.8961181640625 1030.1461181640625 979.55230712890625 931.81134033203125 908.7147216796875 864.81976318359375 841.27703857421875 870.03607177734375 903.33544921875 927.5223388671875 963.42486572265625 
1156.2532958984375 1144.8876953125 1136.997314453125 1143.1893310546875 1156.3214111328125 1162.725830078125 1153.19140625 1129.019287109375 1099.7547607421875 1069.6953125 1046.843505859375 1021.90704345703125 982.49151611328125 936.75457763671875 896.2110595703125 859.28009033203125 823.5029296875 781.77130126953125 740.95489501953125 698.02099609375 655.1759033203125 605.0521240234375 550.46429443359375 489.345550537109375 431.957977294921875 387.9061279296875 348.3076171875 313.262664794921875 299.77520751953125 292.124267578125 279.57244873046875 269.66546630859375 259.399261474609375 253.3016510009765625 250.7195281982421875 251.6703948974609375 241.794342041015625 212.7608184814453125 194.474884033203125 183.520538330078125 161.0225067138671875 149.7040863037109375 141.7953033447265625 139.523101806640625 145.93048095703125 166.089599609375 185.739898681640625 195.307281494140625 188.946044921875 166.72686767578125 173.5109710693359375 213.2256622314453125 242.7460174560546875 274.040771484375 294.2545166015625 306.864349365234375 323.42083740234375 357.315643310546875 398.11199951171875 431.85345458984375 453.96258544921875 477.1754150390625 506.740753173828125 546.73272705078125 593.56719970703125 640.02874755859375 681.5709228515625 700.43292236328125 691.50372314453125 672.82379150390625 646.20892333984375 620.21197509765625 613.488037109375 630.35894775390625 680.37774658203125 756.078125 830.69683837890625 876.68988037109375 850.90313720703125 804.8153076171875 788.8082275390625 760.9830322265625 737.65716552734375 768.176025390625 826.33502197265625 896.05047607421875 957.2086181640625 989.26361083984375 988.03741455078125 966.80816650390625 921.83831787109375 865.95330810546875 805.3631591796875 743.48046875 690.72430419921875 681.56170654296875 699.4920654296875 721.92547607421875 731.33837890625 739.39630126953125 752.22186279296875 759.4945068359375 725.26849365234375 660.666259765625 586.95294189453125 512.1370849609375 458.2906494140625 469.724273681640625 523.39300537109375 574.53271484375 597.18536376953125 564.92059326171875 521.2047119140625 540.36669921875 595.36187744140625 597.06329345703125 544.67181396484375 497.2515869140625 518.50103759765625 528.40435791015625 549.03912353515625 607.17730712890625 642.05517578125 643.57757568359375 614.25152587890625 594.64605712890625 636.41766357421875 700.46630859375 744.8167724609375 755.19183349609375 746.0872802734375 721.60504150390625 696.20550537109375 687.2244873046875 677.235107421875 688.66229248046875 723.778564453125 765.2259521484375 811.8336181640625 850.95709228515625 881.14996337890625 911.52886962890625 947.1197509765625 991.30523681640625 1033.714599609375 1052.4720458984375 1038.884765625 1001.13848876953125 951.79644775390625 946.62738037109375 993.54620361328125 1049.835693359375 1087.995849609375 1106.844482421875 1115.0111083984375 1116.3807373046875 1104.2030029296875 1070.7481689453125 1031.7342529296875 1038.9488525390625 1063.51220703125 1068.25634765625 1068.188232421875 1059.19384765625 1058.3779296875 1051.2662353515625 1016.9898681640625 984.02294921875 956.31005859375 908.472900390625 884.2052001953125 920.11370849609375 965.6407470703125 984.62481689453125 1000.9857177734375 
1149.314453125 1121.69189453125 1091.7293701171875 1083.6624755859375 1098.9339599609375 1117.0452880859375 1123.2825927734375 1117.163330078125 1091.8062744140625 1060.0479736328125 1023.84051513671875 994.9417724609375 972.93609619140625 938.1173095703125 888.95367431640625 838.0743408203125 796.83477783203125 748.24163818359375 704.92376708984375 671.021728515625 635.65625 587.998291015625 537.55828857421875 493.6810302734375 449.400604248046875 394.986846923828125 344.768798828125 323.72552490234375 324.730072021484375 314.03826904296875 288.678070068359375 270.186614990234375 259.600006103515625 252.5547943115234375 248.4826507568359375 248.547821044921875 251.49945068359375 240.551422119140625 210.5623626708984375 186.5609893798828125 164.1932373046875 151.9325103759765625 143.0053253173828125 137.434783935546875 139.6352386474609375 156.5226898193359375 178.691650390625 186.8957672119140625 181.6784210205078125 161.6527099609375 181.0045928955078125 218.4074249267578125 248.994354248046875 278.836395263671875 301.02130126953125 313.183746337890625 330.520660400390625 370.3878173828125 406.9453125 433.716796875 458.208251953125 483.779632568359375 514.044677734375 555.388916015625 605.08819580078125 656.0906982421875 707.241455078125 754.17572021484375 777.119140625 752.42547607421875 711.3868408203125 682.0609130859375 680.80419921875 695.62628173828125 713.8380126953125 761.03546142578125 833.43170166015625 894.0943603515625 884.28851318359375 851.24212646484375 835.0611572265625 809.7830810546875 794.59417724609375 808.2371826171875 855.5201416015625 922.68780517578125 994.30859375 1053.914794921875 1060.36767578125 1019.79107666015625 966.0750732421875 902.81207275390625 843.5667724609375 788.4530029296875 738.10382080078125 740.1541748046875 769.54644775390625 786.3101806640625 797.8082275390625 801.09393310546875 804.05010986328125 781.50872802734375 732.1278076171875 665.27850341796875 591.32659912109375 520.8363037109375 478.749267578125 500.869537353515625 556.3743896484375 612.484375 643.80914306640625 631.5797119140625 588.87103271484375 587.00201416015625 641.70111083984375 644.17547607421875 587.91412353515625 542.53448486328125 566.809814453125 567.4361572265625 584.0194091796875 645.78851318359375 690.4744873046875 686.01123046875 658.36181640625 627.07318115234375 649.0765380859375 689.17034912109375 719.4232177734375 730.70574951171875 727.07342529296875 712.489501953125 697.68646240234375 698.29547119140625 701.29595947265625 695.889892578125 715.8505859375 751.93182373046875 795.5582275390625 840.05914306640625 877.06884765625 913.1578369140625 950.28106689453125 991.16998291015625 1029.7833251953125 1057.4566650390625 1057.3240966796875 1044.158935546875 1015.85784912109375 985.65521240234375 991.7696533203125 1048.7633056640625 1097.4947509765625 1122.8846435546875 1136.818115234375 1145.0430908203125 1138.4796142578125 1104.42724609375 1062.8740234375 1057.948974609375 1071.5059814453125 1074.669677734375 1072.5784912109375 1066.2313232421875 1062.974365234375 1057.5555419921875 1040.486083984375 1028.3297119140625 1003.68206787109375 956.249755859375 934.8262939453125 965.31463623046875 1006.29779052734375 1029.4468994140625 1045.1278076171875 
1134.658203125 1104.7615966796875 1060.2928466796875 1031.174072265625 1037.03857421875 1054.9881591796875 1073.9080810546875 1088.791015625 1065.7496337890625 1032.5274658203125 987.76446533203125 948.5623779296875 937.4049072265625 923.99810791015625 872.8475341796875 816.55718994140625 758.0948486328125 697.98736572265625 647.89697265625 615.0330810546875 575.08343505859375 535.02520751953125 494.854461669921875 466.26318359375 435.805389404296875 393.666900634765625 356.659088134765625 360.797271728515625 362.951995849609375 337.867095947265625 298.410186767578125 273.055694580078125 261.01055908203125 254.0187530517578125 249.5149993896484375 246.976898193359375 247.45098876953125 250.6157073974609375 233.31610107421875 207.4370269775390625 176.043548583984375 155.2242279052734375 146.0369110107421875 139.4864044189453125 140.260467529296875 149.4928741455078125 171.340118408203125 181.0849456787109375 170.2215118408203125 160.3548736572265625 192.1195526123046875 226.8425445556640625 253.2188262939453125 276.4727783203125 297.9066162109375 315.977294921875 338.848297119140625 376.952667236328125 411.52435302734375 434.27880859375 459.031158447265625 486.763519287109375 518.53582763671875 559.0755615234375 608.081298828125 657.82672119140625 704.0140380859375 756.84912109375 805.9288330078125 809.023193359375 768.84027099609375 746.2435302734375 752.94976806640625 768.084716796875 777.62164306640625 792.14422607421875 845.13616943359375 912.9697265625 925.96331787109375 904.76800537109375 879.8787841796875 870.72625732421875 868.4918212890625 856.2947998046875 890.4261474609375 955.5257568359375 1022.8414306640625 1088.0166015625 1109.0535888671875 1065.6990966796875 1001.4896240234375 938.59234619140625 887.0538330078125 830.66851806640625 782.4090576171875 784.06243896484375 824.04217529296875 855.24359130859375 871.5860595703125 865.30804443359375 838.41656494140625 787.19049072265625 730.49591064453125 675.76220703125 608.1851806640625 543.00341796875 505.747406005859375 525.250244140625 582.47259521484375 642.70245361328125 687.66229248046875 696.471435546875 669.3057861328125 645.46124267578125 683.7884521484375 685.7320556640625 616.55657958984375 574.131591796875 605.93951416015625 610.07855224609375 628.118408203125 691.40924072265625 730.49481201171875 722.9886474609375 688.7554931640625 655.714599609375 652.2974853515625 672.3095703125 700.10150146484375 717.9613037109375 722.46282958984375 723.3519287109375 720.38922119140625 725.2650146484375 734.180419921875 732.51629638671875 726.679443359375 742.35113525390625 779.184814453125 830.23114013671875 876.587890625 917.56390380859375 954.30377197265625 992.00775146484375 1026.15087890625 1055.5003662109375 1068.3048095703125 1072.60009765625 1066.811279296875 1038.5894775390625 1022.6414794921875 1055.572998046875 1108.054931640625 1140.44189453125 1155.8248291015625 1167.63916015625 1163.504638671875 1124.670654296875 1091.71044921875 1089.6876220703125 1092.306396484375 1096.9132080078125 1094.8536376953125 1087.4166259765625 1076.7978515625 1067.322998046875 1057.2196044921875 1052.761474609375 1039.976806640625 1004.43951416015625 988.056396484375 1004.20257568359375 1030.3209228515625 1058.8863525390625 1084.6728515625 
1122.7513427734375 1085.7794189453125 1039.844970703125 996.14727783203125 983.75189208984375 998.4605712890625 1024.464111328125 1051.253173828125 1039.638427734375 1002.8572998046875 955.6212158203125 901.6806640625 884.98114013671875 881.528564453125 834.680419921875 782.49224853515625 718.05938720703125 647.47515869140625 589.11859130859375 552.21160888671875 521.28509521484375 518.59136962890625 509.67498779296875 493.135589599609375 447.97705078125 413.2088623046875 399.630859375 398.209747314453125 381.616607666015625 352.05865478515625 312.722015380859375 280.644866943359375 265.940155029296875 258.173126220703125 251.41119384765625 247.2656707763671875 246.062255859375 245.7452239990234375 239.533447265625 227.798126220703125 206.2662200927734375 169.7556610107421875 150.18524169921875 141.219390869140625 141.0033111572265625 147.6971435546875 166.9910125732421875 170.8261566162109375 158.4150543212890625 174.7341766357421875 209.3138427734375 235.6562652587890625 255.957427978515625 280.653350830078125 304.32904052734375 324.833984375 352.54241943359375 374.69732666015625 399.39727783203125 424.665924072265625 450.618316650390625 477.21881103515625 507.92510986328125 548.9012451171875 597.6650390625 644.1202392578125 690.61749267578125 741.52215576171875 789.60504150390625 822.58642578125 822.1451416015625 816.78009033203125 824.06646728515625 836.6495361328125 849.79046630859375 856.41973876953125 873.44244384765625 926.767578125 966.4864501953125 958.657958984375 939.37939453125 946.34381103515625 941.71533203125 908.9796142578125 929.1346435546875 988.73797607421875 1058.813232421875 1116.7342529296875 1138.7376708984375 1094.1859130859375 1032.590576171875 980.4554443359375 929.67840576171875 876.0196533203125 839.73919677734375 829.94097900390625 873.43487548828125 920.3643798828125 938.39739990234375 907.69488525390625 846.77276611328125 780.32147216796875 721.70635986328125 668.11822509765625 608.525390625 554.951416015625 540.815673828125 562.1282958984375 601.2838134765625 663.29583740234375 729.7247314453125 764.50860595703125 751.15875244140625 718.8551025390625 724.0645751953125 719.0401611328125 652.12652587890625 608.39605712890625 635.76922607421875 644.50225830078125 671.222900390625 734.7491455078125 757.01593017578125 751.3668212890625 728.92669677734375 699.04791259765625 684.4559326171875 681.0987548828125 700.07562255859375 723.855224609375 734.16815185546875 744.90460205078125 753.3292236328125 763.0980224609375 770.82391357421875 774.1231689453125 768.303955078125 755.7913818359375 767.646240234375 817.19635009765625 871.644775390625 914.27679443359375 948.6334228515625 984.7537841796875 1022.5426025390625 1061.22509765625 1083.80517578125 1097.156005859375 1101.0980224609375 1083.36669921875 1072.18212890625 1089.7962646484375 1122.7508544921875 1159.8553466796875 1182.6856689453125 1188.8289794921875 1173.34326171875 1138.503662109375 1122.960205078125 1130.6002197265625 1126.2613525390625 1131.7940673828125 1135.1795654296875 1134.0699462890625 1119.839599609375 1098.40869140625 1078.635986328125 1069.8114013671875 1057.002685546875 1036.6292724609375 1026.4625244140625 1031.4598388671875 1043.7391357421875 1074.5057373046875 1116.9759521484375 
1118.71826171875 1069.8974609375 1018.2076416015625 969.74169921875 946.06390380859375 954.26025390625 975.89031982421875 993.833984375 996.39306640625 965.238525390625 919.72137451171875 862.88885498046875 824.72308349609375 819.1546630859375 779.188232421875 730.54498291015625 668.13751220703125 604.42938232421875 557.57745361328125 547.04852294921875 569.97076416015625 595.11041259765625 584.4305419921875 556.41290283203125 504.907470703125 457.860595703125 431.523895263671875 415.242523193359375 395.297332763671875 368.2431640625 331.563751220703125 298.915252685546875 277.21234130859375 262.6141357421875 253.748443603515625 247.2079315185546875 245.392303466796875 241.3635101318359375 234.1456298828125 230.83984375 222.81292724609375 196.197235107421875 157.6511688232421875 141.6403961181640625 140.2113494873046875 146.57763671875 160.5711212158203125 159.1654510498046875 161.746917724609375 192.4637298583984375 219.3743133544921875 242.8687286376953125 263.70806884765625 288.14923095703125 313.5986328125 339.159271240234375 364.876800537109375 385.76116943359375 403.930694580078125 426.740264892578125 447.50213623046875 469.235382080078125 495.869171142578125 531.85235595703125 576.96893310546875 618.984375 664.2540283203125 712.65020751953125 755.59814453125 804.525146484375 852.81695556640625 888.87152099609375 905.65643310546875 909.8514404296875 926.41009521484375 931.76531982421875 935.4168701171875 970.65057373046875 1013.9693603515625 1021.541748046875 1013.2801513671875 1022.84490966796875 1000.1168212890625 958.97283935546875 971.47161865234375 1029.6868896484375 1098.370361328125 1159.6707763671875 1182.3973388671875 1144.3707275390625 1083.8421630859375 1021.28167724609375 967.95458984375 938.68768310546875 911.96783447265625 887.6939697265625 918.08544921875 969.65423583984375 978.56903076171875 919.3272705078125 846.91046142578125 776.38958740234375 714.4349365234375 656.831787109375 605.7423095703125 575.54522705078125 583.0301513671875 616.75946044921875 643.1632080078125 685.66943359375 758.4630126953125 815.0836181640625 819.31201171875 783.58685302734375 761.37738037109375 737.160400390625 680.871337890625 639.6951904296875 662.41412353515625 674.5042724609375 711.3988037109375 774.5250244140625 792.28594970703125 794.30694580078125 779.460693359375 749.790283203125 728.48834228515625 714.08453369140625 714.256103515625 736.9637451171875 751.63995361328125 763.6593017578125 777.7119140625 790.208740234375 798.71002197265625 806.25836181640625 809.52099609375 803.5745849609375 789.04730224609375 804.55419921875 851.54266357421875 899.98529052734375 937.15582275390625 975.72637939453125 1017.71319580078125 1062.1351318359375 1096.2850341796875 1121.105224609375 1131.8798828125 1120.5244140625 1123.61328125 1144.4786376953125 1155.4749755859375 1177.5421142578125 1195.143310546875 1200.8251953125 1187.1610107421875 1163.314697265625 1154.469482421875 1166.90087890625 1159.9967041015625 1165.8486328125 1178.0972900390625 1178.3416748046875 1161.914306640625 1134.2454833984375 1110.8157958984375 1089.1002197265625 1070.779052734375 1056.50244140625 1044.014892578125 1043.677490234375 1052.90625 1082.595458984375 1134.871826171875 
1117.90185546875 1067.8330078125 1016.75323486328125 965.07855224609375 927.173095703125 915.07086181640625 921.25396728515625 926.88720703125 935.0240478515625 916.411865234375 866.31243896484375 809.32830810546875 762.847900390625 739.9228515625 710.3603515625 670.70892333984375 624.9041748046875 589.4990234375 585.56500244140625 628.51641845703125 672.770751953125 689.3739013671875 660.86376953125 616.91656494140625 555.2154541015625 497.64178466796875 464.252166748046875 448.1673583984375 439.857086181640625 422.619903564453125 380.309173583984375 334.999542236328125 299.94775390625 274.11627197265625 261.457672119140625 254.28857421875 252.1964569091796875 246.7993011474609375 236.779693603515625 230.17034912109375 226.34967041015625 210.805023193359375 168.37835693359375 142.5155487060546875 140.098846435546875 142.7928924560546875 146.6213836669921875 152.329254150390625 178.1009063720703125 202.68023681640625 223.1395111083984375 251.9214324951171875 276.3924560546875 302.765899658203125 332.032318115234375 364.38720703125 386.706634521484375 403.565460205078125 418.182830810546875 433.889190673828125 452.36700439453125 474.88714599609375 501.242584228515625 533.444091796875 571.060791015625 602.7501220703125 640.756591796875 682.078857421875 730.16302490234375 791.6949462890625 859.09869384765625 924.8040771484375 977.9783935546875 1007.9248046875 1026.7432861328125 1017.1826171875 1011.9654541015625 1039.8221435546875 1087.659423828125 1095.05712890625 1081.22607421875 1084.8056640625 1056.6419677734375 1013.2730712890625 1013.39080810546875 1067.1690673828125 1137.506103515625 1202.347412109375 1227.388671875 1188.891357421875 1127.3533935546875 1065.7615966796875 1014.23785400390625 1006.20086669921875 982.51934814453125 951.48309326171875 975.10162353515625 1016.5230712890625 1005.28118896484375 930.5543212890625 859.47637939453125 792.16363525390625 734.7354736328125 683.03594970703125 630.09271240234375 610.1053466796875 610.22332763671875 644.0477294921875 695.120849609375 747.75732421875 802.67913818359375 852.4019775390625 881.61151123046875 858.46502685546875 814.75238037109375 760.64044189453125 704.126220703125 672.43402099609375 697.80731201171875 704.36285400390625 740.4393310546875 800.77752685546875 825.47186279296875 833.70233154296875 824.43377685546875 797.82489013671875 775.6517333984375 758.611328125 738.55377197265625 753.1033935546875 774.01190185546875 781.14276123046875 792.049560546875 808.27288818359375 826.64935302734375 838.9019775390625 846.623779296875 852.33758544921875 839.78076171875 821.5733642578125 835.67376708984375 887.33172607421875 933.23779296875 978.8875732421875 1021.726806640625 1063.958251953125 1098.1961669921875 1127.4332275390625 1147.6517333984375 1153.7392578125 1166.2822265625 1184.3565673828125 1185.6683349609375 1189.887939453125 1197.8504638671875 1207.43505859375 1207.2352294921875 1197.4315185546875 1183.6956787109375 1193.2489013671875 1198.140869140625 1207.2381591796875 1221.473876953125 1215.5509033203125 1194.6395263671875 1163.70654296875 1139.443603515625 1119.3209228515625 1096.610107421875 1081.3572998046875 1066.15576171875 1056.12890625 1060.4530029296875 1080.9971923828125 1129.4658203125 
1119.204345703125 1068.8758544921875 1016.84503173828125 970.00927734375 925.02374267578125 889.70318603515625 867.48223876953125 859.64141845703125 867.8201904296875 861.18438720703125 818.73870849609375 758.92364501953125 707.7437744140625 679.92327880859375 658.75421142578125 635.04937744140625 627.1551513671875 630.54541015625 645.4140625 697.28778076171875 739.58740234375 746.83563232421875 718.5006103515625 667.1732177734375 597.09149169921875 540.02996826171875 512.15625 497.65106201171875 495.153289794921875 488.492095947265625 452.1192626953125 385.04779052734375 326.293426513671875 295.464263916015625 278.324188232421875 269.439666748046875 259.555999755859375 248.1694183349609375 235.7292022705078125 228.3789520263671875 225.7241363525390625 216.3150634765625 175.60369873046875 144.3264617919921875 139.889892578125 138.7552032470703125 145.4431610107421875 166.9874725341796875 193.23760986328125 206.688323974609375 230.3856201171875 268.841522216796875 303.047637939453125 329.014495849609375 347.167205810546875 367.777435302734375 386.417388916015625 405.3072509765625 426.626129150390625 449.53851318359375 467.261383056640625 485.47076416015625 517.9610595703125 555.28094482421875 582.32855224609375 609.264404296875 645.64501953125 688.50164794921875 735.64801025390625 788.34344482421875 848.723876953125 916.145751953125 982.32794189453125 1043.6461181640625 1089.333984375 1099.8885498046875 1101.7427978515625 1130.4647216796875 1164.716064453125 1177.028564453125 1162.8128662109375 1149.5469970703125 1114.99267578125 1070.7247314453125 1061.081787109375 1104.4697265625 1167.8076171875 1233.13330078125 1269.3431396484375 1236.4398193359375 1175.70849609375 1118.9534912109375 1074.4881591796875 1066.164306640625 1044.4813232421875 1014.23150634765625 1039.5576171875 1060.6558837890625 1021.95977783203125 948.29010009765625 882.74859619140625 822.58843994140625 773.23565673828125 723.184326171875 671.45965576171875 650.2275390625 643.961181640625 674.8795166015625 728.828369140625 796.32000732421875 853.87432861328125 896.4102783203125 931.3397216796875 921.92181396484375 861.80950927734375 791.7423095703125 730.53216552734375 702.78057861328125 726.66290283203125 736.07208251953125 783.9073486328125 837.34454345703125 859.95318603515625 868.6536865234375 862.001220703125 840.123046875 823.29052734375 804.46160888671875 772.36297607421875 770.672119140625 797.37713623046875 806.294921875 811.9400634765625 830.03802490234375 855.37823486328125 872.83502197265625 886.451416015625 899.289306640625 891.38812255859375 867.85235595703125 848.69854736328125 885.95379638671875 931.9705810546875 980.756591796875 1027.735595703125 1070.0299072265625 1103.537353515625 1133.11669921875 1156.044189453125 1173.6490478515625 1189.9246826171875 1203.48046875 1204.991943359375 1205.56591796875 1209.09716796875 1222.831787109375 1229.7369384765625 1223.58154296875 1211.2001953125 1225.3111572265625 1243.995849609375 1253.6822509765625 1255.2598876953125 1244.65625 1221.977783203125 1192.250732421875 1166.1641845703125 1145.393798828125 1125.2928466796875 1116.0511474609375 1097.1156005859375 1077.1048583984375 1066.942626953125 1072.3602294921875 1105.7811279296875 
1112.603271484375 1069.767333984375 1019.03314208984375 975.08270263671875 932.63909912109375 893.17681884765625 852.74200439453125 818.97198486328125 806.05291748046875 799.914306640625 762.42437744140625 712.38751220703125 692.69683837890625 700.3662109375 688.66864013671875 690.8226318359375 698.30169677734375 715.33392333984375 713.603759765625 746.00531005859375 794.2452392578125 797.10064697265625 761.32476806640625 708.42706298828125 643.239990234375 592.0147705078125 572.56378173828125 564.776611328125 544.14569091796875 517.00384521484375 479.7955322265625 412.536224365234375 352.861907958984375 319.021514892578125 294.76318359375 282.040191650390625 268.400421142578125 253.1429901123046875 240.3800811767578125 231.3720855712890625 225.193389892578125 217.321380615234375 180.090545654296875 145.6242828369140625 141.4714202880859375 139.4644622802734375 154.90167236328125 185.58642578125 200.6882476806640625 211.78094482421875 241.9894561767578125 283.9554443359375 325.40142822265625 351.28521728515625 364.03656005859375 378.872039794921875 391.523590087890625 408.98248291015625 430.42242431640625 455.643402099609375 476.810882568359375 495.02020263671875 533.34259033203125 585.83367919921875 625.13458251953125 655.26629638671875 688.4974365234375 736.2333984375 789.9222412109375 834.88922119140625 876.78240966796875 926.75213623046875 982.27294921875 1037.6512451171875 1094.976806640625 1145.884521484375 1182.7305908203125 1210.8114013671875 1242.461669921875 1263.096923828125 1252.939208984375 1218.6798095703125 1169.1318359375 1127.3824462890625 1120.13232421875 1142.0263671875 1197.5631103515625 1263.0474853515625 1304.161865234375 1277.0299072265625 1221.9036865234375 1176.2083740234375 1141.2213134765625 1125.51171875 1102.1329345703125 1073.868408203125 1099.2503662109375 1105.1427001953125 1048.15478515625 976.593505859375 908.0528564453125 843.938232421875 787.02294921875 738.9818115234375 698.70318603515625 689.3485107421875 677.91876220703125 709.107421875 761.50323486328125 828.6756591796875 896.686279296875 947.73736572265625 969.3304443359375 950.902099609375 890.72894287109375 818.85430908203125 756.7408447265625 729.41497802734375 748.8551025390625 764.53460693359375 821.64764404296875 875.4144287109375 895.05914306640625 901.43896484375 897.19329833984375 882.32080078125 865.705078125 843.7275390625 807.2469482421875 795.99920654296875 821.240966796875 833.7540283203125 842.33343505859375 854.1820068359375 878.58123779296875 904.7255859375 925.612548828125 940.9638671875 937.35247802734375 908.13916015625 869.2574462890625 888.6552734375 937.381591796875 986.15924072265625 1035.0498046875 1078.88427734375 1114.5770263671875 1147.1883544921875 1177.157470703125 1195.299072265625 1204.119384765625 1212.9462890625 1213.77197265625 1218.3511962890625 1228.76416015625 1241.0382080078125 1253.4853515625 1251.80712890625 1242.6925048828125 1257.5224609375 1280.6112060546875 1299.8560791015625 1306.0390625 1284.8489990234375 1258.5633544921875 1232.227294921875 1203.374755859375 1179.748046875 1168.1265869140625 1159.0567626953125 1132.1588134765625 1101.95556640625 1081.0018310546875 1071.39404296875 1081.5953369140625 
1089.141845703125 1062.2581787109375 1015.9197998046875 976.61932373046875 944.2384033203125 911.26531982421875 874.446533203125 829.99725341796875 783.5794677734375 747.3968505859375 735.80755615234375 730.783935546875 758.04400634765625 777.47186279296875 776.98876953125 785.93212890625 773.4884033203125 802.94854736328125 803.37237548828125 802.70050048828125 836.0323486328125 839.23626708984375 801.51080322265625 747.61761474609375 691.6510009765625 653.9114990234375 640.51708984375 632.76007080078125 595.238037109375 540.05816650390625 480.933441162109375 417.5263671875 371.120635986328125 338.89532470703125 309.763946533203125 292.685882568359375 283.04278564453125 273.25140380859375 258.681060791015625 247.046875 230.4616851806640625 213.9483795166015625 174.8596649169921875 144.1367034912109375 140.4690399169921875 144.18218994140625 168.903167724609375 192.704315185546875 203.28466796875 219.3209686279296875 255.230377197265625 298.312591552734375 332.26904296875 350.633209228515625 367.60784912109375 385.5709228515625 398.01678466796875 413.4566650390625 432.484832763671875 455.2705078125 475.479888916015625 495.837921142578125 533.27001953125 585.09576416015625 630.6947021484375 667.92340087890625 717.128662109375 773.830078125 835.60357666015625 888.62554931640625 933.10791015625 976.34698486328125 1025.3487548828125 1072.73779296875 1115.94873046875 1174.7115478515625 1227.2259521484375 1265.2010498046875 1301.2880859375 1330.1463623046875 1323.184814453125 1281.6055908203125 1229.99951171875 1191.4344482421875 1180.918212890625 1188.4217529296875 1228.1873779296875 1291.4901123046875 1337.7833251953125 1319.55712890625 1276.6268310546875 1240.451904296875 1206.483154296875 1186.5445556640625 1157.1995849609375 1139.370361328125 1160.3062744140625 1134.7742919921875 1067.5240478515625 995.29217529296875 926.6453857421875 858.32464599609375 796.358642578125 746.481689453125 723.8336181640625 725.69378662109375 712.66094970703125 741.20574951171875 796.83770751953125 862.8505859375 929.8773193359375 982.22235107421875 994.1925048828125 964.21026611328125 909.8035888671875 850.5841064453125 789.77069091796875 761.12017822265625 784.09613037109375 796.8138427734375 843.43096923828125 907.2496337890625 933.2508544921875 937.19073486328125 930.9521484375 917.46246337890625 901.76556396484375 876.1690673828125 834.722412109375 818.56256103515625 846.7340087890625 864.70440673828125 870.99212646484375 878.44970703125 901.5855712890625 933.0234375 962.19073486328125 983.993408203125 980.090576171875 938.834228515625 888.42694091796875 892.8868408203125 936.02947998046875 984.08502197265625 1033.4761962890625 1080.49462890625 1119.279052734375 1155.992919921875 1192.71142578125 1216.8699951171875 1217.7177734375 1217.74951171875 1219.98095703125 1230.6766357421875 1243.602783203125 1256.3929443359375 1271.5010986328125 1278.1697998046875 1276.1829833984375 1288.6292724609375 1308.153564453125 1327.20556640625 1341.3424072265625 1331.5865478515625 1311.2447509765625 1287.3436279296875 1254.073486328125 1222.284423828125 1199.67724609375 1176.2794189453125 1148.830322265625 1121.4296875 1101.688232421875 1084.56884765625 1072.9703369140625 
1053.206787109375 1043.195068359375 1009.4180908203125 970.99530029296875 944.411376953125 914.9405517578125 879.79193115234375 836.78082275390625 787.22808837890625 750.2198486328125 780.228759765625 818.93963623046875 847.95599365234375 854.47705078125 851.2606201171875 858.34515380859375 844.7972412109375 874.25933837890625 886.53204345703125 871.969482421875 887.58428955078125 881.52056884765625 843.71307373046875 800.037353515625 757.68585205078125 726.9698486328125 704.62335205078125 688.2921142578125 641.9779052734375 568.91412353515625 494.394805908203125 428.580413818359375 388.09368896484375 358.763214111328125 328.153411865234375 307.33087158203125 295.835601806640625 289.061309814453125 283.333038330078125 269.899444580078125 243.5962066650390625 209.5497894287109375 164.0024261474609375 140.951568603515625 141.1016387939453125 155.962738037109375 181.1637115478515625 194.7256317138671875 206.50830078125 226.36798095703125 263.059661865234375 298.0478515625 325.6788330078125 345.505950927734375 364.27117919921875 381.275299072265625 396.30078125 413.500091552734375 434.119964599609375 454.19476318359375 473.676910400390625 494.723358154296875 527.9554443359375 571.25164794921875 610.33721923828125 653.71771240234375 713.4066162109375 780.1351318359375 849.89459228515625 909.63153076171875 959.94085693359375 1010.67437744140625 1064.16748046875 1117.958984375 1164.4752197265625 1212.5325927734375 1260.6883544921875 1297.8763427734375 1333.06005859375 1366.488525390625 1379.3155517578125 1348.0177001953125 1299.3170166015625 1265.5433349609375 1251.2943115234375 1249.0709228515625 1269.552001953125 1320.47607421875 1374.4654541015625 1374.0107421875 1339.7869873046875 1298.462890625 1266.7117919921875 1248.6541748046875 1219.17236328125 1207.255126953125 1210.814453125 1159.7596435546875 1090.1962890625 1013.4366455078125 938.74761962890625 865.6888427734375 806.0921630859375 763.2418212890625 754.25555419921875 755.7581787109375 744.50732421875 764.2491455078125 816.71478271484375 881.89959716796875 952.26959228515625 1004.58837890625 1006.30169677734375 976.7828369140625 942.48907470703125 894.061767578125 831.138916015625 795.49603271484375 824.6806640625 839.4412841796875 865.259521484375 936.08197021484375 967.42401123046875 975.0509033203125 969.48175048828125 953.974853515625 937.33306884765625 908.3154296875 861.315185546875 844.24334716796875 876.19549560546875 897.6446533203125 904.00885009765625 914.7210693359375 932.6524658203125 964.9476318359375 1002.40631103515625 1027.343505859375 1009.73577880859375 953.06451416015625 908.80450439453125 910.698974609375 929.51849365234375 968.3232421875 1017.6502685546875 1064.7315673828125 1106.4376220703125 1148.9732666015625 1189.87255859375 1221.6922607421875 1222.3045654296875 1221.8870849609375 1227.1103515625 1236.27294921875 1252.743408203125 1264.9586181640625 1278.045654296875 1292.3323974609375 1303.563232421875 1320.956298828125 1334.412353515625 1342.67919921875 1353.620361328125 1360.021728515625 1355.828369140625 1334.1087646484375 1300.50244140625 1262.30859375 1223.5548095703125 1188.0064697265625 1163.919677734375 1141.4879150390625 1119.8487548828125 1097.7220458984375 1079.18896484375 
1018.62371826171875 1013.36041259765625 992.44287109375 958.11651611328125 934.2327880859375 907.75677490234375 866.4915771484375 819.093505859375 781.79888916015625 790.98162841796875 842.2525634765625 891.55279541015625 924.14019775390625 943.16375732421875 942.33551025390625 949.25927734375 924.5325927734375 938.28009033203125 956.58782958984375 947.61566162109375 952.34686279296875 931.89288330078125 888.04376220703125 844.54473876953125 808.7584228515625 778.20367431640625 749.82501220703125 718.44451904296875 669.810302734375 588.872314453125 510.6890869140625 445.240692138671875 403.021087646484375 379.365386962890625 353.83074951171875 328.193450927734375 306.980682373046875 292.091644287109375 288.970977783203125 279.73138427734375 251.5992279052734375 212.36029052734375 160.894683837890625 141.91973876953125 146.980072021484375 170.5769805908203125 188.594085693359375 197.2354278564453125 210.2394866943359375 235.404388427734375 277.0538330078125 311.67333984375 339.289520263671875 357.774017333984375 372.622314453125 388.144500732421875 401.167999267578125 415.393310546875 435.119903564453125 454.8116455078125 475.462432861328125 498.940521240234375 527.23492431640625 561.83221435546875 597.7354736328125 646.23431396484375 708.0928955078125 778.96929931640625 848.1278076171875 916.5062255859375 981.3232421875 1037.927490234375 1100.7724609375 1152.812744140625 1198.819580078125 1238.516845703125 1281.581787109375 1326.2435302734375 1358.0924072265625 1392.4884033203125 1421.152099609375 1410.994873046875 1372.4744873046875 1347.423583984375 1336.0513916015625 1325.7496337890625 1331.9674072265625 1356.015625 1401.0389404296875 1417.2535400390625 1392.9849853515625 1354.2940673828125 1330.177001953125 1315.033935546875 1293.7216796875 1273.192138671875 1241.31494140625 1174.71728515625 1096.1507568359375 1015.10760498046875 941.21661376953125 877.18878173828125 823.1307373046875 790.912109375 792.310791015625 795.7176513671875 795.7008056640625 795.804443359375 827.40191650390625 886.4976806640625 957.926025390625 1015.512451171875 1019.42730712890625 999.658447265625 980.6558837890625 932.21258544921875 866.9337158203125 829.4697265625 864.0198974609375 881.853271484375 892.15557861328125 948.8983154296875 989.330810546875 1008.84515380859375 1012.10491943359375 994.9315185546875 970.71466064453125 938.38519287109375 891.9150390625 874.524658203125 909.18133544921875 932.37603759765625 945.024658203125 963.57427978515625 976.57928466796875 1000.20947265625 1036.5411376953125 1049.1549072265625 1013.18408203125 956.537109375 938.290283203125 955.70941162109375 951.2222900390625 963.75732421875 1002.69769287109375 1042.0174560546875 1079.6981201171875 1122.5445556640625 1168.897705078125 1212.0523681640625 1227.4271240234375 1230.7547607421875 1237.6781005859375 1246.437255859375 1258.7567138671875 1268.8231201171875 1282.3748779296875 1301.2435302734375 1320.01123046875 1343.88818359375 1358.6175537109375 1357.625 1358.2344970703125 1361.1976318359375 1358.056884765625 1340.532958984375 1311.1705322265625 1278.4595947265625 1243.240478515625 1204.62060546875 1171.0601806640625 1145.4810791015625 1127.9666748046875 1103.7974853515625 1083.8985595703125 
995.37664794921875 988.22802734375 970.525634765625 945.8670654296875 924.5643310546875 895.7674560546875 850.91961669921875 813.648193359375 811.4840087890625 839.02593994140625 893.92694091796875 947.7301025390625 980.77630615234375 1018.9453125 1041.5347900390625 1043.146240234375 1025.614013671875 1017.37713623046875 1015.3880615234375 1010.48309326171875 1006.959228515625 977.45501708984375 930.441162109375 882.6324462890625 832.1524658203125 789.415283203125 758.935302734375 728.7314453125 681.7794189453125 606.59429931640625 526.5992431640625 461.9527587890625 418.495086669921875 391.09912109375 369.632537841796875 350.706756591796875 321.4249267578125 301.615570068359375 289.7203369140625 280.38232421875 250.000579833984375 207.464385986328125 159.9153900146484375 141.22406005859375 151.115478515625 178.4276580810546875 192.3994293212890625 200.869354248046875 217.5848388671875 246.458404541015625 283.3963623046875 316.663238525390625 345.777557373046875 367.702972412109375 380.65631103515625 394.21051025390625 408.7303466796875 422.857147216796875 437.6658935546875 453.974334716796875 474.083038330078125 498.019287109375 526.3599853515625 557.3975830078125 595.4713134765625 652.14208984375 719.32879638671875 787.66632080078125 849.434326171875 919.86212158203125 989.7615966796875 1053.8336181640625 1115.9327392578125 1165.562744140625 1210.123779296875 1248.89013671875 1286.6812744140625 1331.508056640625 1371.1798095703125 1406.0780029296875 1440.0823974609375 1462.008544921875 1456.120849609375 1440.73046875 1418.033203125 1403.6932373046875 1410.0181884765625 1421.4036865234375 1441.53369140625 1450.4739990234375 1430.5689697265625 1406.6173095703125 1394.6138916015625 1383.615966796875 1357.5341796875 1313.731201171875 1245.7972412109375 1170.9427490234375 1094.2698974609375 1016.9622802734375 953.25128173828125 891.5537109375 836.24664306640625 819.89337158203125 831.97100830078125 841.13287353515625 854.8082275390625 840.3802490234375 850.02398681640625 895.78900146484375 965.02789306640625 1026.202880859375 1045.143310546875 1036.132080078125 1006.02984619140625 945.7979736328125 884.852294921875 866.8614501953125 904.480224609375 918.7320556640625 923.3428955078125 956.48126220703125 992.61407470703125 1030.3392333984375 1049.8468017578125 1039.29296875 1011.73114013671875 977.05816650390625 932.32073974609375 903.23345947265625 926.19000244140625 961.716552734375 990.35430908203125 1015.5992431640625 1027.057373046875 1035.788818359375 1061.9268798828125 1063.8984375 1018.62811279296875 969.58673095703125 974.263427734375 1003.41119384765625 1005.2720947265625 994.426513671875 1000.0745849609375 1022.3782958984375 1049.952392578125 1091.24951171875 1144.337890625 1200.17822265625 1236.091552734375 1245.942626953125 1251.756591796875 1259.9205322265625 1268.049560546875 1280.92138671875 1295.2637939453125 1311.474609375 1330.7435302734375 1349.1766357421875 1359.88525390625 1362.082763671875 1361.3555908203125 1356.505859375 1342.18408203125 1320.8935546875 1297.6846923828125 1270.1326904296875 1243.3682861328125 1212.9822998046875 1170.0926513671875 1140.755126953125 1121.3463134765625 1100.7484130859375 1082.2188720703125 
977.03912353515625 968.41534423828125 950.35333251953125 933.7445068359375 911.75335693359375 877.9661865234375 837.4100341796875 832.25238037109375 859.5335693359375 875.8092041015625 913.71270751953125 973.84283447265625 1031.3919677734375 1091.745361328125 1115.647216796875 1102.3856201171875 1083.910888671875 1071.3375244140625 1063.604736328125 1061.427978515625 1044.3253173828125 1004.71759033203125 958.0665283203125 914.21673583984375 860.5411376953125 804.95111083984375 755.5487060546875 723.515380859375 679.69927978515625 612.4508056640625 535.71563720703125 473.57513427734375 433.086334228515625 404.992401123046875 384.866058349609375 369.746063232421875 341.269287109375 313.529937744140625 295.8438720703125 280.56201171875 245.8346099853515625 200.866729736328125 155.869415283203125 139.192474365234375 154.563201904296875 184.58935546875 193.9405364990234375 204.3849639892578125 226.756072998046875 255.323272705078125 286.073822021484375 313.40081787109375 339.0428466796875 361.497833251953125 378.760009765625 393.702972412109375 408.66290283203125 423.299468994140625 439.299896240234375 456.755859375 476.831512451171875 501.527069091796875 530.25433349609375 562.177734375 599.70111083984375 655.85748291015625 726.10888671875 792.130126953125 851.4237060546875 915.02130126953125 982.80230712890625 1052.0511474609375 1112.2645263671875 1161.8287353515625 1213.9075927734375 1254.1943359375 1290.69873046875 1334.7481689453125 1380.8328857421875 1417.54736328125 1446.8426513671875 1478.774658203125 1505.311279296875 1514.8563232421875 1499.239990234375 1480.4613037109375 1488.137451171875 1497.3660888671875 1503.515625 1492.2138671875 1469.2392578125 1455.7569580078125 1455.6435546875 1441.2684326171875 1397.33056640625 1333.5130615234375 1255.4403076171875 1180.862548828125 1106.2852783203125 1031.8037109375 965.667236328125 898.67791748046875 858.6875 861.01190185546875 876.28643798828125 881.5648193359375 901.890380859375 889.93231201171875 891.3653564453125 923.747802734375 982.845703125 1048.1424560546875 1080.80322265625 1064.6807861328125 1014.4127197265625 953.8343505859375 923.003662109375 924.93536376953125 945.61981201171875 949.0489501953125 955.552978515625 989.258056640625 1002.15777587890625 1040.4249267578125 1074.86962890625 1075.5076904296875 1049.7261962890625 1013.3663330078125 968.00872802734375 930.7105712890625 931.26580810546875 974.50152587890625 1019.83563232421875 1054.8114013671875 1072.302490234375 1077.27294921875 1088.1695556640625 1078.7039794921875 1031.07861328125 988.982666015625 1008.34722900390625 1047.306640625 1058.992919921875 1051.20458984375 1043.617431640625 1046.17333984375 1051.4072265625 1075.125732421875 1124.486572265625 1187.0111083984375 1238.52294921875 1258.900146484375 1265.498291015625 1275.45068359375 1287.5648193359375 1301.65625 1316.06298828125 1331.0101318359375 1348.97900390625 1363.030029296875 1372.927978515625 1375.3228759765625 1370.577880859375 1359.906005859375 1340.1297607421875 1322.12744140625 1298.5777587890625 1266.285888671875 1233.1553955078125 1204.840087890625 1172.07373046875 1137.6376953125 1108.536376953125 1091.4625244140625 1077.2762451171875 
981.41912841796875 961.86871337890625 932.970703125 910.56365966796875 889.736572265625 862.11529541015625 851.9288330078125 874.97113037109375 911.1387939453125 927.825927734375 936.66412353515625 979.611572265625 1041.4404296875 1108.5947265625 1148.927490234375 1139.8343505859375 1122.3092041015625 1107.731689453125 1092.6485595703125 1075.7666015625 1047.7403564453125 1007.73626708984375 967.064208984375 920.3179931640625 874.74853515625 828.41912841796875 770.8228759765625 724.318603515625 685.0450439453125 632.2091064453125 564.10174560546875 495.814605712890625 446.06683349609375 416.996063232421875 395.000244140625 380.1043701171875 358.743072509765625 325.59600830078125 301.093597412109375 283.284576416015625 248.057037353515625 201.2004241943359375 157.839080810546875 139.82659912109375 152.5607147216796875 184.1245574951171875 194.082916259765625 208.04876708984375 235.438201904296875 260.642913818359375 282.258056640625 302.588165283203125 324.50494384765625 345.50958251953125 363.75225830078125 380.186614990234375 399.193359375 417.917388916015625 437.14208984375 460.45989990234375 485.529754638671875 510.6298828125 536.43017578125 562.64532470703125 597.7662353515625 649.17706298828125 719.30657958984375 783.40283203125 844.98797607421875 905.8345947265625 972.76873779296875 1040.2779541015625 1100.0399169921875 1158.6429443359375 1216.9853515625 1261.9647216796875 1299.5941162109375 1340.82470703125 1390.8851318359375 1428.80029296875 1451.452392578125 1481.492431640625 1517.3271484375 1541.598388671875 1553.5107421875 1553.4287109375 1558.1141357421875 1566.710205078125 1559.0133056640625 1538.1683349609375 1514.244873046875 1499.2493896484375 1498.5963134765625 1478.3118896484375 1413.4530029296875 1334.565673828125 1256.9661865234375 1181.2049560546875 1106.9627685546875 1035.4810791015625 967.0062255859375 912.6192626953125 896.92547607421875 908.22857666015625 921.20928955078125 920.47711181640625 946.4193115234375 948.6605224609375 945.61724853515625 967.3426513671875 1007.632080078125 1065.222900390625 1107.199951171875 1077.3839111328125 1022.09088134765625 984.150146484375 980.54315185546875 986.6470947265625 989.56317138671875 980.09375 979.95599365234375 1022.92510986328125 1037.81591796875 1054.3480224609375 1094.363037109375 1106.152587890625 1080.62548828125 1037.862060546875 995.26202392578125 960.579345703125 943.5614013671875 973.81243896484375 1027.1019287109375 1075.6151123046875 1108.9638671875 1124.2010498046875 1123.956298828125 1103.8096923828125 1053.7799072265625 1015.99627685546875 1042.6007080078125 1087.08349609375 1111.3109130859375 1110.2525634765625 1104.7889404296875 1100.6317138671875 1094.5618896484375 1086.854248046875 1116.2861328125 1176.1453857421875 1231.8321533203125 1267.1356201171875 1285.7174072265625 1303.102783203125 1315.8048095703125 1327.4892578125 1342.3446044921875 1353.3681640625 1366.5802001953125 1380.4835205078125 1389.56787109375 1398.4095458984375 1393.2349853515625 1376.1343994140625 1353.2020263671875 1339.412109375 1317.6407470703125 1283.4884033203125 1235.893310546875 1192.610595703125 1159.577880859375 1129.7113037109375 1106.9754638671875 1091.874755859375 1077.054931640625 
1012.09991455078125 981.6236572265625 943.8624267578125 905.13848876953125 878.675537109375 877.6375732421875 893.1123046875 921.99261474609375 958.060546875 988.65887451171875 994.29193115234375 1013.24505615234375 1062.3013916015625 1123.5640869140625 1166.2740478515625 1166.6553955078125 1154.8603515625 1138.70556640625 1108.208740234375 1071.6314697265625 1031.84814453125 995.14715576171875 958.20025634765625 914.541015625 873.63531494140625 841.4371337890625 799.55126953125 744.28179931640625 701.05963134765625 661.42596435546875 603.1168212890625 537.6551513671875 476.07952880859375 428.4632568359375 400.118865966796875 385.71044921875 371.79278564453125 341.6849365234375 309.4576416015625 283.264923095703125 249.8571929931640625 210.95556640625 166.4735107421875 141.0644683837890625 146.8075714111328125 177.2193145751953125 194.4602813720703125 212.3051910400390625 240.7226104736328125 260.243927001953125 281.1622314453125 300.794921875 321.39556884765625 350.145721435546875 373.436431884765625 385.42047119140625 400.401702880859375 419.6654052734375 440.185516357421875 465.79327392578125 492.044189453125 520.86041259765625 549.02886962890625 576.4847412109375 606.207763671875 652.32965087890625 716.4459228515625 772.54803466796875 833.9471435546875 900.7830810546875 966.72418212890625 1027.9442138671875 1088.1566162109375 1157.6021728515625 1224.1500244140625 1270.4393310546875 1308.6414794921875 1345.8577880859375 1392.321044921875 1433.1402587890625 1458.3389892578125 1482.4215087890625 1514.561279296875 1534.923583984375 1557.9610595703125 1579.657470703125 1591.708740234375 1596.123046875 1590.1573486328125 1575.5555419921875 1552.478271484375 1532.1766357421875 1516.0806884765625 1472.70654296875 1405.0423583984375 1321.88525390625 1236.83203125 1161.15087890625 1093.1585693359375 1030.6617431640625 974.867431640625 941.25 947.61163330078125 964.34765625 966.57379150390625 963.84515380859375 998.066162109375 1014.41998291015625 1008.92803955078125 1019.73388671875 1048.2960205078125 1092.5177001953125 1124.805908203125 1088.944580078125 1050.1929931640625 1047.39111328125 1044.7828369140625 1043.429931640625 1031.7786865234375 1004.981689453125 1008.33331298828125 1057.595947265625 1076.2191162109375 1080.292724609375 1119.4019775390625 1135.6422119140625 1112.480224609375 1072.302978515625 1034.4949951171875 996.788818359375 967.97528076171875 979.6768798828125 1025.7720947265625 1083.072998046875 1131.7578125 1157.890869140625 1153.548583984375 1120.3521728515625 1074.330810546875 1038.36669921875 1057.2606201171875 1105.761474609375 1144.63720703125 1158.10791015625 1152.68896484375 1149.4288330078125 1146.4130859375 1131.902099609375 1130.2587890625 1172.966064453125 1230.8936767578125 1277.844482421875 1311.2598876953125 1333.3175048828125 1342.7236328125 1353.0946044921875 1363.243896484375 1369.2559814453125 1378.9658203125 1388.7745361328125 1398.2659912109375 1405.4105224609375 1403.1497802734375 1391.28271484375 1365.80029296875 1339.795166015625 1316.003173828125 1281.6395263671875 1236.1422119140625 1190.55810546875 1156.7442626953125 1135.978271484375 1117.9404296875 1097.532470703125 1076.67431640625 
1030.55322265625 1001.23870849609375 962.16326904296875 919.07354736328125 891.908935546875 903.0830078125 930.31689453125 966.58685302734375 1005.4652099609375 1043.4708251953125 1058.6907958984375 1066.203125 1099.492431640625 1148.3974609375 1176.2913818359375 1182.9403076171875 1177.5277099609375 1156.305419921875 1119.760009765625 1072.1861572265625 1023.50677490234375 988.07830810546875 956.097900390625 919.046630859375 876.12371826171875 838.1593017578125 810.21807861328125 766.020751953125 717.8896484375 681.14385986328125 636.8634033203125 574.62518310546875 508.700592041015625 444.6136474609375 408.68524169921875 393.716400146484375 382.042877197265625 355.480072021484375 318.72100830078125 284.9990234375 256.5712890625 224.8774261474609375 176.738189697265625 143.7323455810546875 143.6826629638671875 167.87457275390625 189.6455230712890625 215.0932464599609375 244.1752471923828125 259.520751953125 274.0225830078125 294.846435546875 320.1087646484375 353.445343017578125 384.61798095703125 402.36053466796875 411.285247802734375 424.787109375 444.648834228515625 470.229034423828125 499.3917236328125 532.6607666015625 569.3829345703125 608.77099609375 646.13232421875 690.43914794921875 746.05938720703125 797.3680419921875 853.614013671875 914.8905029296875 977.23834228515625 1026.7388916015625 1076.1795654296875 1145.8343505859375 1221.932373046875 1268.2130126953125 1309.135009765625 1350.8646240234375 1392.5003662109375 1434.4952392578125 1466.04931640625 1486.4498291015625 1505.891357421875 1524.838623046875 1552.024658203125 1580.787109375 1594.73388671875 1600.28369140625 1601.2139892578125 1594.7305908203125 1576.01123046875 1548.250244140625 1502.4268798828125 1442.94580078125 1379.534423828125 1298.346923828125 1221.090087890625 1157.5960693359375 1105.22314453125 1050.8089599609375 1003.197509765625 985.48077392578125 1006.64202880859375 1026.909423828125 1019.50152587890625 1014.03863525390625 1054.0555419921875 1082.5919189453125 1075.8612060546875 1074.9332275390625 1102.1590576171875 1137.5084228515625 1150.334228515625 1119.0985107421875 1101.0057373046875 1108.2745361328125 1104.15625 1093.69677734375 1065.31787109375 1026.1341552734375 1038.2742919921875 1088.3929443359375 1107.8880615234375 1100.173095703125 1128.0567626953125 1155.6201171875 1147.960205078125 1116.6942138671875 1084.0291748046875 1042.9483642578125 1000.7564697265625 991.18560791015625 1021.501708984375 1081.2088623046875 1141.131103515625 1181.8709716796875 1186.027099609375 1153.3284912109375 1110.4647216796875 1072.0919189453125 1067.6131591796875 1101.474365234375 1145.822021484375 1178.1051025390625 1191.095703125 1193.6417236328125 1195.94189453125 1187.3785400390625 1175.7830810546875 1181.2271728515625 1214.66796875 1269.953125 1317.3902587890625 1342.099365234375 1356.3092041015625 1365.83984375 1373.7589111328125 1381.6973876953125 1389.103271484375 1396.0340576171875 1405.144287109375 1407.2728271484375 1400.8154296875 1386.02490234375 1361.9912109375 1335.02978515625 1302.65869140625 1268.8253173828125 1230.050048828125 1194.8900146484375 1164.1405029296875 1139.676025390625 1119.021240234375 1097.573974609375 1073.276123046875 
1034.051513671875 1002.55877685546875 961.46002197265625 921.30780029296875 913.38970947265625 929.34527587890625 965.031982421875 1010.28167724609375 1053.5709228515625 1089.6298828125 1106.924560546875 1114.7755126953125 1126.0333251953125 1150.23388671875 1173.8077392578125 1190.6441650390625 1191.10986328125 1175.1424560546875 1140.04541015625 1086.7000732421875 1034.5211181640625 995.8336181640625 961.23394775390625 924.10845947265625 881.80316162109375 837.42193603515625 805.09051513671875 769.8128662109375 724.9383544921875 687.843994140625 652.364990234375 591.79022216796875 527.0374755859375 457.492034912109375 418.959564208984375 403.243377685546875 387.906646728515625 364.548675537109375 330.60400390625 294.2308349609375 265.904541015625 232.9210357666015625 185.92205810546875 145.7900848388671875 141.65997314453125 158.6266632080078125 179.4065399169921875 209.1190032958984375 235.2935638427734375 256.083587646484375 273.49639892578125 292.19903564453125 315.687835693359375 341.927886962890625 369.04864501953125 395.287261962890625 416.166168212890625 433.912017822265625 453.145172119140625 478.552947998046875 508.627166748046875 546.2091064453125 586.4149169921875 627.90252685546875 670.973876953125 716.291015625 765.044921875 818.25689697265625 877.8099365234375 932.16143798828125 983.48321533203125 1017.42657470703125 1060.1241455078125 1123.91015625 1199.1759033203125 1251.82470703125 1300.393798828125 1351.5146484375 1389.895751953125 1433.769287109375 1464.75146484375 1482.0089111328125 1499.23193359375 1515.0792236328125 1543.126708984375 1571.53564453125 1586.3575439453125 1593.4024658203125 1602.39697265625 1601.972412109375 1586.9051513671875 1555.980712890625 1492.8753662109375 1419.573486328125 1350.967529296875 1283.7091064453125 1235.037109375 1197.686279296875 1153.0040283203125 1090.09619140625 1041.8348388671875 1040.9539794921875 1067.71533203125 1090.37939453125 1076.6922607421875 1067.6358642578125 1106.166748046875 1151.1583251953125 1151.031494140625 1136.5552978515625 1163.4962158203125 1193.158447265625 1186.660400390625 1160.57958984375 1147.3533935546875 1153.2713623046875 1146.309814453125 1133.0484619140625 1095.088623046875 1052.6005859375 1067.2100830078125 1116.98486328125 1137.2554931640625 1125.7840576171875 1132.82275390625 1170.9454345703125 1181.1270751953125 1160.9949951171875 1129.7586669921875 1085.273193359375 1036.9996337890625 1008.3385009765625 1019.31854248046875 1072.9505615234375 1138.9178466796875 1192.400634765625 1218.943603515625 1204.418701171875 1163.61865234375 1124.054931640625 1106.5848388671875 1112.9788818359375 1143.8123779296875 1178.5633544921875 1203.96826171875 1218.8934326171875 1230.8057861328125 1229.650146484375 1223.3941650390625 1213.44873046875 1210.52294921875 1251.1536865234375 1307.2254638671875 1344.375732421875 1363.9361572265625 1374.8924560546875 1384.2913818359375 1395.4454345703125 1400.446044921875 1405.796875 1415.2264404296875 1410.6971435546875 1390.7718505859375 1369.2772216796875 1349.169189453125 1323.975830078125 1287.3360595703125 1256.1890869140625 1229.557373046875 1205.4112548828125 1174.498779296875 1136.6546630859375 1106.78173828125 1080.11669921875 1058.134521484375 
1025.4891357421875 993.85028076171875 958.75091552734375 934.974365234375 937.57696533203125 955.1597900390625 994.521484375 1044.1474609375 1094.182861328125 1132.6444091796875 1144.224365234375 1134.3966064453125 1128.9910888671875 1135.5877685546875 1158.1658935546875 1182.6280517578125 1189.187744140625 1178.2335205078125 1151.6864013671875 1101.7442626953125 1049.9588623046875 1006.48992919921875 965.27642822265625 926.343017578125 889.25445556640625 848.8134765625 810.1580810546875 771.784912109375 726.716796875 686.1571044921875 649.57745361328125 596.87353515625 534.91986083984375 464.241546630859375 424.12200927734375 405.903594970703125 391.665374755859375 373.8709716796875 339.726531982421875 300.584564208984375 266.049530029296875 235.49127197265625 195.5754547119140625 150.689117431640625 143.0068817138671875 162.949005126953125 183.865142822265625 206.3238372802734375 225.733734130859375 248.963836669921875 268.98828125 286.8746337890625 304.419189453125 325.42193603515625 348.911529541015625 371.9658203125 396.427947998046875 423.13555908203125 452.893035888671875 482.59747314453125 512.36395263671875 547.32366943359375 587.08660888671875 621.91229248046875 664.19287109375 713.25909423828125 759.52606201171875 812.114501953125 868.56134033203125 917.04864501953125 961.9208984375 997.174072265625 1047.5975341796875 1115.9595947265625 1183.8087158203125 1233.8497314453125 1290.74462890625 1340.0399169921875 1372.0677490234375 1414.12451171875 1440.903076171875 1457.1341552734375 1477.9921875 1499.4273681640625 1523.064453125 1552.1937255859375 1569.586669921875 1574.64208984375 1583.4449462890625 1590.292236328125 1587.77490234375 1569.1424560546875 1509.5804443359375 1423.1175537109375 1351.9957275390625 1316.095947265625 1295.4320068359375 1247.61083984375 1184.53173828125 1126.7532958984375 1093.9578857421875 1103.2261962890625 1137.74267578125 1157.1669921875 1137.8585205078125 1128.158935546875 1159.497802734375 1210.9229736328125 1225.326416015625 1210.0733642578125 1228.3492431640625 1246.562744140625 1232.382568359375 1210.735595703125 1195.798095703125 1196.1055908203125 1188.0504150390625 1165.8853759765625 1120.304931640625 1085.05078125 1104.3316650390625 1152.9185791015625 1173.942138671875 1159.3333740234375 1154.0941162109375 1187.604736328125 1207.1761474609375 1198.7183837890625 1166.044677734375 1123.02587890625 1073.6500244140625 1033.3726806640625 1025.35791015625 1066.2764892578125 1129.188720703125 1192.4385986328125 1242.8355712890625 1250.659423828125 1220.7447509765625 1184.421875 1160.5723876953125 1150.24365234375 1155.154296875 1177.9498291015625 1202.5477294921875 1228.3028564453125 1253.6483154296875 1263.0933837890625 1259.998779296875 1252.1375732421875 1240.6240234375 1246.4681396484375 1292.526123046875 1342.2738037109375 1370.260009765625 1382.5225830078125 1390.7957763671875 1400.115234375 1404.5367431640625 1410.2877197265625 1417.0858154296875 1404.5679931640625 1379.4136962890625 1360.268798828125 1337.826416015625 1300.3460693359375 1258.386474609375 1233.5205078125 1215.6199951171875 1195.0579833984375 1165.6632080078125 1121.99169921875 1084.8143310546875 1055.4462890625 1035.70458984375 
1014.5814208984375 984.1021728515625 961.73687744140625 955.465087890625 961.168212890625 987.856201171875 1037.368896484375 1088.2889404296875 1131.1842041015625 1155.689208984375 1158.76171875 1136.237060546875 1114.7236328125 1116.0146484375 1135.0142822265625 1162.8831787109375 1178.0050048828125 1169.2374267578125 1145.735595703125 1107.72998046875 1070.6929931640625 1025.7589111328125 982.1534423828125 949.05328369140625 916.42071533203125 874.0404052734375 821.02056884765625 771.5692138671875 725.79888916015625 690.55670166015625 655.5430908203125 605.118896484375 542.9173583984375 478.851470947265625 435.872589111328125 412.103851318359375 394.115447998046875 377.8192138671875 347.47027587890625 309.19403076171875 270.562255859375 238.2892913818359375 207.32965087890625 156.946197509765625 141.93218994140625 174.4250335693359375 206.9681243896484375 218.6344451904296875 237.7863006591796875 256.7845458984375 273.83154296875 290.02392578125 304.253448486328125 328.333343505859375 358.868133544921875 382.897308349609375 398.528900146484375 415.20001220703125 445.540191650390625 473.894805908203125 505.84796142578125 543.05609130859375 580.91986083984375 608.26220703125 640.75579833984375 684.79840087890625 734.502197265625 784.8011474609375 830.1888427734375 872.3631591796875 918.7432861328125 974.4036865234375 1040.2296142578125 1107.0966796875 1170.685791015625 1217.577392578125 1276.3802490234375 1316.5830078125 1338.6107177734375 1373.795654296875 1396.8858642578125 1412.74072265625 1435.892578125 1466.342041015625 1495.496337890625 1530.3758544921875 1543.5166015625 1544.1973876953125 1550.673095703125 1565.684326171875 1575.0701904296875 1567.220947265625 1525.8055419921875 1445.08349609375 1388.1915283203125 1368.14501953125 1331.8702392578125 1274.501220703125 1217.9305419921875 1175.3909912109375 1155.925537109375 1170.9619140625 1202.787109375 1227.59228515625 1214.2454833984375 1193.92529296875 1215.281982421875 1269.95703125 1302.8092041015625 1297.670654296875 1302.2252197265625 1300.82470703125 1284.89990234375 1260.339599609375 1243.849853515625 1243.6739501953125 1230.2528076171875 1196.5797119140625 1145.0621337890625 1112.388916015625 1134.6566162109375 1185.65380859375 1206.2796630859375 1190.6971435546875 1178.2281494140625 1201.6175537109375 1228.295654296875 1228.0059814453125 1200.4859619140625 1158.1649169921875 1110.4971923828125 1069.6458740234375 1050.5943603515625 1070.070068359375 1118.05322265625 1182.5302734375 1252.4029541015625 1283.9495849609375 1268.7269287109375 1239.277099609375 1213.404052734375 1199.630615234375 1191.1802978515625 1197.553955078125 1210.4188232421875 1235.9959716796875 1271.6688232421875 1293.12841796875 1294.5113525390625 1289.678955078125 1282.9189453125 1280.9949951171875 1297.7945556640625 1343.1812744140625 1374.593505859375 1388.0133056640625 1393.0174560546875 1397.64892578125 1404.920166015625 1409.3546142578125 1408.47216796875 1393.884765625 1379.5535888671875 1368.02099609375 1338.466796875 1287.447265625 1236.5025634765625 1206.8653564453125 1184.3704833984375 1164.0147705078125 1132.2535400390625 1089.31103515625 1056.0999755859375 1033.4132080078125 1014.4521484375 
1015.5074462890625 988.9190673828125 972.1788330078125 979.77520751953125 996.70086669921875 1023.57476806640625 1067.89892578125 1114.4066162109375 1146.4791259765625 1160.34765625 1155.191162109375 1124.6004638671875 1093.2806396484375 1091.7381591796875 1117.568115234375 1145.703369140625 1160.53076171875 1153.505126953125 1131.6812744140625 1105.789794921875 1078.669921875 1043.473388671875 1003.70062255859375 967.5849609375 928.918212890625 886.3187255859375 827.88665771484375 766.12506103515625 718.46575927734375 683.49884033203125 648.9034423828125 603.0927734375 556.68927001953125 509.05224609375 466.702056884765625 428.876556396484375 400.97918701171875 381.871337890625 353.4833984375 319.215087890625 285.25152587890625 251.843841552734375 217.5452117919921875 163.7848968505859375 140.0681304931640625 167.630157470703125 208.7648468017578125 224.965240478515625 240.515655517578125 257.01263427734375 270.5250244140625 284.639373779296875 301.847503662109375 334.26715087890625 375.630767822265625 409.4774169921875 425.676177978515625 427.39508056640625 439.667816162109375 458.677642822265625 490.760345458984375 529.53741455078125 559.7156982421875 578.1278076171875 604.34130859375 643.51263427734375 698.64215087890625 744.14251708984375 781.0765380859375 832.23388671875 891.73028564453125 958.44403076171875 1026.027587890625 1091.462890625 1148.480712890625 1195.168701171875 1244.01953125 1276.119873046875 1289.6241455078125 1314.6773681640625 1334.833740234375 1352.9224853515625 1383.7762451171875 1421.2669677734375 1461.2523193359375 1498.5438232421875 1506.3453369140625 1502.9466552734375 1518.3729248046875 1543.0609130859375 1558.500244140625 1560.2333984375 1538.2236328125 1486.3074951171875 1442.827880859375 1404.84130859375 1352.6566162109375 1299.4658203125 1257.148681640625 1226.0838623046875 1218.8157958984375 1243.970703125 1275.0980224609375 1296.0308837890625 1285.3770751953125 1255.3668212890625 1272.9791259765625 1325.6534423828125 1363.201904296875 1372.130126953125 1369.44287109375 1354.4244384765625 1332.2557373046875 1303.8109130859375 1293.39794921875 1289.836669921875 1268.0584716796875 1220.810791015625 1168.441650390625 1138.8521728515625 1163.5238037109375 1216.5301513671875 1234.255859375 1220.1851806640625 1205.9168701171875 1229.3460693359375 1259.1583251953125 1262.6192626953125 1241.363037109375 1201.1392822265625 1155.300048828125 1116.6109619140625 1086.63916015625 1080.08984375 1109.7486572265625 1170.660400390625 1249.701904296875 1303.1744384765625 1307.48291015625 1286.599853515625 1268.9251708984375 1253.57470703125 1244.0146484375 1248.5201416015625 1245.6363525390625 1250.2891845703125 1280.1082763671875 1312.19384765625 1323.1209716796875 1323.791259765625 1326.5418701171875 1329.2374267578125 1334.130859375 1359.93017578125 1386.8990478515625 1394.794921875 1395.6522216796875 1402.38818359375 1408.7130126953125 1408.2606201171875 1403.959228515625 1397.8074951171875 1389.263916015625 1373.5628662109375 1335.806884765625 1285.2266845703125 1237.849365234375 1195.633056640625 1155.4102783203125 1125.2625732421875 1095.1651611328125 1069.2691650390625 1045.46484375 1022.34124755859375 998.27227783203125 
1022.140869140625 1001.943603515625 1000.4105224609375 1016.48321533203125 1038.148193359375 1061.257080078125 1090.0009765625 1122.0106201171875 1144.5535888671875 1153.4871826171875 1143.1826171875 1107.7900390625 1077.638671875 1072.3450927734375 1095.829833984375 1125.1634521484375 1140.1202392578125 1134.7293701171875 1117.786376953125 1097.8194580078125 1075.4105224609375 1049.95263671875 1012.13330078125 972.0675048828125 931.10137939453125 889.19769287109375 835.5762939453125 775.07989501953125 729.61956787109375 689.7967529296875 649.833740234375 612.103515625 574.52392578125 528.47186279296875 488.174591064453125 450.4659423828125 416.0509033203125 388.312774658203125 358.16693115234375 319.008758544921875 285.493133544921875 261.20257568359375 225.788177490234375 174.929443359375 149.5760345458984375 148.849700927734375 179.4311981201171875 211.4305572509765625 225.7181854248046875 247.259613037109375 266.08990478515625 281.873626708984375 303.5223388671875 341.577667236328125 381.13043212890625 414.250946044921875 433.05291748046875 444.39996337890625 459.171234130859375 472.36248779296875 485.4461669921875 504.90228271484375 525.42706298828125 543.88140869140625 568.52215576171875 604.830810546875 650.97021484375 693.48370361328125 738.28656005859375 802.91229248046875 865.25335693359375 931.59130859375 1003.07366943359375 1066.6680908203125 1106.5247802734375 1147.749755859375 1186.793212890625 1212.996826171875 1228.9013671875 1248.221435546875 1264.4024658203125 1287.0216064453125 1326.9583740234375 1373.14111328125 1418.0517578125 1446.3843994140625 1449.014892578125 1450.234375 1484.157470703125 1526.49072265625 1549.634521484375 1565.4625244140625 1564.058349609375 1540.82177734375 1495.372314453125 1439.39306640625 1386.2830810546875 1337.77880859375 1307.140625 1285.9554443359375 1285.1519775390625 1320.645263671875 1350.0404052734375 1365.3931884765625 1347.4173583984375 1313.4180908203125 1333.3594970703125 1380.483154296875 1428.037109375 1444.9749755859375 1429.17822265625 1402.85595703125 1371.8143310546875 1350.10791015625 1340.5177001953125 1330.048095703125 1298.8985595703125 1243.260009765625 1192.7196044921875 1166.1961669921875 1195.2650146484375 1249.3642578125 1264.8909912109375 1253.5596923828125 1240.3953857421875 1264.34765625 1289.61181640625 1292.154052734375 1278.150390625 1242.1142578125 1202.96728515625 1164.124267578125 1124.4930419921875 1101.81640625 1114.67431640625 1164.3095703125 1234.8717041015625 1304.9659423828125 1337.5816650390625 1331.3731689453125 1319.9664306640625 1306.8643798828125 1293.31103515625 1288.5262451171875 1279.6790771484375 1273.3465576171875 1284.9742431640625 1320.8040771484375 1346.588134765625 1357.105712890625 1368.707275390625 1368.5831298828125 1368.16259765625 1386.739501953125 1403.6787109375 1411.36669921875 1409.2525634765625 1412.3150634765625 1414.6395263671875 1414.5108642578125 1414.0888671875 1415.2958984375 1404.284423828125 1376.382080078125 1330.1114501953125 1273.7435302734375 1224.453125 1180.2755126953125 1146.510498046875 1128.260986328125 1107.9481201171875 1089.78369140625 1064.0513916015625 1039.9273681640625 1010.33489990234375 
1028.001953125 1020.25482177734375 1040.65625 1059.1883544921875 1076.22802734375 1091.2261962890625 1104.557861328125 1118.3753662109375 1129.2138671875 1132.94580078125 1127.08642578125 1098.663818359375 1068.4102783203125 1055.9051513671875 1068.6361083984375 1096.2427978515625 1115.2269287109375 1117.708251953125 1107.245361328125 1089.3096923828125 1072.083251953125 1045.2926025390625 1008.193603515625 970.72186279296875 932.14385986328125 891.467041015625 841.70404052734375 796.41839599609375 760.06048583984375 712.52960205078125 662.40130615234375 624.46710205078125 588.898193359375 534.39044189453125 495.98193359375 470.82720947265625 438.382354736328125 399.503448486328125 362.363861083984375 321.365875244140625 289.60980224609375 264.195587158203125 225.224609375 179.026763916015625 147.93634033203125 138.921173095703125 149.2841949462890625 174.5970916748046875 199.6297149658203125 233.99725341796875 260.202423095703125 275.8306884765625 301.98077392578125 347.245758056640625 392.10723876953125 416.968994140625 430.302520751953125 439.796478271484375 455.19061279296875 477.494293212890625 501.31414794921875 517.16943359375 531.0201416015625 545.398193359375 561.288330078125 584.67059326171875 614.2750244140625 648.1102294921875 700.94476318359375 768.16143798828125 834.43328857421875 905.6529541015625 974.997802734375 1020.343017578125 1043.9093017578125 1076.48291015625 1112.2357177734375 1145.5107421875 1159.4683837890625 1172.1055908203125 1190.39111328125 1228.4488525390625 1274.0704345703125 1324.4649658203125 1365.646484375 1386.4993896484375 1388.818603515625 1400.5589599609375 1449.7420654296875 1499.559814453125 1537.615478515625 1568.970458984375 1580.76806640625 1581.2945556640625 1542.0799560546875 1480.387451171875 1423.98779296875 1382.31787109375 1361.84716796875 1344.155517578125 1350.8309326171875 1391.63818359375 1420.0474853515625 1427.0596923828125 1405.1112060546875 1381.656494140625 1397.790283203125 1437.656005859375 1482.9241943359375 1495.3028564453125 1469.513671875 1438.722412109375 1410.8260498046875 1394.183837890625 1384.18603515625 1365.9815673828125 1322.72802734375 1264.683837890625 1218.7099609375 1194.6622314453125 1218.2044677734375 1271.43505859375 1296.111083984375 1291.459228515625 1278.6832275390625 1297.8953857421875 1320.481201171875 1324.9476318359375 1316.2816162109375 1290.041259765625 1251.576416015625 1204.3114013671875 1158.2579345703125 1128.8638916015625 1129.1279296875 1161.26611328125 1217.8289794921875 1295.0308837890625 1354.9027099609375 1371.297119140625 1363.2620849609375 1347.8121337890625 1336.443115234375 1328.252685546875 1312.0345458984375 1293.7640380859375 1296.0355224609375 1323.058837890625 1359.7548828125 1385.6619873046875 1393.438232421875 1393.3409423828125 1388.717041015625 1401.251708984375 1416.1531982421875 1426.4708251953125 1431.3572998046875 1437.4615478515625 1433.77978515625 1429.950927734375 1429.782958984375 1426.982666015625 1407.793212890625 1370.051513671875 1324.8026123046875 1270.05517578125 1216.4197998046875 1187.0682373046875 1180.515869140625 1170.8414306640625 1151.1702880859375 1123.343017578125 1094.177490234375 1070.7861328125 1045.585693359375 
1042.401611328125 1049.1820068359375 1076.698486328125 1095.677490234375 1110.107177734375 1115.263916015625 1109.52392578125 1105.0223388671875 1106.0740966796875 1104.20263671875 1102.798095703125 1083.0770263671875 1056.805419921875 1037.1824951171875 1040.4022216796875 1065.34375 1084.2344970703125 1095.1236572265625 1093.79296875 1085.828369140625 1076.1610107421875 1043.9683837890625 1003.84735107421875 964.42083740234375 926.06964111328125 889.024169921875 841.32568359375 804.47271728515625 775.88018798828125 725.81005859375 671.8768310546875 632.70062255859375 599.6861572265625 548.7943115234375 507.286956787109375 484.229766845703125 455.154571533203125 413.6092529296875 372.22412109375 328.324310302734375 298.9375 268.200775146484375 222.5387115478515625 181.2337799072265625 158.5720672607421875 141.643218994140625 137.0664215087890625 142.900848388671875 169.055145263671875 217.0235443115234375 252.90557861328125 273.648193359375 298.939788818359375 344.85400390625 394.35906982421875 411.445465087890625 412.96905517578125 421.122039794921875 439.56768798828125 470.331390380859375 502.414306640625 530.7537841796875 550.10906982421875 559.5604248046875 576.15155029296875 598.98760986328125 622.21795654296875 639.3797607421875 677.63055419921875 741.6085205078125 812.07122802734375 879.794921875 931.1502685546875 953.5645751953125 969.81640625 1001.83843994140625 1033.7796630859375 1065.847412109375 1080.351806640625 1096.4952392578125 1124.0045166015625 1174.2750244140625 1226.238037109375 1272.406982421875 1304.6495361328125 1319.0709228515625 1327.7379150390625 1355.7021484375 1407.902587890625 1462.0867919921875 1513.572998046875 1559.4781494140625 1584.057861328125 1594.513671875 1572.587646484375 1521.191650390625 1470.1923828125 1440.010986328125 1419.2657470703125 1399.965576171875 1410.8890380859375 1456.438720703125 1494.49658203125 1489.1077880859375 1463.5401611328125 1465.2225341796875 1482.4837646484375 1508.9256591796875 1533.9215087890625 1526.002197265625 1494.140625 1469.85009765625 1451.832275390625 1439.042236328125 1430.91015625 1399.9892578125 1343.5040283203125 1285.4697265625 1242.0804443359375 1233.029052734375 1242.3392333984375 1283.8021240234375 1326.306640625 1331.99560546875 1318.7520751953125 1330.451416015625 1353.8238525390625 1361.1602783203125 1351.2724609375 1328.1456298828125 1281.4102783203125 1228.396240234375 1187.08642578125 1161.3602294921875 1149.64697265625 1163.1373291015625 1209.673828125 1280.08935546875 1354.261474609375 1399.079345703125 1402.7412109375 1386.76025390625 1379.3338623046875 1372.7254638671875 1352.869384765625 1327.4639892578125 1315.9425048828125 1332.6064453125 1369.9310302734375 1407.859375 1425.4400634765625 1421.061767578125 1408.890625 1408.0989990234375 1421.004638671875 1431.62890625 1442.626708984375 1453.190673828125 1450.292724609375 1445.8577880859375 1445.32080078125 1437.2496337890625 1414.3028564453125 1372.9444580078125 1328.294677734375 1283.9688720703125 1238.797119140625 1225.8597412109375 1226.663818359375 1212.6968994140625 1185.0638427734375 1157.0025634765625 1131.0775146484375 1100.1761474609375 1073.0050048828125 
1065.6990966796875 1072.7371826171875 1099.3309326171875 1126.91943359375 1135.3111572265625 1125.820068359375 1108.74755859375 1095.971435546875 1086.7308349609375 1082.01953125 1078.517333984375 1060.5946044921875 1042.7630615234375 1027.0738525390625 1016.91552734375 1028.4610595703125 1048.6185302734375 1064.4259033203125 1065.039306640625 1068.1251220703125 1074.5584716796875 1051.325439453125 1011.22796630859375 961.88470458984375 921.018310546875 877.3719482421875 826.69915771484375 795.23626708984375 766.475341796875 724.24517822265625 680.194091796875 651.015625 618.994873046875 559.1396484375 514.62432861328125 494.25 465.16973876953125 421.92864990234375 378.0601806640625 332.492767333984375 298.335205078125 267.516143798828125 225.7157135009765625 188.02838134765625 172.2294921875 158.323699951171875 143.036468505859375 135.9011993408203125 151.209808349609375 201.584686279296875 244.5099334716796875 268.486358642578125 293.540130615234375 341.587982177734375 386.444091796875 388.333038330078125 396.6593017578125 423.0753173828125 461.141693115234375 501.954376220703125 515.94195556640625 531.91766357421875 564.16070556640625 582.24273681640625 610.9417724609375 645.41912841796875 672.46539306640625 667.93865966796875 675.6910400390625 717.31561279296875 773.04827880859375 827.3486328125 864.51763916015625 884.54571533203125 904.83856201171875 935.73004150390625 964.226806640625 992.5540771484375 1009.44384765625 1032.6746826171875 1069.6978759765625 1122.0283203125 1174.9500732421875 1215.512939453125 1242.000732421875 1258.582275390625 1275.085205078125 1311.96923828125 1362.505126953125 1417.931884765625 1476.280029296875 1536.9249267578125 1578.035888671875 1599.536376953125 1602.5067138671875 1577.181396484375 1535.6259765625 1507.9906005859375 1484.244873046875 1462.308349609375 1470.6925048828125 1515.6517333984375 1557.2174072265625 1552.5811767578125 1538.8475341796875 1553.1580810546875 1576.2664794921875 1586.2022705078125 1575.652099609375 1535.783203125 1509.2037353515625 1497.06884765625 1491.703125 1488.07470703125 1466.370361328125 1419.648681640625 1362.300048828125 1311.48193359375 1285.2879638671875 1292.5196533203125 1300.6904296875 1322.9346923828125 1356.5692138671875 1370.229248046875 1362.469482421875 1371.54052734375 1393.0709228515625 1398.1141357421875 1384.568115234375 1349.6336669921875 1300.481201171875 1259.7105712890625 1231.3355712890625 1203.9947509765625 1182.9088134765625 1179.0408935546875 1209.8502197265625 1269.6112060546875 1343.51513671875 1404.9095458984375 1429.6195068359375 1425.0059814453125 1420.2713623046875 1413.29345703125 1391.50830078125 1360.754638671875 1343.60400390625 1355.2867431640625 1383.5048828125 1423.4622802734375 1458.3382568359375 1459.584228515625 1443.573486328125 1431.2940673828125 1428.29931640625 1435.6065673828125 1445.48779296875 1453.7330322265625 1454.068603515625 1451.957763671875 1453.3402099609375 1441.2760009765625 1426.96142578125 1399.7882080078125 1357.0008544921875 1313.776611328125 1277.6171875 1269.0755615234375 1262.062744140625 1237.468017578125 1203.6475830078125 1174.58544921875 1147.1787109375 1117.5404052734375 1086.94091796875 
1088.405517578125 1094.00048828125 1117.8623046875 1143.1842041015625 1143.902099609375 1130.5244140625 1116.2935791015625 1104.80615234375 1089.2186279296875 1078.15283203125 1066.9267578125 1050.8096923828125 1036.2066650390625 1027.482421875 1013.62725830078125 999.76080322265625 1005.55084228515625 1018.85760498046875 1016.45953369140625 1033.8126220703125 1051.2156982421875 1035.0198974609375 1004.70758056640625 957.15576171875 911.40289306640625 856.7862548828125 799.29461669921875 767.37921142578125 747.0435791015625 723.0211181640625 695.9825439453125 668.875244140625 622.52667236328125 559.662841796875 520.9248046875 499.67449951171875 475.24578857421875 436.470550537109375 392.348907470703125 336.789520263671875 298.813385009765625 270.965362548828125 230.0384674072265625 195.303558349609375 184.099273681640625 179.9689178466796875 167.2696533203125 145.5176239013671875 143.2574310302734375 178.78509521484375 227.9125213623046875 262.2930908203125 289.128570556640625 331.402099609375 361.428131103515625 367.8721923828125 398.199676513671875 438.571868896484375 498.48004150390625 548.810791015625 564.1065673828125 559.6656494140625 577.78668212890625 609.5889892578125 656.8675537109375 697.95751953125 727.19854736328125 725.30072021484375 719.16064453125 724.7791748046875 752.33673095703125 786.37921142578125 811.6468505859375 835.05517578125 865.05029296875 897.474609375 926.263427734375 955.7042236328125 989.08892822265625 1032.2088623046875 1055.9140625 1088.566650390625 1131.7315673828125 1163.5574951171875 1187.0869140625 1209.4071044921875 1237.9110107421875 1278.6629638671875 1326.007080078125 1381.1004638671875 1444.325927734375 1510.984619140625 1564.2061767578125 1598.92578125 1618.1553955078125 1619.541015625 1603.11767578125 1585.779541015625 1562.0068359375 1535.0689697265625 1529.79052734375 1562.9791259765625 1603.1771240234375 1614.71533203125 1618.4971923828125 1643.0096435546875 1663.262939453125 1638.9295654296875 1590.5560302734375 1550.668212890625 1529.300048828125 1528.5931396484375 1537.35302734375 1529.072265625 1488.4920654296875 1438.00439453125 1390.73583984375 1346.4027099609375 1339.841064453125 1360.5240478515625 1375.6363525390625 1393.974365234375 1411.08251953125 1412.302001953125 1406.164306640625 1412.123779296875 1432.8997802734375 1437.226806640625 1421.2698974609375 1380.185791015625 1337.43701171875 1312.999267578125 1290.3297119140625 1249.2264404296875 1215.8154296875 1203.9237060546875 1216.768798828125 1269.7275390625 1342.820068359375 1406.283935546875 1442.8583984375 1453.37939453125 1454.05712890625 1445.9951171875 1423.7733154296875 1388.2032470703125 1365.92236328125 1383.923583984375 1409.467041015625 1436.0345458984375 1472.3592529296875 1483.969970703125 1469.222900390625 1454.1328125 1445.6328125 1447.3482666015625 1453.8714599609375 1457.9873046875 1462.4146728515625 1463.7708740234375 1458.797119140625 1449.197998046875 1447.182373046875 1427.10205078125 1389.6051025390625 1349.02783203125 1317.0172119140625 1297.072265625 1276.8848876953125 1244.829345703125 1206.526611328125 1173.6307373046875 1141.90576171875 1113.5728759765625 1085.9833984375 
1112.576416015625 1119.78564453125 1130.022705078125 1146.6124267578125 1150.228759765625 1143.43505859375 1133.160888671875 1120.2327880859375 1102.1986083984375 1086.35986328125 1073.1868896484375 1060.75830078125 1044.643798828125 1027.3189697265625 1004.61688232421875 970.893798828125 952.28277587890625 958.53985595703125 954.49969482421875 974.73260498046875 989.86669921875 972.0087890625 959.51837158203125 936.73431396484375 889.69384765625 830.93377685546875 772.5765380859375 732.04705810546875 716.49566650390625 706.2283935546875 695.8115234375 666.5655517578125 614.41424560546875 552.99267578125 520.128173828125 496.6297607421875 477.9007568359375 449.76055908203125 401.739959716796875 337.440704345703125 298.158935546875 273.537567138671875 239.1598358154296875 207.7634429931640625 198.8964080810546875 195.570220947265625 182.9388885498046875 160.23724365234375 142.452606201171875 158.72625732421875 209.112640380859375 257.797119140625 288.85186767578125 317.680938720703125 335.7335205078125 360.1884765625 398.80560302734375 444.9710693359375 516.836181640625 576.1571044921875 611.7723388671875 612.28759765625 611.67236328125 643.2628173828125 694.6495361328125 734.3116455078125 770.32550048828125 789.7125244140625 792.9346923828125 780.64715576171875 796.55255126953125 830.9486083984375 848.25628662109375 867.64117431640625 896.30877685546875 937.77337646484375 975.130126953125 1000.3787841796875 1033.8353271484375 1081.5928955078125 1097.28662109375 1098.60009765625 1119.711669921875 1152.821044921875 1179.9371337890625 1203.22705078125 1223.4833984375 1257.5474853515625 1300.644287109375 1356.0111083984375 1427.8720703125 1496.2318115234375 1552.381591796875 1591.3175048828125 1612.4046630859375 1625.9288330078125 1632.8896484375 1637.4620361328125 1636.6446533203125 1617.689208984375 1599.13134765625 1609.943603515625 1641.51318359375 1666.6219482421875 1683.2860107421875 1699.5880126953125 1696.8580322265625 1647.2255859375 1605.400390625 1580.3797607421875 1570.05224609375 1581.3665771484375 1582.416015625 1553.5404052734375 1508.6827392578125 1466.613037109375 1421.8511962890625 1384.382568359375 1390.73486328125 1424.091552734375 1450.898681640625 1470.6865234375 1481.9468994140625 1472.9129638671875 1453.1199951171875 1450.201416015625 1466.0299072265625 1470.027587890625 1456.4710693359375 1423.47900390625 1389.8779296875 1360.2904052734375 1323.0863037109375 1275.0045166015625 1243.9967041015625 1231.7720947265625 1230.6680908203125 1267.6060791015625 1335.703125 1401.2701416015625 1448.832275390625 1473.032470703125 1481.7083740234375 1475.09228515625 1453.056396484375 1414.42138671875 1386.9246826171875 1409.91259765625 1445.6279296875 1473.1614990234375 1500.690185546875 1508.68017578125 1489.7039794921875 1465.3214111328125 1460.0625 1462.975341796875 1469.44482421875 1474.550048828125 1483.5196533203125 1487.2188720703125 1477.8546142578125 1468.7872314453125 1467.39306640625 1450.6505126953125 1419.100341796875 1381.914306640625 1347.2646484375 1315.1134033203125 1282.710205078125 1239.080078125 1196.6422119140625 1160.3182373046875 1128.3082275390625 1099.7464599609375 1073.404296875 
1143.8626708984375 1148.3973388671875 1145.602294921875 1151.221923828125 1161.041259765625 1158.7821044921875 1151.4893798828125 1135.1763916015625 1117.653076171875 1099.621826171875 1076.819580078125 1051.2431640625 1022.585205078125 992.2855224609375 961.685546875 928.16583251953125 897.4765625 894.27349853515625 888.45751953125 897.43280029296875 912.0880126953125 895.28271484375 889.2498779296875 886.253173828125 854.60943603515625 797.34130859375 741.91937255859375 699.9898681640625 680.05291748046875 669.71099853515625 665.420166015625 639.718505859375 593.4027099609375 536.99298095703125 503.6732177734375 480.730743408203125 464.065582275390625 444.795166015625 400.113525390625 336.806488037109375 296.694488525390625 276.34716796875 254.7871551513671875 227.93603515625 212.391571044921875 203.4353485107421875 186.92181396484375 164.3497161865234375 141.0960693359375 147.8162078857421875 196.0885162353515625 248.974700927734375 285.878387451171875 306.662353515625 326.0037841796875 356.251434326171875 396.238739013671875 440.90850830078125 507.465240478515625 573.548583984375 623.93341064453125 641.81182861328125 648.9913330078125 673.4801025390625 706.06256103515625 739.4697265625 784.08746337890625 830.51702880859375 848.68438720703125 838.7264404296875 858.51934814453125 891.79351806640625 930.89007568359375 943.4959716796875 952.612548828125 996.545166015625 1048.19482421875 1074.6690673828125 1094.65576171875 1139.689208984375 1161.885009765625 1153.0250244140625 1157.9259033203125 1203.07958984375 1239.83740234375 1258.992431640625 1251.190185546875 1250.946044921875 1283.8974609375 1341.899658203125 1418.57763671875 1486.7552490234375 1541.3670654296875 1576.9381103515625 1598.2344970703125 1613.5186767578125 1631.24853515625 1651.7269287109375 1663.9625244140625 1659.05810546875 1648.5255126953125 1647.961669921875 1663.101806640625 1679.163818359375 1690.4632568359375 1701.055419921875 1698.2908935546875 1673.1038818359375 1650.3087158203125 1632.8203125 1627.5467529296875 1633.0689697265625 1611.07763671875 1567.44921875 1527.9998779296875 1491.3580322265625 1451.56103515625 1428.46826171875 1434.10791015625 1470.0181884765625 1508.0438232421875 1532.9801025390625 1546.958251953125 1539.4827880859375 1517.8924560546875 1502.9176025390625 1501.6505126953125 1496.0252685546875 1482.2376708984375 1452.3101806640625 1418.4501953125 1373.9447021484375 1325.1033935546875 1297.7991943359375 1284.061767578125 1270.6932373046875 1257.38330078125 1275.2911376953125 1335.1942138671875 1401.5804443359375 1459.753662109375 1496.4930419921875 1510.196533203125 1504.84521484375 1482.2913818359375 1440.5155029296875 1413.20751953125 1442.4942626953125 1483.46337890625 1515.3702392578125 1537.9510498046875 1530.8883056640625 1507.352294921875 1481.4857177734375 1474.40576171875 1480.2763671875 1494.4591064453125 1500.326171875 1507.8389892578125 1511.769775390625 1503.5411376953125 1494.9117431640625 1489.1842041015625 1471.5694580078125 1442.5885009765625 1403.56005859375 1362.0716552734375 1327.9036865234375 1286.5328369140625 1232.77880859375 1190.9866943359375 1156.4559326171875 1123.9439697265625 1090.96435546875 1060.912109375 
1175.304443359375 1176.284423828125 1168.85986328125 1164.1845703125 1177.8988037109375 1176.009033203125 1164.16748046875 1151.1092529296875 1128.83740234375 1103.6400146484375 1067.22802734375 1021.62298583984375 976.8359375 942.1353759765625 909.4588623046875 878.48944091796875 848.717529296875 835.20172119140625 825.113525390625 823.56011962890625 831.72076416015625 822.67095947265625 818.4366455078125 820.94366455078125 805.67572021484375 762.06903076171875 714.18853759765625 680.79583740234375 652.292724609375 631.569580078125 622.01348876953125 599.265380859375 559.1790771484375 516.4339599609375 483.607452392578125 461.439239501953125 445.883636474609375 427.687042236328125 395.836669921875 338.701904296875 300.259857177734375 284.406402587890625 270.7998046875 241.6380462646484375 220.4691619873046875 209.7155609130859375 196.0552978515625 165.8349456787109375 139.478485107421875 147.286895751953125 196.3944091796875 248.868865966796875 287.053466796875 318.462982177734375 338.78875732421875 358.80572509765625 390.56146240234375 433.155487060546875 489.70263671875 549.51727294921875 605.0419921875 643.52471923828125 664.662109375 681.22698974609375 703.8275146484375 735.076904296875 784.8050537109375 842.90020751953125 881.13372802734375 891.711669921875 913.6546630859375 943.13226318359375 979.08087158203125 1001.57598876953125 1009.5706787109375 1046.405517578125 1103.4200439453125 1137.43310546875 1157.124755859375 1198.7696533203125 1227.7335205078125 1220.1517333984375 1211.8232421875 1247.1180419921875 1294.1766357421875 1315.6160888671875 1296.2000732421875 1271.3212890625 1282.8267822265625 1334.3076171875 1404.537841796875 1471.4053955078125 1515.6943359375 1545.6290283203125 1568.4114990234375 1589.2816162109375 1620.2752685546875 1645.7005615234375 1656.1741943359375 1652.4644775390625 1650.0557861328125 1650.2713623046875 1659.1756591796875 1670.3724365234375 1681.8206787109375 1695.441162109375 1705.3883056640625 1711.6790771484375 1709.703857421875 1695.1888427734375 1690.45068359375 1674.4324951171875 1631.8292236328125 1583.8521728515625 1546.1998291015625 1516.15478515625 1495.63623046875 1477.0032958984375 1476.9306640625 1509.0823974609375 1552.40966796875 1579.7999267578125 1593.229248046875 1586.146484375 1567.3077392578125 1549.13134765625 1528.5296630859375 1506.645751953125 1489.3480224609375 1455.564453125 1411.7996826171875 1370.0205078125 1343.272705078125 1342.4573974609375 1337.96435546875 1320.640380859375 1298.043212890625 1294.9342041015625 1344.0753173828125 1407.3052978515625 1471.30908203125 1522.1492919921875 1542.14453125 1539.6629638671875 1516.26416015625 1470.757080078125 1436.7835693359375 1467.8939208984375 1512.234375 1546.417724609375 1562.6728515625 1548.02734375 1521.8885498046875 1499.9039306640625 1493.431884765625 1502.5975341796875 1514.0760498046875 1519.856201171875 1527.7298583984375 1529.090576171875 1524.6939697265625 1518.8348388671875 1508.8336181640625 1491.116943359375 1455.707763671875 1410.8173828125 1364.2926025390625 1326.213134765625 1282.95703125 1233.7464599609375 1189.3170166015625 1158.6905517578125 1132.188720703125 1097.408203125 1061.0303955078125 
1208.458251953125 1207.7506103515625 1192.1141357421875 1178.7967529296875 1188.4385986328125 1184.5068359375 1169.345458984375 1154.4052734375 1123.2432861328125 1083.7279052734375 1037.0213623046875 983.47332763671875 936.60968017578125 897.80804443359375 862.188720703125 828.56756591796875 808.2940673828125 794.97589111328125 782.358642578125 768.8231201171875 766.9876708984375 765.41259765625 756.2767333984375 753.27984619140625 745.8070068359375 721.27496337890625 683.03106689453125 664.5804443359375 636.3780517578125 607.910888671875 585.491455078125 561.12841796875 525.42535400390625 489.4036865234375 462.96221923828125 442.0697021484375 426.869110107421875 406.69549560546875 383.071533203125 338.65643310546875 306.546844482421875 290.50054931640625 276.11273193359375 246.5535888671875 228.768951416015625 219.1440277099609375 202.815277099609375 167.2181243896484375 141.52838134765625 151.9708099365234375 200.3083038330078125 252.810882568359375 296.35491943359375 334.648284912109375 360.90289306640625 380.207427978515625 398.654632568359375 427.4722900390625 466.66217041015625 515.6727294921875 569.7008056640625 618.5146484375 651.6968994140625 674.69610595703125 700.45794677734375 736.924560546875 790.10931396484375 847.46990966796875 900.27459716796875 933.50830078125 962.71160888671875 1002.880126953125 1032.414306640625 1059.69775390625 1071.4036865234375 1095.42724609375 1141.061767578125 1184.033203125 1218.073974609375 1255.1212158203125 1290.0379638671875 1284.0386962890625 1268.878173828125 1294.400390625 1335.483642578125 1361.573486328125 1345.6949462890625 1309.8094482421875 1302.0740966796875 1339.7178955078125 1389.31689453125 1443.0279541015625 1481.42333984375 1505.2012939453125 1528.524658203125 1559.708251953125 1598.5048828125 1626.6231689453125 1635.3017578125 1629.62939453125 1633.2464599609375 1639.105224609375 1646.995849609375 1661.61279296875 1679.7333984375 1698.318359375 1716.385009765625 1745.822021484375 1767.0599365234375 1762.3297119140625 1744.8311767578125 1696.0908203125 1640.03173828125 1590.866455078125 1560.2218017578125 1551.4656982421875 1546.101806640625 1531.2572021484375 1523.607421875 1549.604736328125 1594.7147216796875 1622.0361328125 1634.62939453125 1628.6990966796875 1608.1812744140625 1578.9036865234375 1544.4793701171875 1511.8004150390625 1487.3447265625 1457.072998046875 1417.7900390625 1388.4166259765625 1379.686767578125 1389.07568359375 1382.5469970703125 1362.06689453125 1334.5484619140625 1318.616943359375 1354.70068359375 1414.6253662109375 1480.7374267578125 1535.6346435546875 1567.765625 1571.211669921875 1545.7623291015625 1500.44970703125 1464.808349609375 1482.272705078125 1527.2186279296875 1570.240478515625 1589.2930908203125 1568.5260009765625 1539.154052734375 1521.616943359375 1515.3814697265625 1527.4324951171875 1541.69140625 1542.3226318359375 1548.927978515625 1553.871826171875 1550.283447265625 1542.181884765625 1517.7288818359375 1496.899658203125 1464.9271240234375 1417.980224609375 1364.6461181640625 1316.4697265625 1271.4635009765625 1227.072998046875 1184.4967041015625 1153.0413818359375 1128.6796875 1100.303955078125 1066.0302734375 
1232.4256591796875 1236.8336181640625 1215.7137451171875 1186.2169189453125 1183.7520751953125 1177.1448974609375 1159.34326171875 1138.593994140625 1100.4822998046875 1046.9686279296875 994.68768310546875 942.322998046875 896.734375 857.78057861328125 823.43798828125 798.7122802734375 784.39276123046875 766.32110595703125 750.6180419921875 726.9869384765625 713.9161376953125 717.5113525390625 709.6719970703125 700.155029296875 693.71343994140625 677.32666015625 649.49786376953125 643.53082275390625 618.46038818359375 594.24468994140625 570.82171630859375 538.7838134765625 497.239501953125 461.483062744140625 434.564544677734375 417.9254150390625 400.9197998046875 378.0738525390625 358.749237060546875 332.847076416015625 310.041748046875 291.467254638671875 268.415496826171875 248.215789794921875 236.7297210693359375 223.8945465087890625 202.925567626953125 162.863006591796875 137.2012176513671875 151.5965423583984375 202.7837677001953125 255.6578216552734375 291.902984619140625 322.33050537109375 352.103240966796875 378.72796630859375 402.48419189453125 421.818389892578125 446.400390625 489.4561767578125 543.4671630859375 590.935302734375 621.646240234375 652.502685546875 689.495361328125 734.46783447265625 785.673828125 841.04583740234375 905.23486328125 949.6668701171875 990.69854736328125 1038.2593994140625 1082.3868408203125 1108.248779296875 1129.2723388671875 1145.0673828125 1180.97216796875 1226.8056640625 1276.8209228515625 1318.1031494140625 1348.2158203125 1340.6484375 1330.268798828125 1350.499755859375 1386.701416015625 1405.19677734375 1386.25537109375 1352.520263671875 1331.11669921875 1351.220458984375 1386.639892578125 1420.6978759765625 1448.284423828125 1464.08349609375 1488.8450927734375 1525.926513671875 1569.2650146484375 1597.0087890625 1607.54248046875 1609.0128173828125 1615.09423828125 1620.33935546875 1633.6083984375 1654.0552978515625 1679.139892578125 1703.5823974609375 1735.3631591796875 1776.8338623046875 1810.4871826171875 1819.9505615234375 1784.3829345703125 1718.7958984375 1652.28515625 1595.734619140625 1579.576904296875 1590.6016845703125 1589.158935546875 1577.6942138671875 1571.076904296875 1593.93115234375 1639.2587890625 1669.2603759765625 1682.26708984375 1670.00927734375 1635.411376953125 1593.5882568359375 1551.7274169921875 1521.3145751953125 1498.7247314453125 1471.5489501953125 1440.53271484375 1418.1048583984375 1420.291748046875 1429.431396484375 1416.8912353515625 1390.0426025390625 1358.6502685546875 1338.984375 1366.073486328125 1426.62060546875 1489.880859375 1543.6585693359375 1585.275146484375 1596.0166015625 1571.905029296875 1534.67431640625 1504.880126953125 1515.9525146484375 1557.5374755859375 1595.1190185546875 1614.5003662109375 1597.1546630859375 1560.034423828125 1542.7530517578125 1534.1434326171875 1540.152587890625 1550.9190673828125 1557.5560302734375 1563.26416015625 1567.287841796875 1565.7144775390625 1550.326904296875 1518.600830078125 1491.7027587890625 1468.926025390625 1429.8858642578125 1375.0211181640625 1320.7227783203125 1273.94140625 1237.999755859375 1197.0992431640625 1155.97265625 1118.0731201171875 1082.7039794921875 1052.3082275390625 
1258.19482421875 1259.1907958984375 1237.936767578125 1199.7913818359375 1178.2567138671875 1164.267822265625 1140.4200439453125 1112.1771240234375 1065.6427001953125 1003.67333984375 945.482177734375 899.408935546875 860.05462646484375 842.5230712890625 833.25775146484375 838.1468505859375 832.62255859375 804.2955322265625 771.40826416015625 734.30072021484375 693.3250732421875 674.2454833984375 665.3514404296875 654.00030517578125 646.81658935546875 634.0972900390625 612.88580322265625 606.39532470703125 583.0205078125 557.30914306640625 538.6029052734375 509.938934326171875 463.487518310546875 432.804779052734375 412.940399169921875 394.12652587890625 375.31085205078125 357.47174072265625 337.240142822265625 317.495697021484375 302.69915771484375 287.664703369140625 272.866790771484375 258.542236328125 241.608367919921875 223.18182373046875 198.6064300537109375 160.2785491943359375 140.0701751708984375 161.9053955078125 213.052734375 254.5032806396484375 284.1212158203125 307.831085205078125 332.308074951171875 357.35516357421875 381.132476806640625 402.48651123046875 433.9697265625 483.328399658203125 535.90625 568.20062255859375 583.943115234375 622.15557861328125 668.7977294921875 713.9857177734375 768.3160400390625 832.46649169921875 899.7691650390625 953.03448486328125 1005.598388671875 1060.26123046875 1108.08154296875 1136.667724609375 1171.5751953125 1198.0751953125 1233.32861328125 1276.0159912109375 1325.1439208984375 1370.679443359375 1400.2891845703125 1391.9171142578125 1385.3197021484375 1411.04833984375 1439.9471435546875 1441.9857177734375 1420.37060546875 1389.27197265625 1364.15625 1377.72607421875 1418.1065673828125 1443.642822265625 1449.0079345703125 1455.8250732421875 1473.9393310546875 1500.8914794921875 1536.0003662109375 1564.1473388671875 1575.1358642578125 1586.745849609375 1598.5528564453125 1604.6373291015625 1622.428955078125 1648.452880859375 1680.5435791015625 1714.909423828125 1758.4312744140625 1804.279541015625 1844.0462646484375 1852.7877197265625 1826.41748046875 1768.0108642578125 1689.9752197265625 1631.2322998046875 1625.14013671875 1642.94140625 1630.8199462890625 1617.4752197265625 1618.1671142578125 1636.582763671875 1675.42822265625 1716.0513916015625 1729.430419921875 1707.0069580078125 1656.7545166015625 1606.4432373046875 1558.224365234375 1531.8980712890625 1514.526611328125 1491.373291015625 1465.67578125 1453.6829833984375 1462.4212646484375 1460.8680419921875 1437.3150634765625 1411.3321533203125 1384.1163330078125 1363.2095947265625 1379.2781982421875 1442.7681884765625 1512.249755859375 1560.245361328125 1601.095703125 1627.4931640625 1611.6259765625 1573.7325439453125 1547.6822509765625 1556.232177734375 1587.974853515625 1619.4088134765625 1636.45361328125 1626.9178466796875 1586.821533203125 1561.1968994140625 1550.093505859375 1553.232421875 1557.778076171875 1558.676025390625 1555.1029052734375 1552.811279296875 1551.6492919921875 1537.87255859375 1506.9337158203125 1476.2510986328125 1457.763671875 1434.5074462890625 1391.604736328125 1345.17578125 1297.109130859375 1252.9105224609375 1212.5843505859375 1168.99462890625 1129.283203125 1089.8551025390625 1050.7598876953125 
1286.4326171875 1280.019287109375 1253.23486328125 1217.8360595703125 1186.599365234375 1166.723876953125 1138.685546875 1095.97705078125 1035.152099609375 972.071533203125 907.861572265625 881.16058349609375 883.568603515625 899.81866455078125 909.32275390625 930.5059814453125 942.7706298828125 898.18841552734375 840.11279296875 788.19140625 739.22027587890625 694.9456787109375 662.64166259765625 639.0809326171875 617.5107421875 600.35906982421875 583.35858154296875 569.78472900390625 544.484130859375 516.36163330078125 496.57391357421875 480.394317626953125 458.52239990234375 456.0675048828125 443.608489990234375 415.247467041015625 393.558258056640625 378.449554443359375 349.323516845703125 321.0009765625 308.299072265625 296.332977294921875 284.476043701171875 267.689239501953125 242.518035888671875 220.4791412353515625 190.2081756591796875 152.659759521484375 142.181610107421875 175.6490631103515625 221.717742919921875 260.08685302734375 296.88702392578125 325.602020263671875 340.2059326171875 351.872283935546875 368.735382080078125 388.3983154296875 421.634857177734375 466.769256591796875 506.65325927734375 530.75030517578125 556.4923095703125 601.68218994140625 643.66497802734375 692.050048828125 753.1251220703125 823.8646240234375 896.76324462890625 961.07257080078125 1021.1629638671875 1083.166748046875 1124.914794921875 1156.794677734375 1200.6541748046875 1241.531005859375 1280.4927978515625 1323.504638671875 1373.2774658203125 1424.6378173828125 1451.4337158203125 1443.1361083984375 1439.0062255859375 1468.931640625 1490.2071533203125 1477.5660400390625 1451.7080078125 1421.127685546875 1396.3048095703125 1401.6265869140625 1434.848388671875 1464.1357421875 1478.055908203125 1491.92236328125 1503.5438232421875 1509.34423828125 1518.7935791015625 1537.37158203125 1551.856689453125 1568.5538330078125 1582.4793701171875 1589.46044921875 1608.979736328125 1642.0732421875 1681.5255126953125 1723.4478759765625 1772.3875732421875 1825.8773193359375 1863.2689208984375 1873.27001953125 1870.4180908203125 1826.0889892578125 1749.3685302734375 1688.860595703125 1688.2154541015625 1705.8641357421875 1680.42822265625 1659.9017333984375 1659.0283203125 1667.11767578125 1694.557373046875 1740.14892578125 1762.4906005859375 1735.48291015625 1681.3797607421875 1627.531494140625 1574.0224609375 1544.947998046875 1531.855224609375 1510.67919921875 1489.32470703125 1485.8843994140625 1498.0238037109375 1491.9739990234375 1462.72802734375 1430.9735107421875 1408.86181640625 1391.8323974609375 1393.94140625 1447.87646484375 1520.2342529296875 1573.9903564453125 1614.1240234375 1648.7418212890625 1652.0906982421875 1615.0712890625 1584.4722900390625 1591.2171630859375 1623.513671875 1653.1917724609375 1660.913330078125 1651.359375 1618.8790283203125 1585.4097900390625 1567.3553466796875 1551.285888671875 1543.0396728515625 1533.146240234375 1515.8004150390625 1508.5546875 1509.61474609375 1507.687255859375 1479.75390625 1443.2724609375 1423.51416015625 1410.1151123046875 1386.033203125 1356.7900390625 1315.1640625 1269.2705078125 1228.721923828125 1186.59521484375 1152.3060302734375 1116.9390869140625 1082.0316162109375 
1310.5791015625 1295.28662109375 1266.974365234375 1235.6246337890625 1207.4168701171875 1183.4200439453125 1142.304443359375 1079.553955078125 1012.05670166015625 952.612060546875 918.33502197265625 936.54931640625 961.37847900390625 979.3590087890625 993.17578125 1013.58221435546875 1014.76513671875 969.88665771484375 913.85888671875 858.72222900390625 813.27557373046875 768.3861083984375 726.09576416015625 700.37261962890625 659.4725341796875 632.5753173828125 617.37255859375 587.11077880859375 557.5751953125 535.3775634765625 517.9896240234375 509.3873291015625 515.36798095703125 514.96142578125 487.330322265625 455.082122802734375 430.4521484375 398.438446044921875 359.507232666015625 329.1854248046875 313.9306640625 296.539031982421875 281.624053955078125 268.463348388671875 245.64459228515625 220.1204986572265625 182.889862060546875 146.7212677001953125 140.439178466796875 177.790771484375 219.88568115234375 257.36102294921875 295.836151123046875 326.924163818359375 340.80487060546875 347.229583740234375 358.232177734375 374.26373291015625 403.828216552734375 440.34808349609375 471.8426513671875 502.63751220703125 543.93560791015625 588.9591064453125 629.935546875 684.3016357421875 751.310302734375 823.150390625 899.62579345703125 969.99847412109375 1036.9378662109375 1096.92919921875 1138.63720703125 1176.99853515625 1221.6434326171875 1272.7489013671875 1314.5853271484375 1355.2681884765625 1407.9249267578125 1463.463134765625 1496.1754150390625 1504.433349609375 1505.0380859375 1525.326171875 1537.024658203125 1516.8514404296875 1486.6927490234375 1456.9813232421875 1429.73828125 1433.6512451171875 1452.533203125 1472.707763671875 1494.7508544921875 1515.472412109375 1532.3770751953125 1543.7642822265625 1540.751953125 1542.8203125 1553.7315673828125 1573.5062255859375 1586.99755859375 1588.4554443359375 1601.2110595703125 1638.1566162109375 1681.7718505859375 1727.1715087890625 1777.9771728515625 1831.3624267578125 1867.80322265625 1889.749755859375 1909.4107666015625 1880.6904296875 1819.0601806640625 1770.0789794921875 1767.7672119140625 1772.513671875 1729.768798828125 1701.6456298828125 1692.655517578125 1691.7203369140625 1714.373779296875 1758.4332275390625 1781.409423828125 1751.9781494140625 1695.2239990234375 1635.01611328125 1583.205078125 1563.3817138671875 1552.0224609375 1530.0413818359375 1512.1591796875 1514.1505126953125 1527.6875 1525.7943115234375 1493.252197265625 1456.781005859375 1434.44091796875 1420.0177001953125 1414.2022705078125 1454.6279296875 1529.33740234375 1588.0936279296875 1634.5662841796875 1669.582275390625 1683.2178955078125 1657.879638671875 1626.73828125 1634.382568359375 1670.765869140625 1696.701171875 1688.9932861328125 1667.3953857421875 1637.983642578125 1606.5274658203125 1583.91552734375 1560.5723876953125 1534.26904296875 1510.02734375 1483.251220703125 1460.703125 1455.6732177734375 1453.0394287109375 1432.901123046875 1401.0941162109375 1372.3843994140625 1357.392333984375 1346.5445556640625 1333.075439453125 1310.4281005859375 1281.36865234375 1243.1331787109375 1201.19775390625 1168.3822021484375 1137.97412109375 1105.87744140625 
1329.6622314453125 1308.7886962890625 1277.406494140625 1244.50048828125 1212.7921142578125 1176.8238525390625 1124.488037109375 1058.2730712890625 995.08837890625 952.36956787109375 967.951171875 1004.40216064453125 1038.536376953125 1055.2750244140625 1066.4041748046875 1072.71630859375 1058.307861328125 1019.21990966796875 980.39166259765625 946.162841796875 899.00286865234375 843.167236328125 801.97265625 787.47900390625 766.95513916015625 729.669677734375 683.1600341796875 646.7625732421875 618.0645751953125 591.12579345703125 577.77801513671875 572.68768310546875 576.319580078125 560.35760498046875 528.96209716796875 490.436370849609375 456.793426513671875 416.074859619140625 367.202667236328125 333.0909423828125 313.993560791015625 295.358184814453125 282.16082763671875 270.699798583984375 251.21929931640625 224.4341888427734375 178.830352783203125 142.3805084228515625 141.2585906982421875 177.2765350341796875 213.5789794921875 250.1911773681640625 280.423797607421875 302.28778076171875 314.927734375 329.242919921875 349.01788330078125 371.283538818359375 394.299346923828125 429.551025390625 467.219329833984375 494.998138427734375 531.20562744140625 577.626220703125 628.15924072265625 688.89453125 751.2421875 819.19830322265625 890.51324462890625 959.27606201171875 1027.056640625 1092.346435546875 1150.1318359375 1202.62060546875 1247.875732421875 1298.4710693359375 1335.6439208984375 1380.868408203125 1443.367431640625 1497.6986083984375 1538.8892822265625 1561.66162109375 1567.743896484375 1577.0576171875 1574.0281982421875 1548.2825927734375 1516.5535888671875 1487.292236328125 1463.341064453125 1465.606201171875 1477.9991455078125 1488.5069580078125 1506.3336181640625 1526.6065673828125 1541.9613037109375 1558.60693359375 1565.1507568359375 1570.1588134765625 1580.8890380859375 1598.0904541015625 1611.7513427734375 1606.71484375 1604.3544921875 1636.525146484375 1679.2159423828125 1724.022216796875 1772.4075927734375 1821.6068115234375 1861.68017578125 1893.067626953125 1929.4493408203125 1926.40283203125 1895.1163330078125 1852.819091796875 1841.060302734375 1828.5582275390625 1770.0693359375 1732.667724609375 1721.4366455078125 1722.088623046875 1748.3455810546875 1783.1422119140625 1794.8428955078125 1754.5682373046875 1690.776123046875 1626.165771484375 1587.8173828125 1579.0718994140625 1567.959228515625 1545.5302734375 1530.7569580078125 1539.4757080078125 1554.6053466796875 1554.0687255859375 1525.244873046875 1489.7845458984375 1464.46533203125 1446.9814453125 1439.45361328125 1469.950439453125 1541.430908203125 1609.1856689453125 1656.9891357421875 1693.4864501953125 1714.800048828125 1704.521484375 1676.4007568359375 1682.3758544921875 1715.7484130859375 1729.1253662109375 1705.9765625 1675.77490234375 1646.7821044921875 1618.337158203125 1604.846435546875 1590.5242919921875 1560.8885498046875 1531.6881103515625 1498.653076171875 1451.6868896484375 1416.8564453125 1401.1873779296875 1381.506591796875 1351.532958984375 1315.8355712890625 1298.34619140625 1287.3616943359375 1276.7109375 1271.2772216796875 1262.2476806640625 1228.8082275390625 1188.0299072265625 1155.109375 1125.7978515625 1099.63525390625 
1342.8109130859375 1317.0009765625 1286.0860595703125 1251.6893310546875 1213.1383056640625 1155.5816650390625 1098.7774658203125 1036.0003662109375 983.89794921875 979.07080078125 1021.0850830078125 1059.72509765625 1085.3958740234375 1100.0482177734375 1101.448974609375 1101.53125 1092.8211669921875 1067.3037109375 1031.21435546875 996.07666015625 953.9329833984375 910.55426025390625 881.62420654296875 867.95123291015625 854.85894775390625 815.114013671875 764.4788818359375 717.01129150390625 676.30059814453125 649.01763916015625 637.00531005859375 627.82501220703125 621.34478759765625 603.9921875 569.306884765625 526.11029052734375 476.316253662109375 427.998748779296875 374.704742431640625 336.4564208984375 315.416656494140625 295.682861328125 283.16998291015625 273.209686279296875 253.5407867431640625 228.0673370361328125 177.3292694091796875 143.09130859375 146.3919830322265625 180.0088043212890625 213.41290283203125 248.0506591796875 273.189544677734375 294.67828369140625 316.85455322265625 334.379638671875 350.731109619140625 371.177276611328125 394.24127197265625 429.7076416015625 463.477691650390625 481.845977783203125 520.9002685546875 575.95013427734375 630.7412109375 692.58026123046875 750.55535888671875 815.09442138671875 880.03240966796875 946.49798583984375 1011.83837890625 1081.4703369140625 1152.7467041015625 1220.440673828125 1281.4974365234375 1323.047119140625 1353.65478515625 1402.20458984375 1468.594970703125 1525.782470703125 1569.0914306640625 1595.9713134765625 1607.8426513671875 1613.2333984375 1598.8966064453125 1571.6173095703125 1541.2142333984375 1512.62060546875 1492.8349609375 1494.15869140625 1499.70849609375 1508.9268798828125 1528.4730224609375 1545.8994140625 1554.885009765625 1562.71337890625 1574.4854736328125 1589.093017578125 1605.4378662109375 1620.734619140625 1631.52099609375 1630.698974609375 1619.93994140625 1633.194580078125 1669.2264404296875 1710.5931396484375 1756.9954833984375 1801.2542724609375 1844.2349853515625 1881.5142822265625 1918.14990234375 1933.375244140625 1935.6307373046875 1929.1649169921875 1909.52734375 1858.93310546875 1784.06005859375 1747.634521484375 1740.3548583984375 1745.59814453125 1778.8046875 1806.1844482421875 1792.7161865234375 1739.0111083984375 1673.5771484375 1617.3641357421875 1594.7286376953125 1590.908447265625 1582.9852294921875 1561.800048828125 1548.3914794921875 1558.881591796875 1571.1141357421875 1572.302001953125 1549.8880615234375 1513.93017578125 1484.972900390625 1467.3070068359375 1462.9677734375 1485.00537109375 1539.051513671875 1602.78173828125 1659.49658203125 1705.370849609375 1730.2132568359375 1732.7801513671875 1722.7523193359375 1731.2606201171875 1751.658447265625 1742.4720458984375 1709.8170166015625 1677.960693359375 1649.843505859375 1628.259033203125 1623.0164794921875 1611.94677734375 1595.8212890625 1569.7213134765625 1523.550048828125 1464.494873046875 1411.2733154296875 1375.5521240234375 1346.5660400390625 1313.65087890625 1278.09130859375 1251.5806884765625 1232.197998046875 1215.3629150390625 1215.77392578125 1215.7366943359375 1188.138427734375 1152.285888671875 1119.3096923828125 1091.9041748046875 1070.9444580078125 
1347.4483642578125 1325.5191650390625 1292.2288818359375 1250.0533447265625 1199.5166015625 1134.4359130859375 1075.388427734375 1023.49151611328125 989.72393798828125 1023.0755615234375 1075.6080322265625 1111.805419921875 1119.15771484375 1126.470947265625 1118.77197265625 1110.8841552734375 1108.37158203125 1100.51318359375 1070.9029541015625 1035.842041015625 1004.63165283203125 979.9583740234375 963.7830810546875 954.37713623046875 925.73809814453125 879.5389404296875 834.470947265625 778.09869384765625 735.08551025390625 715.63037109375 698.17791748046875 683.501953125 666.28338623046875 638.172607421875 601.55694580078125 552.728515625 495.63214111328125 438.08782958984375 384.70477294921875 343.571258544921875 319.145294189453125 295.05816650390625 282.454559326171875 272.245452880859375 252.740386962890625 229.6164398193359375 177.7208404541015625 145.853668212890625 152.3660888671875 183.0226898193359375 218.2639007568359375 255.84808349609375 289.968658447265625 315.541107177734375 327.16455078125 333.155914306640625 344.437652587890625 360.203521728515625 381.69970703125 408.437469482421875 436.1666259765625 469.725677490234375 522.572021484375 577.16796875 628.137939453125 687.26995849609375 749.10791015625 814.50390625 879.93853759765625 947.3779296875 1015.94647216796875 1086.91943359375 1162.441650390625 1238.353515625 1306.365478515625 1341.8900146484375 1366.6767578125 1412.1455078125 1479.4176025390625 1547.32666015625 1591.568115234375 1614.8875732421875 1629.822509765625 1638.1138916015625 1619.3541259765625 1591.3482666015625 1566.056884765625 1540.3564453125 1522.083984375 1524.6402587890625 1530.7755126953125 1540.9591064453125 1556.88134765625 1570.2054443359375 1575.6795654296875 1581.119140625 1589.2275390625 1604.61572265625 1620.796142578125 1637.202392578125 1649.4854736328125 1651.4752197265625 1641.40966796875 1635.4122314453125 1654.00732421875 1690.8299560546875 1734.77783203125 1781.80810546875 1823.12451171875 1862.49951171875 1900.43408203125 1930.8905029296875 1950.1402587890625 1958.8074951171875 1924.53173828125 1855.638671875 1786.0179443359375 1763.243896484375 1757.5322265625 1770.829833984375 1810.2889404296875 1819.9879150390625 1769.3338623046875 1708.1710205078125 1650.3973388671875 1611.4847412109375 1600.29736328125 1600.1026611328125 1594.0296630859375 1575.2545166015625 1564.2615966796875 1573.9921875 1585.439453125 1589.30615234375 1564.3631591796875 1525.02880859375 1497.318115234375 1484.6046142578125 1482.140625 1496.9765625 1535.0335693359375 1590.3817138671875 1648.1036376953125 1697.2301025390625 1726.668701171875 1738.6348876953125 1747.6802978515625 1761.4344482421875 1769.3895263671875 1753.478515625 1718.34423828125 1683.9180908203125 1658.134033203125 1645.6192626953125 1640.871337890625 1632.5186767578125 1619.5263671875 1587.8658447265625 1533.524658203125 1478.9058837890625 1432.203369140625 1396.7528076171875 1369.4002685546875 1338.555908203125 1303.457275390625 1267.44287109375 1232.999267578125 1197.7608642578125 1173.5355224609375 1164.671875 1144.8309326171875 1116.693115234375 1084.847900390625 1060.614501953125 1041.04052734375 
1356.4405517578125 1335.068603515625 1295.457763671875 1256.364013671875 1196.6990966796875 1125.145751953125 1065.67041015625 1024.1285400390625 1023.13250732421875 1071.6336669921875 1114.9908447265625 1148.26416015625 1143.856689453125 1136.0184326171875 1127.3775634765625 1116.3876953125 1112.363525390625 1107.7587890625 1093.1331787109375 1070.900390625 1049.1632080078125 1031.255126953125 1021.812255859375 1010.8636474609375 981.85211181640625 945.49664306640625 899.4720458984375 836.04107666015625 791.4794921875 773.64703369140625 753.9208984375 735.3846435546875 708.8743896484375 668.1500244140625 627.10528564453125 569.39788818359375 507.14764404296875 448.043792724609375 396.17755126953125 353.407501220703125 323.759613037109375 297.246185302734375 281.543792724609375 268.575927734375 250.0635223388671875 225.75311279296875 172.6185150146484375 141.2967071533203125 150.31695556640625 186.528594970703125 220.62054443359375 255.8599395751953125 288.22589111328125 309.511016845703125 311.892730712890625 322.561920166015625 338.002716064453125 357.35418701171875 379.42498779296875 400.757965087890625 430.84600830078125 479.3431396484375 528.18743896484375 573.26666259765625 627.32257080078125 691.871826171875 756.1968994140625 824.53790283203125 892.4715576171875 962.41748046875 1037.3746337890625 1108.5274658203125 1185.1170654296875 1264.55810546875 1317.7420654296875 1343.5814208984375 1376.74658203125 1429.0552978515625 1494.88916015625 1562.5400390625 1604.1661376953125 1631.0328369140625 1653.7381591796875 1663.0528564453125 1644.1121826171875 1618.43310546875 1593.418212890625 1565.95458984375 1546.9814453125 1552.2025146484375 1568.807373046875 1579.754638671875 1587.2698974609375 1594.018310546875 1598.0726318359375 1602.306640625 1608.4169921875 1621.2955322265625 1638.174560546875 1657.931396484375 1669.316162109375 1669.700439453125 1661.965087890625 1647.1683349609375 1646.6722412109375 1673.0762939453125 1713.2864990234375 1764.110107421875 1804.5478515625 1845.6448974609375 1883.20068359375 1915.2054443359375 1942.9027099609375 1952.127685546875 1912.8582763671875 1850.099853515625 1794.5621337890625 1780.41357421875 1779.878173828125 1809.3240966796875 1843.7635498046875 1816.565673828125 1741.0938720703125 1675.727783203125 1628.852783203125 1608.447265625 1605.7808837890625 1605.6666259765625 1602.51708984375 1589.91015625 1581.4534912109375 1587.4705810546875 1597.648193359375 1599.97705078125 1568.818115234375 1531.010986328125 1509.8001708984375 1502.42333984375 1499.9244384765625 1514.91015625 1549.65478515625 1591.4375 1634.414794921875 1679.07421875 1716.920654296875 1738.819580078125 1754.948486328125 1771.4493408203125 1776.1541748046875 1766.142822265625 1734.9464111328125 1701.067138671875 1679.40478515625 1664.521484375 1654.6444091796875 1647.0220947265625 1633.828857421875 1603.6043701171875 1558.7957763671875 1510.2791748046875 1469.135986328125 1439.4163818359375 1415.5714111328125 1391.7161865234375 1352.3448486328125 1302.4345703125 1260.643798828125 1222.9080810546875 1177.13037109375 1141.17041015625 1112.468505859375 1085.7310791015625 1061.741455078125 1040.961669921875 1022.1512451171875 
1368.2418212890625 1344.8001708984375 1300.56640625 1255.7735595703125 1195.4949951171875 1125.5594482421875 1067.26806640625 1036.091064453125 1064.1275634765625 1110.152099609375 1140.278564453125 1165.554443359375 1167.970947265625 1149.319580078125 1136.036865234375 1120.3447265625 1110.6634521484375 1104.5189208984375 1102.9112548828125 1090.9266357421875 1072.9910888671875 1054.688720703125 1048.49072265625 1038.9708251953125 1011.97015380859375 977.68695068359375 944.15338134765625 891.20135498046875 844.81915283203125 819.21331787109375 795.75579833984375 770.245361328125 739.38482666015625 694.79058837890625 645.490234375 588.24871826171875 523.27984619140625 460.599334716796875 406.245758056640625 362.728851318359375 331.111358642578125 301.883087158203125 282.38348388671875 266.342041015625 248.6910400390625 217.17474365234375 163.5858306884765625 138.4601287841796875 155.0429229736328125 192.1979217529296875 222.9738922119140625 252.0909271240234375 271.17218017578125 286.278839111328125 302.446868896484375 322.8525390625 340.83636474609375 363.088287353515625 389.90655517578125 420.341522216796875 455.45269775390625 489.339080810546875 521.15472412109375 568.96044921875 629.3663330078125 697.309326171875 765.376953125 836.86370849609375 909.4132080078125 983.45355224609375 1061.7298583984375 1133.396240234375 1200.5184326171875 1270.680419921875 1316.17626953125 1344.3388671875 1383.457275390625 1443.33740234375 1510.0457763671875 1564.1873779296875 1606.755859375 1645.9658203125 1684.5556640625 1691.509033203125 1668.80126953125 1645.98095703125 1617.4281005859375 1587.7567138671875 1573.845458984375 1580.6475830078125 1604.0950927734375 1616.189453125 1619.63720703125 1621.2978515625 1619.9439697265625 1618.2159423828125 1621.642822265625 1632.8470458984375 1651.76123046875 1674.072265625 1688.222412109375 1692.2255859375 1685.041015625 1669.9581298828125 1661.204833984375 1668.224365234375 1701.3466796875 1749.34375 1794.47412109375 1833.0509033203125 1866.8819580078125 1897.479248046875 1927.6007080078125 1947.9049072265625 1923.8228759765625 1854.1534423828125 1801.7552490234375 1792.4632568359375 1813.3431396484375 1861.3533935546875 1881.095458984375 1820.08984375 1749.55908203125 1683.6112060546875 1639.548583984375 1614.81982421875 1609.39599609375 1616.854736328125 1626.3338623046875 1619.297607421875 1603.955322265625 1602.658203125 1609.733154296875 1600.9368896484375 1567.935302734375 1541.3492431640625 1525.1094970703125 1520.6611328125 1522.1375732421875 1545.31005859375 1590.681640625 1627.463134765625 1652.61474609375 1679.490234375 1711.6058349609375 1740.470458984375 1761.349365234375 1777.7559814453125 1783.4173583984375 1776.880615234375 1750.1590576171875 1719.778564453125 1699.9046630859375 1685.5338134765625 1670.669677734375 1661.474609375 1646.732421875 1626.4796142578125 1598.5970458984375 1554.37548828125 1518.461181640625 1484.859619140625 1446.752685546875 1417.94140625 1376.816162109375 1325.7222900390625 1275.117919921875 1232.9566650390625 1189.5330810546875 1147.09716796875 1111.6182861328125 1081.3514404296875 1055.123291015625 1035.220947265625 1018.7176513671875 
1388.366943359375 1363.5155029296875 1316.7174072265625 1256.7322998046875 1190.614990234375 1121.3863525390625 1072.2684326171875 1062.7520751953125 1107.125732421875 1146.3143310546875 1161.3062744140625 1170.65576171875 1175.1956787109375 1158.09033203125 1139.77978515625 1121.1719970703125 1105.7025146484375 1094.542236328125 1097.10205078125 1091.335205078125 1074.9190673828125 1061.330810546875 1047.4566650390625 1036.346435546875 1011.44940185546875 982.7974853515625 958.68634033203125 919.291015625 875.29638671875 846.66796875 816.50311279296875 786.52752685546875 751.59326171875 707.58209228515625 657.1143798828125 606.7301025390625 546.92633056640625 477.99053955078125 414.524261474609375 365.77825927734375 335.81488037109375 306.06317138671875 282.40966796875 261.5196533203125 246.0292816162109375 207.1186370849609375 156.59173583984375 141.2714385986328125 161.4890594482421875 200.05804443359375 224.270721435546875 243.7007904052734375 259.771728515625 281.363861083984375 308.6529541015625 335.392242431640625 358.075469970703125 378.38494873046875 404.521148681640625 432.780242919921875 458.17767333984375 478.93505859375 510.199066162109375 566.10882568359375 630.3731689453125 699.57098388671875 770.09405517578125 843.91595458984375 918.49725341796875 992.33062744140625 1067.2830810546875 1133.399169921875 1200.9427490234375 1266.12548828125 1313.7037353515625 1349.218017578125 1388.0078125 1444.64404296875 1508.93359375 1558.2564697265625 1607.2020263671875 1654.557373046875 1697.592529296875 1704.3475341796875 1689.7198486328125 1670.16748046875 1639.583984375 1612.178955078125 1600.06787109375 1604.0560302734375 1624.84716796875 1636.1812744140625 1643.7174072265625 1646.2784423828125 1642.8035888671875 1635.6346435546875 1636.1956787109375 1646.509765625 1663.8150634765625 1685.0579833984375 1700.4837646484375 1708.564208984375 1705.781005859375 1696.0009765625 1686.7491455078125 1680.2392578125 1695.701904296875 1736.9742431640625 1785.7529296875 1828.0323486328125 1863.010986328125 1893.73974609375 1925.9620361328125 1952.501708984375 1931.58740234375 1862.65478515625 1810.5499267578125 1802.9903564453125 1841.185302734375 1903.5965576171875 1912.54248046875 1853.2501220703125 1791.096923828125 1731.390380859375 1677.8941650390625 1643.4774169921875 1632.550048828125 1651.0560302734375 1677.5577392578125 1667.8653564453125 1641.34814453125 1631.161376953125 1630.8582763671875 1606.425537109375 1577.55419921875 1558.8094482421875 1542.161865234375 1539.255615234375 1545.4761962890625 1571.9237060546875 1622.4075927734375 1663.48583984375 1680.978515625 1697.6600341796875 1717.8468017578125 1746.951416015625 1768.523681640625 1786.18310546875 1794.8216552734375 1787.078125 1761.9578857421875 1737.291015625 1725.5286865234375 1718.0911865234375 1707.6243896484375 1687.9417724609375 1658.0792236328125 1640.87841796875 1621.88623046875 1583.8365478515625 1535.58935546875 1490.3909912109375 1447.3248291015625 1409.4320068359375 1364.6114501953125 1312.5433349609375 1254.439453125 1203.5821533203125 1163.240478515625 1128.40673828125 1096.0902099609375 1071.010986328125 1050.0867919921875 1040.735107421875 1037.86181640625 
1414.5333251953125 1381.4669189453125 1326.8868408203125 1251.26171875 1184.73583984375 1125.37255859375 1082.8948974609375 1090.4683837890625 1135.8291015625 1169.6688232421875 1174.034912109375 1169.3775634765625 1173.1600341796875 1157.7052001953125 1134.325439453125 1112.45166015625 1096.7117919921875 1083.707763671875 1081.648193359375 1078.212646484375 1064.9200439453125 1056.5888671875 1042.4046630859375 1018.8839111328125 991.81439208984375 968.4903564453125 942.67071533203125 903.27056884765625 871.1024169921875 846.867431640625 818.04193115234375 787.17669677734375 750.42767333984375 705.30023193359375 661.232666015625 614.205810546875 554.95098876953125 488.9161376953125 421.621063232421875 369.907257080078125 336.92572021484375 311.4154052734375 281.093231201171875 257.63580322265625 237.3065032958984375 189.699554443359375 148.037353515625 143.5560455322265625 169.50140380859375 204.8820037841796875 222.1069793701171875 238.450439453125 257.80035400390625 286.341949462890625 316.328033447265625 348.85528564453125 380.1148681640625 399.763641357421875 417.210174560546875 431.717742919921875 446.959503173828125 465.801513671875 501.045928955078125 557.63812255859375 622.94537353515625 693.510498046875 765.84356689453125 839.92254638671875 910.09442138671875 983.03411865234375 1059.890869140625 1129.1463623046875 1198.8131103515625 1266.0333251953125 1312.8966064453125 1351.29248046875 1387.9268798828125 1441.5887451171875 1498.7882080078125 1553.298095703125 1608.7847900390625 1657.5352783203125 1694.26220703125 1709.815185546875 1709.3568115234375 1692.653076171875 1663.9310302734375 1639.454833984375 1625.4171142578125 1624.76513671875 1643.021728515625 1657.5101318359375 1668.125732421875 1670.535888671875 1663.6337890625 1653.53662109375 1652.64404296875 1662.9713134765625 1675.8287353515625 1694.8841552734375 1713.354248046875 1723.0933837890625 1722.3388671875 1718.7261962890625 1709.52197265625 1699.1805419921875 1700.4910888671875 1731.17724609375 1778.5369873046875 1826.2340087890625 1866.0087890625 1899.3077392578125 1933.47705078125 1958.7703857421875 1944.8985595703125 1878.546875 1823.828369140625 1824.61376953125 1875.809326171875 1931.163818359375 1928.8514404296875 1893.3992919921875 1844.5091552734375 1776.6168212890625 1722.6845703125 1692.1856689453125 1687.14892578125 1712.6588134765625 1741.8623046875 1720.730712890625 1687.3656005859375 1671.5531005859375 1653.270751953125 1618.1099853515625 1596.1314697265625 1577.0889892578125 1558.3975830078125 1557.041748046875 1566.10888671875 1586.4210205078125 1634.468017578125 1678.43701171875 1698.9495849609375 1714.25146484375 1731.4783935546875 1756.7269287109375 1775.755126953125 1795.2769775390625 1807.6650390625 1796.645751953125 1775.3466796875 1757.7271728515625 1749.0306396484375 1744.7647705078125 1736.5125732421875 1711.3382568359375 1674.5802001953125 1650.6600341796875 1618.9061279296875 1571.1239013671875 1509 1454.1619873046875 1405.7242431640625 1365.4158935546875 1322.5672607421875 1272.3077392578125 1214.61865234375 1167.1397705078125 1130.2119140625 1106.3990478515625 1096.1298828125 1092.71630859375 1088.831298828125 1083.8463134765625 1082.5926513671875 
1433.2880859375 1390.2891845703125 1327.540771484375 1249.0692138671875 1182.437744140625 1131.3101806640625 1104.546630859375 1131.0728759765625 1162.0125732421875 1179.946044921875 1177.5404052734375 1164.291259765625 1162.688720703125 1150.84375 1129.7791748046875 1105.3812255859375 1088.133544921875 1071.607666015625 1066.933837890625 1064.669921875 1051.836181640625 1042.97021484375 1027.900146484375 999.69342041015625 969.8870849609375 943.0340576171875 910.26141357421875 866.6357421875 834.15484619140625 817.766845703125 800.77069091796875 777.6043701171875 738.2503662109375 694.9541015625 652.72509765625 604.41845703125 549.8079833984375 487.97003173828125 426.057586669921875 372.960296630859375 337.060943603515625 313.879852294921875 282.1993408203125 252.87127685546875 220.48406982421875 170.8528289794921875 141.8948211669921875 147.47369384765625 179.113494873046875 205.248077392578125 219.0802154541015625 234.4098052978515625 257.7257080078125 285.8046875 316.723052978515625 351.201324462890625 382.92681884765625 399.4287109375 411.36090087890625 423.002593994140625 438.28448486328125 461.739501953125 500.864837646484375 555.024169921875 617.773193359375 686.14886474609375 754.83868408203125 824.457275390625 895.80145263671875 971.395751953125 1051.48095703125 1126.136962890625 1198.8570556640625 1268.594482421875 1314.0859375 1351.28759765625 1386.6795654296875 1441.3505859375 1496.3809814453125 1559.2823486328125 1613.5167236328125 1662.67333984375 1696.638671875 1719.7117919921875 1730.8753662109375 1721.659912109375 1691.5233154296875 1665.67724609375 1653.8297119140625 1653.1790771484375 1667.489013671875 1683.823974609375 1694.343994140625 1693.968994140625 1686.86767578125 1679.899169921875 1678.286865234375 1682.4874267578125 1692.734375 1706.11767578125 1723.84326171875 1737.200439453125 1739.3359375 1736.6729736328125 1731.12939453125 1719.07177734375 1711.2886962890625 1731.3197021484375 1773.8314208984375 1825.252197265625 1868.9547119140625 1906.8228759765625 1935.5592041015625 1956.6761474609375 1955.5172119140625 1905.3365478515625 1855.2259521484375 1864.8653564453125 1912.86767578125 1946.3065185546875 1929.921142578125 1906.2408447265625 1884.5419921875 1829.29931640625 1781.9610595703125 1756.6363525390625 1755.25634765625 1783.826904296875 1807.814208984375 1778.905517578125 1737.8287353515625 1710.52685546875 1670.9638671875 1631.5679931640625 1613.87353515625 1595.1158447265625 1574.5592041015625 1570.9256591796875 1576.818603515625 1589.43603515625 1627.8526611328125 1672.2216796875 1698.915771484375 1714.298095703125 1731.9581298828125 1754.11181640625 1774.5372314453125 1801.3656005859375 1811.9989013671875 1793.037841796875 1771.2620849609375 1758.6224365234375 1750.987548828125 1745.966796875 1736.742919921875 1719.4906005859375 1686.6187744140625 1634.199462890625 1588.8095703125 1543.0159912109375 1487.8184814453125 1430.735595703125 1370.41796875 1323.0909423828125 1275.92578125 1226.54248046875 1178.2115478515625 1147.6336669921875 1135.492919921875 1131.1229248046875 1137.042724609375 1149.7576904296875 1156.1768798828125 1147.0880126953125 1135.6185302734375 
1437.07080078125 1380.15234375 1315.3597412109375 1238.69384765625 1169.26123046875 1131.967041015625 1137.2510986328125 1166.92724609375 1195.95068359375 1197.092041015625 1177.5152587890625 1159.984130859375 1156.0283203125 1144.5760498046875 1125.51611328125 1100.4521484375 1081.45458984375 1063.4510498046875 1052.635009765625 1055.3704833984375 1042.138671875 1025.4337158203125 1009.8193359375 979.9202880859375 946.7984619140625 910.11138916015625 870.788330078125 826.6788330078125 780.708740234375 760.91839599609375 751.3709716796875 739.877685546875 712.4423828125 673.7320556640625 627.28350830078125 580.9967041015625 537.2015380859375 486.17974853515625 422.619171142578125 370.19805908203125 337.83184814453125 316.04150390625 282.41546630859375 246.032318115234375 201.9754791259765625 151.98486328125 129.256591796875 154.2048797607421875 191.654998779296875 207.6687774658203125 220.1499786376953125 233.6005401611328125 252.57733154296875 281.213165283203125 314.61297607421875 349.92974853515625 376.651824951171875 392.6727294921875 405.1309814453125 417.27490234375 433.445648193359375 460.365997314453125 500.85504150390625 553.88470458984375 612.63165283203125 675.8099365234375 744.06939697265625 816.20599365234375 889.255615234375 963.547607421875 1043.0963134765625 1122.389892578125 1199.374755859375 1263.669189453125 1311.6448974609375 1352.3267822265625 1395.1304931640625 1446.7218017578125 1500.8382568359375 1565.116455078125 1612.7515869140625 1660.775146484375 1704.6776123046875 1732.3892822265625 1749.0277099609375 1745.2918701171875 1716.8287353515625 1693.8511962890625 1681.4769287109375 1679.0250244140625 1693.9791259765625 1708.491943359375 1721.63427734375 1722.5286865234375 1713.791015625 1706.328857421875 1703.26513671875 1702.3204345703125 1710.113037109375 1720.1082763671875 1739.395751953125 1751.3985595703125 1755.3701171875 1755.4002685546875 1752.9266357421875 1742.6971435546875 1727.628662109375 1736.218505859375 1773.904296875 1822.0567626953125 1866.0123291015625 1900.90625 1923.834228515625 1941.4793701171875 1946.685302734375 1934.7608642578125 1909.7772216796875 1919.4986572265625 1946.43603515625 1949.5069580078125 1933.4189453125 1919.064697265625 1913.5870361328125 1884.6866455078125 1859.6318359375 1842.0302734375 1844.3294677734375 1853.52392578125 1855.645263671875 1834.6396484375 1791.8599853515625 1735.353515625 1679.38037109375 1646.32470703125 1628.768798828125 1612.005126953125 1594.076416015625 1588.4085693359375 1589.8486328125 1596.3184814453125 1616.9820556640625 1647.7039794921875 1676.22509765625 1696.63720703125 1714.6434326171875 1736.8896484375 1763.58203125 1792.977783203125 1791.3197021484375 1764.9124755859375 1743.7247314453125 1733.413330078125 1728.7769775390625 1722.2291259765625 1706.1278076171875 1694.22119140625 1653.5032958984375 1592.548095703125 1539.2987060546875 1493.860107421875 1452.1248779296875 1403.383056640625 1350.3326416015625 1299.21337890625 1241.21484375 1194.6585693359375 1166.3221435546875 1167.4539794921875 1182.598388671875 1190.851318359375 1193.967529296875 1209.9178466796875 1219.26416015625 1204.0548095703125 1178.1627197265625 
1440.35791015625 1366.25048828125 1300.0203857421875 1233.199462890625 1175.4403076171875 1154.5404052734375 1162.233154296875 1177.010009765625 1204.4901123046875 1210.83984375 1186.614013671875 1157.5899658203125 1151.028564453125 1145.3612060546875 1125.693115234375 1100.9771728515625 1078.736328125 1058.74462890625 1042.6455078125 1041.6773681640625 1033.6700439453125 1014.1641845703125 999.19525146484375 971.8052978515625 929.03887939453125 880.51190185546875 829.08673095703125 785.01800537109375 733.8277587890625 696.781982421875 686.288818359375 680.1351318359375 670.86297607421875 643.0025634765625 599.54541015625 545.8974609375 508.7081298828125 473.711151123046875 416.06414794921875 366.65435791015625 335.73541259765625 314.617218017578125 278.74853515625 237.0413665771484375 188.7108306884765625 145.3582916259765625 137.0087127685546875 168.1996917724609375 201.2884063720703125 211.2998199462890625 222.4462738037109375 236.1751251220703125 251.129669189453125 277.102020263671875 310.812896728515625 342.964263916015625 367.079071044921875 382.21868896484375 397.48406982421875 413.753753662109375 432.266876220703125 458.764068603515625 498.5247802734375 549.68780517578125 608.140869140625 670.23394775390625 736.08099365234375 806.7637939453125 879.111083984375 953.84423828125 1034.092041015625 1115.73681640625 1192.1865234375 1252.942626953125 1304.500244140625 1353.9041748046875 1406.6695556640625 1455.531982421875 1503.212890625 1553.9547119140625 1604.468017578125 1661.1322021484375 1714.207275390625 1741.8399658203125 1757.7437744140625 1757.29443359375 1733.258544921875 1714.7083740234375 1702.8109130859375 1702.4404296875 1720.61181640625 1737.4464111328125 1749.2894287109375 1746.6339111328125 1742.501220703125 1732.3758544921875 1726.1807861328125 1723.7210693359375 1726.270751953125 1734.067626953125 1754.309814453125 1766.13232421875 1771.2357177734375 1776.5986328125 1775.7242431640625 1769.25732421875 1749.887451171875 1739.0064697265625 1767.4522705078125 1811.1396484375 1855.3018798828125 1886.424560546875 1907.66015625 1926.2342529296875 1933.955078125 1934.732177734375 1934.62255859375 1951.963623046875 1957.701171875 1951.0589599609375 1954.3353271484375 1949.9224853515625 1948.97998046875 1943.0125732421875 1932.8670654296875 1918.662841796875 1905.763671875 1878.7972412109375 1855.723388671875 1833.2869873046875 1794.0963134765625 1740.658203125 1686.877197265625 1660.96044921875 1644.220703125 1629.978271484375 1616.6080322265625 1611.3131103515625 1611.5777587890625 1616.4471435546875 1624.218017578125 1634.2481689453125 1656.4913330078125 1681.281005859375 1699.6256103515625 1719.357666015625 1744.9405517578125 1770.649169921875 1764.336181640625 1732.7874755859375 1708.027587890625 1684.951171875 1677.2271728515625 1680.1185302734375 1666.5174560546875 1637.3594970703125 1590.6832275390625 1541.99658203125 1488.5997314453125 1440.084228515625 1398.8271484375 1354.88525390625 1313.54345703125 1270.763916015625 1221.165771484375 1188.1715087890625 1195.5283203125 1232.945556640625 1256.183837890625 1258.028564453125 1253.6024169921875 1264.9718017578125 1268.5587158203125 1243.003173828125 1219.2593994140625 
1438.369140625 1350.01220703125 1284.521728515625 1233.1265869140625 1194.222412109375 1186.9981689453125 1187.72802734375 1194.4620361328125 1204.5101318359375 1205.01318359375 1186.934326171875 1158.36181640625 1142.68359375 1142.721923828125 1130.231201171875 1107.7010498046875 1086.7236328125 1062.1617431640625 1036.69482421875 1021.0677490234375 1013.8406982421875 1001.05780029296875 985.6541748046875 966.7310791015625 926.7003173828125 863.84930419921875 794.16741943359375 740.693359375 695.49530029296875 647.714111328125 623.74737548828125 615.955810546875 617.803466796875 605.03546142578125 567.059814453125 524.1221923828125 478.9444580078125 446.7841796875 406.20623779296875 365.544708251953125 331.01959228515625 304.2032470703125 268.87322998046875 224.1651611328125 175.8073577880859375 141.0131072998046875 142.89117431640625 182.4073333740234375 206.9407806396484375 215.037200927734375 225.8824005126953125 240.4658203125 255.365997314453125 277.426910400390625 305.391876220703125 331.891693115234375 350.691497802734375 367.22119140625 387.97967529296875 407.396881103515625 427.217742919921875 452.65069580078125 492.40667724609375 546.94268798828125 607.56829833984375 671.16119384765625 735.458984375 801.7689208984375 873.30853271484375 948.6060791015625 1025.524169921875 1104.5726318359375 1175.05078125 1235.6275634765625 1297.9532470703125 1353.2353515625 1408.7381591796875 1456.60791015625 1497.92333984375 1546.56884765625 1605.9669189453125 1670.8616943359375 1717.15087890625 1748.5765380859375 1766.04736328125 1767.5675048828125 1750.1051025390625 1734.8958740234375 1728.419189453125 1731.48974609375 1748.612548828125 1765.193603515625 1772.2408447265625 1774.156005859375 1772.65283203125 1754.54443359375 1741.9910888671875 1738.357666015625 1738.501220703125 1743.663818359375 1763.68310546875 1780.95263671875 1790.98828125 1796.85791015625 1795.454345703125 1791.7135009765625 1776.7747802734375 1751.5238037109375 1756.2760009765625 1797.027587890625 1839.8131103515625 1870.5452880859375 1885.4866943359375 1901.8197021484375 1913.63623046875 1913.194580078125 1925.441162109375 1942.637451171875 1948.17138671875 1955.107666015625 1964.632080078125 1970.741455078125 1973.9892578125 1973.909423828125 1960.31787109375 1935.0863037109375 1901.7220458984375 1863.63818359375 1830.4752197265625 1799.2369384765625 1768.93505859375 1737.4117431640625 1698.9818115234375 1675.0513916015625 1659.6263427734375 1647.0479736328125 1636.354248046875 1631.215576171875 1636.2584228515625 1644.1497802734375 1651.43505859375 1654.9649658203125 1668.7945556640625 1689.184326171875 1710.60986328125 1729.0885009765625 1745.9556884765625 1760.484619140625 1742.58935546875 1696.1986083984375 1661.883056640625 1636.0450439453125 1619.8076171875 1627.3095703125 1624.869384765625 1584.8433837890625 1534.81201171875 1490.0452880859375 1441.458984375 1394.7535400390625 1354.248291015625 1317.6710205078125 1282.125 1248.27099609375 1216.475341796875 1221.787353515625 1257.84423828125 1304.259765625 1334.703857421875 1331.82470703125 1320.0533447265625 1317.6854248046875 1313.7874755859375 1293.66015625 1271.13134765625 
1430.3145751953125 1336.4444580078125 1272.497314453125 1228.2025146484375 1209.395263671875 1212.199462890625 1214.4854736328125 1221.3389892578125 1220.555908203125 1203.8883056640625 1184.9573974609375 1164.3865966796875 1138.4320068359375 1125.9598388671875 1119.8360595703125 1099.7728271484375 1078.6092529296875 1058.0123291015625 1034.4952392578125 1011.75006103515625 996.37060546875 984.90478515625 972.5472412109375 949.73321533203125 910.452880859375 846.5057373046875 779.5732421875 716.65045166015625 663.2818603515625 610.62994384765625 571.494873046875 553.24169921875 553.160888671875 561.2037353515625 534.7928466796875 498.367645263671875 462.28338623046875 420.93548583984375 387.49737548828125 356.94464111328125 321.215545654296875 288.28558349609375 256.12353515625 212.344451904296875 165.1237945556640625 139.4256439208984375 152.545440673828125 194.5217437744140625 209.884246826171875 217.7309417724609375 228.4420166015625 244.1226654052734375 259.40142822265625 278.937164306640625 301.60308837890625 322.244140625 337.8714599609375 356.78961181640625 378.7305908203125 398.76373291015625 420.409332275390625 446.53582763671875 484.890167236328125 546.63128662109375 616.2935791015625 680.927001953125 741.8751220703125 807.21136474609375 877.449462890625 948.507080078125 1018.00927734375 1083.68603515625 1143.2781982421875 1206.1868896484375 1280.08447265625 1341.6614990234375 1394.1019287109375 1446.7445068359375 1500.67578125 1557.1956787109375 1619.4820556640625 1684.04248046875 1726.5914306640625 1754.42529296875 1762.26904296875 1767.4637451171875 1764.3248291015625 1758.73095703125 1757.646484375 1764.10595703125 1774.8092041015625 1788.2578125 1799.3116455078125 1803.324462890625 1799.1241455078125 1775.2469482421875 1755.4326171875 1751.48046875 1753.890380859375 1757.7469482421875 1775.2225341796875 1797.0384521484375 1812.663330078125 1818.79296875 1816.0938720703125 1815.12744140625 1804.552001953125 1779.14208984375 1758.57080078125 1781.740966796875 1821.1983642578125 1848.6448974609375 1859.518310546875 1872.190185546875 1885.8377685546875 1898.714111328125 1920.622314453125 1930.0936279296875 1940.5235595703125 1952.220947265625 1961.4954833984375 1967.973388671875 1973.56689453125 1971.037109375 1959.3314208984375 1931.2547607421875 1892.876953125 1841.9608154296875 1799.16259765625 1774.6561279296875 1756.6063232421875 1733.3634033203125 1703.854248046875 1685.34375 1673.316650390625 1663.3975830078125 1652.9805908203125 1649.6529541015625 1656.626220703125 1665.092529296875 1675.6280517578125 1687.6085205078125 1701.8330078125 1716.119873046875 1732.1448974609375 1746.1025390625 1758.806884765625 1758.4415283203125 1727.893310546875 1673.146240234375 1619.5133056640625 1587.787841796875 1566.42333984375 1572.44970703125 1570.072998046875 1536.207763671875 1489.306640625 1443.6123046875 1399.8201904296875 1360.1402587890625 1324.5123291015625 1291.5155029296875 1259.6837158203125 1237.535400390625 1242.90869140625 1277.7452392578125 1321.482421875 1364.59228515625 1398.2471923828125 1400.6240234375 1386.84228515625 1375.63623046875 1363.493408203125 1338.099609375 1305.5384521484375 
1415.0325927734375 1327.375244140625 1271.1826171875 1233.9873046875 1229.1612548828125 1243.2001953125 1245.56494140625 1244.5394287109375 1234.7835693359375 1212.5406494140625 1188.2371826171875 1170.318359375 1139.8489990234375 1111.35205078125 1103.3203125 1089.9202880859375 1074.647216796875 1061.45361328125 1047.3082275390625 1029.176513671875 1012.7293701171875 992.73388671875 967.93011474609375 931.93817138671875 886.9700927734375 836.55059814453125 785.7003173828125 741.4615478515625 687.4749755859375 618.58294677734375 562.10211181640625 516.8502197265625 492.707305908203125 498.57940673828125 494.262420654296875 458.0023193359375 431.793701171875 409.50225830078125 375.11297607421875 343.117584228515625 309.171295166015625 272.83203125 238.533721923828125 202.06829833984375 157.735015869140625 138.616363525390625 162.608978271484375 201.589447021484375 212.2899932861328125 220.26873779296875 232.1361846923828125 245.2945404052734375 259.51513671875 280.191314697265625 305.502685546875 325.40643310546875 345.426361083984375 364.244537353515625 381.2828369140625 400.27069091796875 423.0343017578125 451.126708984375 485.272613525390625 540.4267578125 611.031005859375 674.0333251953125 733.09710693359375 797.52618408203125 864.8358154296875 934.416015625 996.35821533203125 1048.76513671875 1105.1927490234375 1178.39208984375 1256.7169189453125 1319.0970458984375 1375.5201416015625 1443.796630859375 1504.6209716796875 1563.9925537109375 1626.55908203125 1683.40625 1723.759033203125 1746.9744873046875 1754.6484375 1765.9249267578125 1774.8421630859375 1775.7879638671875 1777.7308349609375 1786.665771484375 1795.9404296875 1813.9190673828125 1818.7432861328125 1817.8721923828125 1816.031982421875 1797.8895263671875 1775.9775390625 1769.0576171875 1773.753173828125 1777.7039794921875 1791.9329833984375 1812.2864990234375 1829.857177734375 1837.3341064453125 1835.12109375 1833.3895263671875 1819.0535888671875 1801.8094482421875 1775.30029296875 1771.3681640625 1797.1331787109375 1819.5487060546875 1831.52392578125 1846.05615234375 1866.1414794921875 1894.2794189453125 1918.037109375 1925.268798828125 1932.833251953125 1945.3756103515625 1958.8707275390625 1965.012451171875 1963.06982421875 1960.5911865234375 1956.4130859375 1939.912841796875 1908.320556640625 1853.359130859375 1804.2412109375 1778.7860107421875 1758.4141845703125 1732.2236328125 1707.462646484375 1693.181884765625 1684.69970703125 1676.0986328125 1667.74365234375 1666.190673828125 1673.54931640625 1680.0947265625 1691.8319091796875 1710.898681640625 1733.872314453125 1748.6859130859375 1749.2333984375 1748.3096923828125 1751.66943359375 1744.1871337890625 1715.1539306640625 1662.8101806640625 1603.8466796875 1557.814453125 1527.2896728515625 1525.6351318359375 1514.345703125 1485.9356689453125 1447.2489013671875 1410.942626953125 1375.541748046875 1339.91943359375 1308.8267822265625 1279.0166015625 1260.913330078125 1266.366455078125 1294.67431640625 1334.4139404296875 1376.7276611328125 1416.2783203125 1447.8875732421875 1452.3365478515625 1442.651611328125 1420.364990234375 1388.365966796875 1347.823974609375 1304.4757080078125 
1396.284423828125 1325.8330078125 1277.404052734375 1243.7171630859375 1251.7392578125 1280.9488525390625 1275.2547607421875 1266.2847900390625 1256.132080078125 1230.8123779296875 1204.5450439453125 1179.1019287109375 1145.320068359375 1115.761962890625 1104.0499267578125 1104.9942626953125 1106.8131103515625 1094.2811279296875 1075.9384765625 1056.7613525390625 1038.4737548828125 1012.46368408203125 982.7437744140625 951.9617919921875 918.15869140625 878.26611328125 831.546875 782.39349365234375 717.3214111328125 651.180419921875 590.8367919921875 532.07073974609375 478.06500244140625 448.384307861328125 440.09918212890625 411.968017578125 378.73236083984375 369.35333251953125 350.254669189453125 322.410003662109375 297.62152099609375 266.01055908203125 231.3870391845703125 194.0266876220703125 152.3230438232421875 139.17022705078125 162.6533203125 198.3396759033203125 212.1757049560546875 223.4817657470703125 236.0102081298828125 246.0887603759765625 260.390655517578125 282.79547119140625 306.989501953125 333.373382568359375 357.9326171875 375.171051025390625 390.4478759765625 408.388702392578125 429.59576416015625 454.37811279296875 485.88555908203125 535.682373046875 600.56109619140625 662.57489013671875 717.3365478515625 773.89007568359375 832.9959716796875 901.72576904296875 958.2373046875 1011.04132080078125 1081.6483154296875 1167.30126953125 1237.1954345703125 1300.091064453125 1364.618896484375 1432.1202392578125 1495.4781494140625 1557.0604248046875 1613.5426025390625 1668.3427734375 1706.7530517578125 1728.7369384765625 1749.361328125 1770.0179443359375 1783.119873046875 1783.598876953125 1791.427001953125 1796.9019775390625 1808.6829833984375 1835.2869873046875 1835.98291015625 1827.376953125 1827.5245361328125 1816.3116455078125 1803.3128662109375 1798.67578125 1800.1053466796875 1798.5843505859375 1808.112548828125 1831.07373046875 1848.108642578125 1850.0289306640625 1846.24853515625 1840.9605712890625 1820.9193115234375 1807.12548828125 1788.461181640625 1768.065673828125 1773.6846923828125 1788.89990234375 1805.957763671875 1825.0396728515625 1855.546630859375 1886.015380859375 1911.2906494140625 1920.2952880859375 1920.7022705078125 1934.298828125 1949.6087646484375 1946.7882080078125 1942.7369384765625 1952.22412109375 1953.5194091796875 1949.23974609375 1939.6297607421875 1898.271728515625 1838.9979248046875 1789.592529296875 1760.3697509765625 1733.6175537109375 1709.827880859375 1698.2371826171875 1694.5111083984375 1689.9720458984375 1685.0299072265625 1684.18994140625 1689.9815673828125 1693.9632568359375 1705.99267578125 1724.8494873046875 1745.8609619140625 1760.226806640625 1750.561279296875 1729.150146484375 1716.191650390625 1704.8865966796875 1681.5379638671875 1639.9774169921875 1596.7064208984375 1554.257568359375 1512.9981689453125 1492.34716796875 1474.005859375 1444.3126220703125 1414.54833984375 1388.3798828125 1360.0628662109375 1333.6734619140625 1303.438720703125 1291.705322265625 1303.0418701171875 1323.530517578125 1351.0716552734375 1384.7177734375 1419.590576171875 1449.6192626953125 1478.2957763671875 1484.084716796875 1465.3519287109375 1425.4300537109375 1379.048583984375 1332.771240234375 1290.81005859375 
1383.2637939453125 1325.080078125 1284.69287109375 1263.1802978515625 1272.4744873046875 1290.231201171875 1290.4537353515625 1289.137939453125 1285.869140625 1263.969482421875 1240.45068359375 1207.197021484375 1168.3712158203125 1144.818603515625 1128.6209716796875 1128.6124267578125 1138.41015625 1123.6302490234375 1103.0579833984375 1089.634765625 1066.485107421875 1032.6932373046875 1002.43017578125 975.975830078125 952.848876953125 922.9283447265625 870.078857421875 803.48681640625 733.84991455078125 668.3175048828125 605.77801513671875 548.2520751953125 487.434661865234375 437.384613037109375 402.85467529296875 377.106719970703125 352.913360595703125 333.10589599609375 310.069244384765625 289.85247802734375 267.979766845703125 241.2000579833984375 215.0966033935546875 183.205963134765625 147.7376708984375 140.5108489990234375 160.5910186767578125 193.5787811279296875 211.2432403564453125 225.274139404296875 238.6107025146484375 249.6681976318359375 264.990814208984375 284.90435791015625 306.65032958984375 327.407501220703125 347.999267578125 366.930877685546875 387.509429931640625 412.393157958984375 435.602325439453125 459.199127197265625 487.394989013671875 529.28338623046875 585.81378173828125 641.7119140625 691.18475341796875 738.84674072265625 795.1348876953125 857.90838623046875 921.8909912109375 991.02886962890625 1077.4962158203125 1167.7689208984375 1229.4423828125 1287.5582275390625 1352.1287841796875 1413.2008056640625 1475.8853759765625 1537.974853515625 1596.8887939453125 1649.932373046875 1682.2718505859375 1708.9410400390625 1741.9013671875 1761.0174560546875 1773.7142333984375 1779.0872802734375 1790.220947265625 1793.09033203125 1805.7235107421875 1838.5169677734375 1843.660400390625 1836.554443359375 1839.12548828125 1835.113525390625 1830.68798828125 1825.6846923828125 1819.8255615234375 1816.68701171875 1828.1763916015625 1856.26220703125 1863.392333984375 1851.49560546875 1844.3055419921875 1837.0301513671875 1816.474365234375 1802.289306640625 1784.751953125 1761.41015625 1756.246337890625 1765.8365478515625 1785.05029296875 1811.029052734375 1844.3890380859375 1876.0980224609375 1903.3983154296875 1912.750244140625 1912.7222900390625 1917.9091796875 1930.760009765625 1927.813232421875 1926.40771484375 1940.6134033203125 1945.871337890625 1954.0506591796875 1951.5294189453125 1920.931640625 1865.293212890625 1801.668212890625 1761.1357421875 1735.4896240234375 1712.5439453125 1700.4373779296875 1703.33251953125 1708.0008544921875 1709.9713134765625 1711.3475341796875 1712.0582275390625 1714.9561767578125 1730.5274658203125 1750.406005859375 1761.509033203125 1756.8922119140625 1734.9405517578125 1703.6982421875 1680.1209716796875 1658.45703125 1633.8436279296875 1597.1961669921875 1562.1651611328125 1535.88671875 1505.1749267578125 1471.9359130859375 1449.759521484375 1424.7913818359375 1396.5653076171875 1374.8853759765625 1350.644287109375 1328.761474609375 1316.0635986328125 1331.7958984375 1361.030517578125 1386.9844970703125 1403.15966796875 1431.2525634765625 1462.10302734375 1493.5892333984375 1511.1683349609375 1496.4859619140625 1461.082275390625 1413.8651123046875 1364.19482421875 1317.204345703125 1277.9561767578125 
1362.34033203125 1320.17236328125 1292.1561279296875 1294.47119140625 1297.40087890625 1297.528076171875 1306.8829345703125 1313.509521484375 1313.60693359375 1299.4259033203125 1273.9034423828125 1234.3544921875 1196.443359375 1177.3197021484375 1155.393310546875 1146.195068359375 1158.3369140625 1144.5042724609375 1125.45068359375 1109.8231201171875 1082.2156982421875 1046.3216552734375 1010.9632568359375 976.37237548828125 950.23638916015625 920.26239013671875 870.27587890625 799.92169189453125 729.71551513671875 666.24713134765625 604.653076171875 547.46380615234375 496.360931396484375 449.5955810546875 411.82464599609375 387.804168701171875 373.75396728515625 344.144683837890625 299.215362548828125 274.251251220703125 253.3137359619140625 223.3508453369140625 199.9707794189453125 171.5597076416015625 142.8091583251953125 140.5490264892578125 161.017913818359375 186.18768310546875 205.480987548828125 220.5570831298828125 234.362060546875 248.684661865234375 265.186248779296875 283.327178955078125 302.8114013671875 324.29815673828125 342.361236572265625 360.64874267578125 382.035797119140625 406.8997802734375 431.95428466796875 461.022064208984375 492.358795166015625 526.36669921875 567.87286376953125 620.8345947265625 678.810791015625 735.0306396484375 782.13568115234375 841.5882568359375 920.869873046875 997.98492431640625 1082.05029296875 1163.6910400390625 1230.7376708984375 1292.4525146484375 1358.3233642578125 1421.2532958984375 1482.6929931640625 1541.0404052734375 1590.6773681640625 1631.2896728515625 1660.022216796875 1695.24951171875 1729.5166015625 1740.0653076171875 1752.0260009765625 1760.86865234375 1772.9931640625 1777.5767822265625 1791.4678955078125 1824.58984375 1840.054931640625 1845.88916015625 1851.5341796875 1856.9039306640625 1858.8740234375 1850.986572265625 1838.4293212890625 1836.3994140625 1846.9156494140625 1866.7169189453125 1864.769287109375 1845.0162353515625 1833.037841796875 1826.1563720703125 1807.1988525390625 1790.47802734375 1772.41748046875 1752.4246826171875 1743.1197509765625 1750.8270263671875 1768.0440673828125 1795.15380859375 1824.257568359375 1855.5452880859375 1886.236083984375 1900.279052734375 1902.9361572265625 1900.852294921875 1909.0999755859375 1917.826416015625 1914.58447265625 1925.93408203125 1943.577392578125 1959.7255859375 1958.031005859375 1941.456298828125 1898.4757080078125 1839.477783203125 1783.7730712890625 1747.068603515625 1726.135986328125 1713.6448974609375 1715.7669677734375 1729.828369140625 1741.6148681640625 1746.6884765625 1746.317138671875 1750.6072998046875 1764.321533203125 1780.6937255859375 1778.9378662109375 1749.0303955078125 1712.30126953125 1676.7413330078125 1647.8468017578125 1619.51171875 1586.7646484375 1554.5645751953125 1527.14208984375 1510.583984375 1488.30810546875 1461.0001220703125 1430.867431640625 1406.3543701171875 1386.0474853515625 1369.49462890625 1360.652587890625 1356.9976806640625 1353.0438232421875 1380.22900390625 1422.3775634765625 1449.201171875 1462.055908203125 1484.1739501953125 1512.88623046875 1532.3699951171875 1532.048095703125 1501.3458251953125 1454.5494384765625 1402.9326171875 1348.4154052734375 1303.1297607421875 1271.3182373046875 
1350.498046875 1319.270751953125 1309.2572021484375 1327.74755859375 1332.501953125 1326.8988037109375 1333.841064453125 1339.343505859375 1334.5159912109375 1325.1177978515625 1299.6732177734375 1258.541015625 1223.5224609375 1207.0712890625 1184.560791015625 1161.52587890625 1162.05517578125 1155.455078125 1136.8406982421875 1115.9168701171875 1095.2001953125 1069.6741943359375 1028.5050048828125 984.5809326171875 949.89678955078125 907.90899658203125 848.483154296875 790.653564453125 736.86737060546875 693.570556640625 643.75738525390625 588.97430419921875 534.91094970703125 496.48681640625 458.173126220703125 420.527618408203125 395.4688720703125 366.564788818359375 326.7694091796875 296.96221923828125 274.553741455078125 247.6528778076171875 217.0723419189453125 174.0839691162109375 141.6358489990234375 142.3922576904296875 159.806671142578125 183.5391845703125 205.3595733642578125 220.0946197509765625 233.5872955322265625 247.309234619140625 261.889373779296875 279.226226806640625 301.256500244140625 327.5582275390625 346.603790283203125 362.4991455078125 382.107757568359375 406.030914306640625 434.486724853515625 463.069305419921875 490.694000244140625 523.6011962890625 572.81829833984375 637.91015625 710.9119873046875 780.3861083984375 825.37762451171875 867.6907958984375 937.26214599609375 1007.6514892578125 1078.6962890625 1144.5467529296875 1214.794189453125 1282.017333984375 1351.304443359375 1422.76318359375 1488.837646484375 1550.5574951171875 1586.8739013671875 1606.087158203125 1636.735107421875 1674.62353515625 1703.928466796875 1711.0032958984375 1717.7052001953125 1728.801513671875 1741.626220703125 1751.37744140625 1764.765380859375 1797.010009765625 1823.579833984375 1841.5172119140625 1858.51025390625 1875.231201171875 1882.1748046875 1875.7288818359375 1862.7796630859375 1856.511962890625 1859.07373046875 1865.80224609375 1858.63037109375 1839.5494384765625 1823.2481689453125 1811.4864501953125 1793.4969482421875 1775.9908447265625 1758.22265625 1741.7481689453125 1729.622314453125 1735.794677734375 1752.5361328125 1778.4122314453125 1802.6187744140625 1828.2879638671875 1857.7640380859375 1879.6800537109375 1892.3258056640625 1890.84130859375 1896.854248046875 1905.90234375 1903.1142578125 1919.688720703125 1940.8033447265625 1955.7822265625 1957.4967041015625 1953.4427490234375 1927.7276611328125 1890.8299560546875 1841.7103271484375 1789.7333984375 1756.2940673828125 1743.1131591796875 1740.4862060546875 1752.4588623046875 1768.3447265625 1777.092529296875 1778.1873779296875 1784.6741943359375 1796.2608642578125 1796.1756591796875 1775.065673828125 1733.304931640625 1691.4903564453125 1651.9041748046875 1617.8250732421875 1585.1932373046875 1553.0877685546875 1526.95947265625 1505.6163330078125 1492.7989501953125 1474.2750244140625 1449.06201171875 1418.9100341796875 1400.7022705078125 1397.5595703125 1399.817138671875 1398.488037109375 1395.2589111328125 1392.3099365234375 1415.0660400390625 1460.991943359375 1495.7034912109375 1517.8438720703125 1536.2025146484375 1559.91943359375 1564.3118896484375 1536.5399169921875 1492.4349365234375 1444.52783203125 1389.7734375 1334.0157470703125 1289.79052734375 1265.8175048828125 
1352.595947265625 1331.1263427734375 1341.4710693359375 1363.99609375 1372.1865234375 1371.517333984375 1368.136474609375 1362.1739501953125 1355.3148193359375 1342.26416015625 1319.4715576171875 1286.45556640625 1249.1942138671875 1227.8189697265625 1206.197021484375 1182.1793212890625 1167.1387939453125 1159.440185546875 1145.47265625 1123.0594482421875 1106.548095703125 1081.4783935546875 1039.64453125 990.91094970703125 955.81103515625 916.18133544921875 870.82354736328125 834.38201904296875 795.7733154296875 760.609375 710.862548828125 643.9423828125 582.4713134765625 543.83984375 500.9285888671875 442.572235107421875 394.0950927734375 369.575286865234375 339.1044921875 304.907867431640625 280.58331298828125 264.3094482421875 232.7027587890625 182.144195556640625 144.1356353759765625 137.86297607421875 152.3371124267578125 181.255889892578125 203.826812744140625 219.5688018798828125 233.09307861328125 245.11578369140625 260.09710693359375 279.849639892578125 303.487518310546875 323.26025390625 337.077362060546875 354.592437744140625 375.752044677734375 401.80535888671875 428.823272705078125 451.851348876953125 477.02899169921875 515.67913818359375 575.9332275390625 649.51678466796875 721.36376953125 786.89227294921875 845.88067626953125 883.9197998046875 934.9566650390625 1003.0225830078125 1079.4571533203125 1148.167236328125 1216.0794677734375 1287.3427734375 1355.369384765625 1423.4473876953125 1485.279541015625 1542.980224609375 1569.62109375 1580.810302734375 1610.984130859375 1644.8226318359375 1666.889892578125 1675.3194580078125 1679.8118896484375 1692.8497314453125 1710.546142578125 1722.1231689453125 1736.586181640625 1768.265625 1801.42578125 1826.7781982421875 1856.645263671875 1876.37841796875 1887.8148193359375 1889.8486328125 1882.46484375 1873.1033935546875 1867.1397705078125 1862.14599609375 1853.158203125 1838.9678955078125 1822.2384033203125 1802.338623046875 1781.408203125 1761.7344970703125 1746.4332275390625 1731.4771728515625 1715.782470703125 1718.057373046875 1735.5181884765625 1759.300537109375 1783.6522216796875 1808.444580078125 1831.8995361328125 1858.5242919921875 1880.326171875 1880.721435546875 1875.4132080078125 1880.9503173828125 1888.19384765625 1908.017822265625 1927.85888671875 1943.927734375 1952.6180419921875 1951.424560546875 1939.5260009765625 1925.2177734375 1897.462158203125 1847.4818115234375 1791.2559814453125 1766.9744873046875 1763.6688232421875 1766.4803466796875 1782.775146484375 1808.19287109375 1813.6485595703125 1809.662353515625 1794.254150390625 1765.0487060546875 1737.3734130859375 1702.900634765625 1666.21240234375 1622.5350341796875 1587.2569580078125 1552.8372802734375 1526.8736572265625 1509.6842041015625 1492.163330078125 1479.0076904296875 1460.0714111328125 1442.7376708984375 1432.9383544921875 1437.562744140625 1451.6339111328125 1467.186279296875 1461.2581787109375 1445.05810546875 1433.1474609375 1442.093994140625 1488.8746337890625 1533.423583984375 1559.3253173828125 1575.649169921875 1586.0596923828125 1570.4942626953125 1522.1829833984375 1468.4566650390625 1419.9599609375 1366.80322265625 1322.9844970703125 1288.7254638671875 1280.158203125 
1362.103271484375 1363.5731201171875 1389.9178466796875 1411.620849609375 1414.7427978515625 1409.3123779296875 1401.34423828125 1389.100830078125 1375.08544921875 1354.3251953125 1327.36181640625 1302.973388671875 1274.56201171875 1246.8798828125 1221.0806884765625 1198.13330078125 1176.2738037109375 1162.7174072265625 1149.8895263671875 1124.8040771484375 1108.7978515625 1079.8359375 1040.0941162109375 1000.73443603515625 966.291748046875 930.81658935546875 916.0164794921875 893.39263916015625 852.112548828125 804.3468017578125 748.0601806640625 677.5394287109375 613.47412109375 565.64813232421875 514.54278564453125 443.823944091796875 385.70367431640625 354.3819580078125 323.252349853515625 296.72052001953125 271.950714111328125 256.873046875 229.827423095703125 192.617919921875 150.8220062255859375 134.7457275390625 145.737945556640625 180.1633453369140625 201.6516571044921875 212.59423828125 226.5507965087890625 239.4967041015625 258.22772216796875 283.690216064453125 317.734405517578125 337.253173828125 344.966705322265625 356.5439453125 374.4364013671875 395.74725341796875 416.685760498046875 444.001617431640625 472.305023193359375 511.05889892578125 564.73699951171875 631.23114013671875 696.23175048828125 755.38372802734375 814.447509765625 860.980712890625 917.540283203125 989.902099609375 1072.2464599609375 1143.0528564453125 1212.9169921875 1296.0662841796875 1373.7276611328125 1436.4681396484375 1484.1317138671875 1525.3546142578125 1543.6082763671875 1559.3719482421875 1589.689453125 1613.1785888671875 1629.1097412109375 1639.5858154296875 1647.0865478515625 1657.9268798828125 1676.888916015625 1694.4501953125 1714.7371826171875 1746.722412109375 1781.7635498046875 1813.13330078125 1846.36279296875 1868.0308837890625 1878.4493408203125 1884.7982177734375 1882.93359375 1870.745361328125 1866.7545166015625 1858.6058349609375 1848.4080810546875 1836.4036865234375 1820.4783935546875 1795.990234375 1773.8876953125 1753.5281982421875 1737.663818359375 1723.9461669921875 1705.1756591796875 1704.5965576171875 1721.0101318359375 1742.754150390625 1765.3294677734375 1790.8505859375 1811.5953369140625 1836.302490234375 1859.197509765625 1861.4215087890625 1850.1304931640625 1854.1236572265625 1866.2618408203125 1885.2005615234375 1910.3472900390625 1934.4921875 1949.33935546875 1952.6768798828125 1948.967529296875 1934.5601806640625 1916.2431640625 1880.2310791015625 1837.30810546875 1801.71630859375 1787.130126953125 1785.7666015625 1801.131591796875 1841.52099609375 1852.3780517578125 1821.386474609375 1776.400146484375 1734.6990966796875 1696.415283203125 1663.5057373046875 1630.1007080078125 1594.1966552734375 1566.7940673828125 1539.9095458984375 1514.950439453125 1501.13623046875 1485.4339599609375 1471.3480224609375 1467.011962890625 1478.296630859375 1489.5118408203125 1500.32080078125 1517.8057861328125 1533.656494140625 1520.72900390625 1490.18994140625 1468.2200927734375 1477.438720703125 1523.3560791015625 1570.155029296875 1606.9176025390625 1614.4154052734375 1595.796142578125 1562.65966796875 1506.6865234375 1448.000244140625 1394.9189453125 1343.184814453125 1314.88427734375 1308.9031982421875 1317.7569580078125 
1398.715087890625 1423.4571533203125 1457.3343505859375 1469.3023681640625 1453.3746337890625 1435.548095703125 1423.568359375 1412.423095703125 1393.3583984375 1369.7247314453125 1338.797119140625 1308.531494140625 1290.1854248046875 1261.8594970703125 1233.9688720703125 1212.3885498046875 1193.7840576171875 1166.6943359375 1147.731201171875 1118.7242431640625 1100.1956787109375 1074.67041015625 1040.9320068359375 1005.443115234375 970.885986328125 951.01947021484375 939.42059326171875 907.07476806640625 856.4368896484375 799.44073486328125 742.408447265625 678.875244140625 616.305419921875 562.424560546875 504.759246826171875 434.77728271484375 373.653228759765625 336.236602783203125 306.94549560546875 284.982208251953125 264.01837158203125 256.41033935546875 243.60980224609375 211.8646087646484375 164.2025604248046875 136.7314605712890625 138.3829803466796875 167.7957000732421875 192.68115234375 202.9933013916015625 214.8217010498046875 232.0132904052734375 258.290008544921875 283.669647216796875 320.188812255859375 346.127655029296875 362.684295654296875 371.039215087890625 380.515594482421875 395.055908203125 412.462371826171875 442.91424560546875 473.861541748046875 515.45379638671875 565.2496337890625 618.58856201171875 682.4901123046875 744.472900390625 809.55377197265625 863.99371337890625 909.68402099609375 972.3291015625 1046.2828369140625 1120.478271484375 1195.6016845703125 1277.5648193359375 1357.439697265625 1412.3511962890625 1456.475341796875 1497.820556640625 1516.170654296875 1541.36474609375 1569.661376953125 1585.7786865234375 1594.798095703125 1605.0113525390625 1617.9229736328125 1631.264404296875 1650.7071533203125 1674.44921875 1700.0125732421875 1731.1805419921875 1766.1170654296875 1805.08056640625 1840.5615234375 1862.51513671875 1866.434814453125 1868.0400390625 1869.4755859375 1858.1217041015625 1858.2486572265625 1852.7442626953125 1847.3233642578125 1832.7655029296875 1812.2523193359375 1787.75146484375 1768.4107666015625 1748.6070556640625 1731.248046875 1716.1177978515625 1695.1956787109375 1690.9049072265625 1707.02294921875 1727.2874755859375 1749.8033447265625 1772.3287353515625 1792.873779296875 1813.7027587890625 1835.7862548828125 1840.3680419921875 1829.1024169921875 1830.9344482421875 1846.88671875 1874.79345703125 1903.9700927734375 1931.2344970703125 1950.61767578125 1956.3104248046875 1956.4312744140625 1946.183837890625 1923.6090087890625 1893.46533203125 1887.4188232421875 1867.23193359375 1836.438720703125 1824.2916259765625 1835.6082763671875 1871.18798828125 1878.1492919921875 1835.936279296875 1782.33935546875 1737.93359375 1683.5914306640625 1638.9302978515625 1602.66748046875 1576.33984375 1555.4320068359375 1531.9091796875 1515.1278076171875 1504.0670166015625 1494.5540771484375 1497.5770263671875 1519.4981689453125 1544.467529296875 1546.7786865234375 1557.440673828125 1582.29931640625 1595.177978515625 1574.2923583984375 1531.2542724609375 1507.00390625 1525.5325927734375 1568.67529296875 1611.2427978515625 1640.781005859375 1629.2784423828125 1587.80517578125 1543.947265625 1487.7427978515625 1435.1190185546875 1385.329833984375 1341.663818359375 1332.421142578125 1343.2137451171875 1358.6500244140625 
1460.444091796875 1501.16845703125 1523.3131103515625 1520.3741455078125 1490.4107666015625 1459.2843017578125 1440.144775390625 1423.2738037109375 1406.255859375 1383.613037109375 1353.862060546875 1316.8758544921875 1303.673583984375 1280.9637451171875 1253.2156982421875 1226.1812744140625 1208.61669921875 1177.1473388671875 1142.5028076171875 1109.8035888671875 1087.59521484375 1064.0906982421875 1040.6309814453125 1010.58154296875 986.90948486328125 978.8319091796875 954.120361328125 912.0538330078125 853.01995849609375 781.82257080078125 714.70953369140625 650.0745849609375 585.04425048828125 528.2574462890625 475.20684814453125 416.01824951171875 363.62255859375 326.4034423828125 299.284393310546875 279.259735107421875 262.100830078125 256.988311767578125 251.4182891845703125 228.027374267578125 178.37371826171875 142.12384033203125 134.357574462890625 155.7584686279296875 185.3847808837890625 195.8976287841796875 210.2568206787109375 233.1676788330078125 260.136505126953125 284.8074951171875 318.7039794921875 347.460601806640625 372.5128173828125 390.3524169921875 401.368804931640625 412.14129638671875 420.80084228515625 440.1251220703125 471.761260986328125 515.26385498046875 576.26373291015625 637.83172607421875 708.52813720703125 775.89501953125 848.1365966796875 909.24652099609375 930.54608154296875 966.74676513671875 1028.9544677734375 1102.1622314453125 1175.369873046875 1249.0145263671875 1318.7396240234375 1375.4091796875 1428.080078125 1466.9847412109375 1491.4964599609375 1520.09423828125 1540.5211181640625 1551.88818359375 1557.64990234375 1565.9730224609375 1582.751220703125 1606.426513671875 1632.925048828125 1665.0615234375 1697.280517578125 1728.708251953125 1765.5843505859375 1807.18505859375 1840.149658203125 1859.18359375 1856.7742919921875 1845.0296630859375 1842.8380126953125 1839.6744384765625 1840.894287109375 1837.128173828125 1834.608642578125 1823.31689453125 1804.8079833984375 1784.566650390625 1765.552001953125 1747.83251953125 1732.1724853515625 1714.2774658203125 1689.1180419921875 1676.293701171875 1686.9146728515625 1707.1978759765625 1731.8558349609375 1757.12841796875 1779.89111328125 1797.6793212890625 1813.209228515625 1817.49853515625 1810.1668701171875 1808.743408203125 1831.372314453125 1867.6334228515625 1900.26416015625 1930.7220458984375 1948.830810546875 1956.9720458984375 1958.265869140625 1948.99609375 1924.100341796875 1894.2398681640625 1900.7598876953125 1903.9510498046875 1893.3553466796875 1888.67919921875 1891.1944580078125 1899.1688232421875 1900.173583984375 1868.650634765625 1825.272705078125 1786.8411865234375 1717.8092041015625 1646.6162109375 1593.2552490234375 1568.7996826171875 1550.2310791015625 1537.638671875 1532.7740478515625 1532.342041015625 1543.5919189453125 1561.59619140625 1590.5218505859375 1614.5997314453125 1607.6864013671875 1610.65185546875 1646.2137451171875 1654.3634033203125 1619.0885009765625 1576.074462890625 1559.07373046875 1579.0474853515625 1616.587646484375 1648.560302734375 1656.2724609375 1630.78662109375 1586.2886962890625 1538.23828125 1476.5596923828125 1423.420654296875 1380.334716796875 1358.361083984375 1367.5987548828125 1391.632080078125 1409.0537109375 
1533.0302734375 1568.4219970703125 1575.107421875 1558.97900390625 1525.4122314453125 1489.790771484375 1465.7232666015625 1442.750732421875 1423.3251953125 1397.558349609375 1369.78759765625 1332.526123046875 1307.5341796875 1297.066650390625 1269.9547119140625 1239.65478515625 1213.99462890625 1181.8658447265625 1147.76611328125 1108.58740234375 1077.7706298828125 1050.63427734375 1039.2545166015625 1019.76800537109375 1005.10394287109375 994.13848876953125 961.7677001953125 917.47918701171875 862.27996826171875 795.57696533203125 722.4464111328125 646.555908203125 569.93865966796875 503.884613037109375 452.331817626953125 401.370941162109375 358.273712158203125 324.77520751953125 295.99468994140625 277.065643310546875 264.371002197265625 255.8727874755859375 250.3099822998046875 238.63922119140625 195.4280853271484375 150.66326904296875 134.3627777099609375 148.67388916015625 182.2335205078125 196.2820587158203125 218.3619537353515625 241.521820068359375 263.076171875 286.34576416015625 317.611297607421875 347.620697021484375 371.568084716796875 393.027618408203125 410.08172607421875 422.91058349609375 437.592987060546875 455.935089111328125 484.9302978515625 524.34063720703125 579.5552978515625 640.95233154296875 711.8759765625 789.2393798828125 863.4796142578125 940.25189208984375 980.0111083984375 996.427001953125 1029.9046630859375 1086.529296875 1152.7618408203125 1224 1289.2333984375 1352.5650634765625 1407.2254638671875 1436.52880859375 1466.2802734375 1491.897705078125 1501.86865234375 1509.528564453125 1518.7528076171875 1538.953857421875 1569.27294921875 1604.77587890625 1642.4268798828125 1677.506103515625 1707.8260498046875 1741.059326171875 1778.370849609375 1812.0634765625 1839.2421875 1856.945068359375 1849.70263671875 1829.2652587890625 1816.6683349609375 1812.8951416015625 1814.440673828125 1812.5989990234375 1812.2227783203125 1808.0946044921875 1803.19189453125 1786.867919921875 1767.51123046875 1749.6680908203125 1734.9287109375 1714.9482421875 1686.5057373046875 1662.9093017578125 1666.0413818359375 1685.794921875 1711.0042724609375 1741.552001953125 1770.254150390625 1785.103759765625 1788.7666015625 1789.422607421875 1789.7366943359375 1792.81103515625 1815.802978515625 1853.7652587890625 1894.34033203125 1927.494140625 1936.3935546875 1946.5714111328125 1949.608642578125 1941.300048828125 1920.04638671875 1891.785400390625 1892.0347900390625 1902.8101806640625 1911.875244140625 1922.503662109375 1922.527099609375 1919.606201171875 1915.13671875 1894.7015380859375 1861.6676025390625 1810.7783203125 1738.7584228515625 1658.3636474609375 1595.7247314453125 1573.800048828125 1561.0589599609375 1561.738525390625 1565.3377685546875 1587.3863525390625 1614.5408935546875 1638.027099609375 1654.4228515625 1676.23583984375 1672.4959716796875 1673.93896484375 1697.5968017578125 1685.302734375 1643.0113525390625 1609.286865234375 1602.51513671875 1624.7156982421875 1659.4534912109375 1677.961181640625 1663.4635009765625 1626.2027587890625 1577.0526123046875 1519.5272216796875 1459.8687744140625 1414.25927734375 1391.0716552734375 1393.947265625 1419.9462890625 1446.9068603515625 1461.16943359375 
1599.278076171875 1618.7303466796875 1606.583740234375 1581.052978515625 1549.6546630859375 1511.5419921875 1491.7161865234375 1468.908203125 1442.8291015625 1416.569580078125 1382.77001953125 1337.378662109375 1292.4881591796875 1291.8524169921875 1281.8575439453125 1256.4793701171875 1223.39208984375 1181.9134521484375 1145.9649658203125 1106.2198486328125 1072.46875 1048.25732421875 1040.6446533203125 1025.6954345703125 1014.27801513671875 993.21533203125 959.55560302734375 915.92193603515625 864.56915283203125 812.55999755859375 747.58489990234375 671.03033447265625 590.30224609375 519.03204345703125 461.834747314453125 410.263458251953125 362.582275390625 323.84503173828125 292.48883056640625 276.2978515625 263.9376220703125 255.4771575927734375 248.9297332763671875 242.7901763916015625 212.916961669921875 162.9786224365234375 138.5074920654296875 144.022125244140625 177.62579345703125 203.546478271484375 231.8138427734375 248.2275543212890625 264.619842529296875 286.46795654296875 317.529052734375 347.11309814453125 370.400543212890625 392.743194580078125 411.426727294921875 429.4453125 452.460479736328125 475.393829345703125 500.5709228515625 531.257568359375 577.0272216796875 637.0015869140625 708.3455810546875 783.0975341796875 860.21795654296875 941.081298828125 1002.25537109375 1046.801513671875 1074.01416015625 1103.3212890625 1156.923095703125 1228.540771484375 1298.497314453125 1357.8125 1391.6943359375 1398.772705078125 1424.259521484375 1445.333740234375 1450.3868408203125 1466.1436767578125 1499.2713623046875 1539.125732421875 1580.0350341796875 1619.569580078125 1660.247802734375 1690.287109375 1714.65673828125 1744.9444580078125 1779.8546142578125 1810.33935546875 1831.90478515625 1850.6717529296875 1836.7945556640625 1811.51806640625 1790.857666015625 1780.2230224609375 1782.8131103515625 1785.4093017578125 1788.5390625 1793.5887451171875 1801.759765625 1788.5665283203125 1770.6995849609375 1753.0045166015625 1739.67431640625 1717.422607421875 1688.72412109375 1656.10986328125 1649.5836181640625 1667.3424072265625 1690.0159912109375 1720.970458984375 1753.90869140625 1768.1163330078125 1761.674560546875 1758.43359375 1762.6483154296875 1775.7862548828125 1796.8914794921875 1830.954833984375 1881.408447265625 1916.0982666015625 1918.4761962890625 1921.2451171875 1926.6541748046875 1925.578125 1913.497802734375 1893.18359375 1885.9327392578125 1896.356201171875 1909.237060546875 1923.14599609375 1928.7769775390625 1932.43505859375 1929.46142578125 1909.0960693359375 1855.3702392578125 1790.420654296875 1727.86669921875 1658.5255126953125 1604.6099853515625 1582.400146484375 1574.7713623046875 1584.3045654296875 1605.677490234375 1657.6595458984375 1697.6517333984375 1710.274169921875 1718.1962890625 1730.7974853515625 1742.3392333984375 1747.3193359375 1749.0635986328125 1714.5079345703125 1669.3226318359375 1643.1165771484375 1639.104248046875 1662.569580078125 1691.95947265625 1687.336181640625 1654.36279296875 1607.94921875 1554.4384765625 1495.15185546875 1444.94287109375 1419.63623046875 1418.6048583984375 1446.215576171875 1480.1143798828125 1499.695556640625 1496.9217529296875 
1651.5330810546875 1647.34765625 1621.959228515625 1594.3624267578125 1570.5621337890625 1536.1329345703125 1507.7689208984375 1479.1607666015625 1454.8536376953125 1429.7982177734375 1383.477294921875 1322.7630615234375 1271.73974609375 1265.380615234375 1265.4339599609375 1253.2459716796875 1224.8336181640625 1176.7203369140625 1133.3699951171875 1100.46044921875 1069.6319580078125 1047.5797119140625 1039.537841796875 1028.939208984375 1012.08258056640625 981.40924072265625 947.24151611328125 904.20794677734375 857.364013671875 815.33544921875 760.5433349609375 692.3812255859375 616.5400390625 542.3470458984375 480.8018798828125 432.826812744140625 387.83673095703125 340.44659423828125 294.133636474609375 273.5179443359375 262.982421875 253.8987884521484375 248.673126220703125 241.21734619140625 226.029815673828125 178.37188720703125 142.5224609375 142.600006103515625 173.328887939453125 210.180877685546875 243.328460693359375 256.953216552734375 267.18670654296875 287.004364013671875 315.803863525390625 345.556121826171875 369.14251708984375 391.138824462890625 407.456634521484375 425.65911865234375 447.035186767578125 466.95404052734375 493.556854248046875 530.90875244140625 576.18768310546875 637.667724609375 708.1829833984375 781.4132080078125 854.19049072265625 928.9765625 999.4283447265625 1071.4422607421875 1127.209228515625 1154.5323486328125 1185.5833740234375 1248.5413818359375 1317.7630615234375 1369.93115234375 1376.2930908203125 1352.7216796875 1362.1319580078125 1387.81884765625 1416.7283935546875 1461.898681640625 1514.6259765625 1557.96923828125 1594.8446044921875 1630.8504638671875 1662.2645263671875 1685.6085205078125 1706.5374755859375 1730.1201171875 1763.682373046875 1796.5028076171875 1815.431640625 1826.4599609375 1810.4573974609375 1786.1776123046875 1760.4677734375 1746.0146484375 1747.2874755859375 1754.7762451171875 1766.5858154296875 1778.470458984375 1791.310302734375 1782.14306640625 1767.0252685546875 1754.6689453125 1740.8924560546875 1717.905029296875 1691.12353515625 1656.3558349609375 1636.38134765625 1646.627685546875 1670.1944580078125 1698.901611328125 1729.2083740234375 1739.80859375 1729.5498046875 1728.8116455078125 1739.094970703125 1757.9168701171875 1776.36083984375 1806.5943603515625 1857.0670166015625 1885.79150390625 1882.22021484375 1875.4635009765625 1883.2081298828125 1893.972412109375 1891.9322509765625 1886.5203857421875 1890.6016845703125 1900.7254638671875 1912.3482666015625 1921.9688720703125 1930.7471923828125 1937.3485107421875 1938.1097412109375 1913.322509765625 1842.9207763671875 1766.958984375 1706.985107421875 1657.4896240234375 1618.3294677734375 1594.481201171875 1589.6436767578125 1597.0753173828125 1632.6544189453125 1703.898681640625 1754.24853515625 1761.142578125 1762.1495361328125 1775.2674560546875 1788.65380859375 1805.88671875 1804.455810546875 1771.7958984375 1729.1151123046875 1700.7686767578125 1695.1466064453125 1709.720458984375 1716.892333984375 1686.510498046875 1639.343505859375 1583.94775390625 1532.6314697265625 1481.77734375 1452.133544921875 1442.693603515625 1459.4786376953125 1500.8350830078125 1528.1807861328125 1529.492919921875 1506.6710205078125 
1678.489013671875 1653.0625 1626.093505859375 1605.216552734375 1582.9735107421875 1552.6605224609375 1513.08740234375 1481.8936767578125 1461.5355224609375 1432.3961181640625 1381.6456298828125 1309.4747314453125 1245.8070068359375 1219.1729736328125 1226.12939453125 1231.2950439453125 1221.17919921875 1180.0379638671875 1126.858154296875 1095.667724609375 1074.0279541015625 1051.346435546875 1047.0628662109375 1038.628173828125 1004.16314697265625 965.564208984375 926.2056884765625 880.72198486328125 840.091552734375 806.88140869140625 762.30999755859375 705.0557861328125 642.2103271484375 577.24609375 518.18023681640625 461.377593994140625 413.2008056640625 364.90557861328125 308.67169189453125 278.26397705078125 262.090240478515625 253.6294403076171875 248.8779144287109375 238.10858154296875 221.913909912109375 184.68621826171875 144.96722412109375 140.1588897705078125 176.080596923828125 222.2276458740234375 250.5219879150390625 262.11041259765625 270.80615234375 287.797027587890625 317.365875244140625 345.934478759765625 367.267364501953125 387.707366943359375 404.89141845703125 419.043365478515625 437.630340576171875 458.807708740234375 491.147216796875 531.161865234375 573.63909912109375 636.94903564453125 705.38043212890625 777.3121337890625 846.7650146484375 919.35711669921875 999.0184326171875 1077.32080078125 1140.6795654296875 1189.5799560546875 1209.348388671875 1250.22314453125 1311.648681640625 1358.0703125 1351.2344970703125 1313.5491943359375 1333.1400146484375 1378.1163330078125 1431.5115966796875 1486.4959716796875 1533.666259765625 1570.9068603515625 1602.4993896484375 1628.685302734375 1648.60595703125 1670.55419921875 1694.5013427734375 1719.1224365234375 1747.980224609375 1775.9193115234375 1791.31298828125 1790.0428466796875 1774.9725341796875 1754.1142578125 1728.2579345703125 1712.7012939453125 1712.8416748046875 1727.552001953125 1747.3194580078125 1760.3023681640625 1769.7435302734375 1767.4259033203125 1758.02685546875 1749.512939453125 1734.275146484375 1710.9476318359375 1687.5032958984375 1655.0870361328125 1628.404296875 1629.2686767578125 1650.390869140625 1678.6839599609375 1703.87841796875 1710.00244140625 1699.3172607421875 1703.392578125 1723.843017578125 1741.023193359375 1754.36474609375 1782.1334228515625 1821.9044189453125 1839.0172119140625 1834.7659912109375 1827.3121337890625 1833.8675537109375 1851.447998046875 1862.345703125 1873.2890625 1886.6968994140625 1902.5869140625 1915.104248046875 1924.70166015625 1937.2078857421875 1944.2716064453125 1943.7813720703125 1918.1485595703125 1847.8372802734375 1759.878173828125 1705.777587890625 1668.864013671875 1634.6124267578125 1607.9576416015625 1601.7418212890625 1610.1142578125 1645.9808349609375 1718.15380859375 1767.8519287109375 1786.793212890625 1801.06494140625 1813.039306640625 1820.5634765625 1833.8890380859375 1836.0948486328125 1818.76513671875 1790.2291259765625 1771.7440185546875 1769.7958984375 1767.971435546875 1748.8607177734375 1696.2247314453125 1633.2440185546875 1575.5162353515625 1528.15771484375 1487.588623046875 1468.6092529296875 1471.7254638671875 1502.1011962890625 1542.7054443359375 1559.028564453125 1546.8548583984375 1514.55126953125 
1678.6727294921875 1653.5784912109375 1635.24853515625 1614.5172119140625 1588.1575927734375 1556.723876953125 1511.4599609375 1471.3590087890625 1443.4642333984375 1410.3480224609375 1365.8763427734375 1300.2337646484375 1225.132568359375 1172.6300048828125 1178.1063232421875 1200.117919921875 1206.916015625 1183.6202392578125 1130.50244140625 1093.84912109375 1076.88623046875 1053.450439453125 1048.6837158203125 1037.499267578125 997.203125 953.16668701171875 912.1304931640625 866.94384765625 824.4453125 796.8883056640625 759.659423828125 712.50927734375 673.85443115234375 634.75262451171875 576.9820556640625 500.31524658203125 429.3802490234375 375.926513671875 322.63616943359375 287.783905029296875 268.5738525390625 255.690216064453125 249.66204833984375 236.9455108642578125 210.3998870849609375 180.430999755859375 145.858062744140625 141.968048095703125 181.3777313232421875 232.2383575439453125 256.0897216796875 266.522857666015625 276.689239501953125 290.844207763671875 323.3165283203125 357.038299560546875 376.494598388671875 396.327484130859375 413.1888427734375 427.8443603515625 445.680755615234375 464.777374267578125 495.0582275390625 533.583251953125 573.26593017578125 634.2838134765625 703.2884521484375 770.796875 837.80645751953125 913.4827880859375 987.00653076171875 1055.600830078125 1115.28271484375 1165.1578369140625 1194.2066650390625 1221.5380859375 1267.8682861328125 1312.8240966796875 1308.72216796875 1283.9935302734375 1321.5703125 1373.4315185546875 1427.0423583984375 1481.2056884765625 1527.4808349609375 1562.83642578125 1587.6934814453125 1605.798095703125 1624.99267578125 1654.5028076171875 1684.1124267578125 1713.353271484375 1742.3133544921875 1766.2745361328125 1775.50634765625 1760.3671875 1741.75439453125 1721.2786865234375 1696.7132568359375 1681.8516845703125 1685.660888671875 1707.3101806640625 1731.018798828125 1742.00341796875 1742.671630859375 1743.3609619140625 1741.50634765625 1736.91796875 1721.95654296875 1698.5877685546875 1675.2109375 1645.9117431640625 1620.3326416015625 1620.5072021484375 1635.8896484375 1660.06884765625 1681.7314453125 1680.1331787109375 1671.624267578125 1682.3787841796875 1705.2064208984375 1720.9869384765625 1734.11767578125 1754.1239013671875 1780.9149169921875 1792.2679443359375 1789.57275390625 1786.164794921875 1793.7918701171875 1815.5723876953125 1841.788330078125 1863.39013671875 1880.35009765625 1896.162841796875 1912.1639404296875 1927.0179443359375 1945.910400390625 1953.7476806640625 1946.5252685546875 1922.5198974609375 1866.521240234375 1783.9075927734375 1735.883056640625 1701.258544921875 1662.0330810546875 1628.857666015625 1614.8212890625 1620.863037109375 1647.9892578125 1713.8662109375 1774.322509765625 1806.899169921875 1827.21875 1835.23828125 1838.75048828125 1841.9908447265625 1833.6456298828125 1820.9517822265625 1815.15673828125 1813.3094482421875 1808.2481689453125 1788.840087890625 1751.798095703125 1699.978759765625 1637.767333984375 1584.0091552734375 1540.9219970703125 1499.369140625 1489.71728515625 1505.0074462890625 1536.941162109375 1565.06005859375 1568.6363525390625 1550.068359375 1517.0089111328125 
1665.0740966796875 1645.7794189453125 1627.8214111328125 1600.629638671875 1573.1312255859375 1535.824951171875 1486.500732421875 1438.387451171875 1399.6041259765625 1368.8282470703125 1323.9208984375 1270.13623046875 1204.0570068359375 1139.8582763671875 1132.492919921875 1161.97900390625 1182.6689453125 1176.0538330078125 1143.572998046875 1101.6553955078125 1078.10986328125 1058.1033935546875 1038.9019775390625 1022.2557373046875 984.27880859375 939.04388427734375 897.9073486328125 854.10101318359375 809.9561767578125 782.91290283203125 752.3060302734375 711.99554443359375 675.87005615234375 649.1827392578125 611.2818603515625 531.55322265625 446.910888671875 383.225433349609375 333.2987060546875 302.009796142578125 282.1920166015625 261.13934326171875 252.43817138671875 242.2316131591796875 214.989715576171875 180.3441619873046875 144.5417633056640625 142.0802154541015625 181.1538848876953125 232.99951171875 261.833770751953125 271.63165283203125 283.82440185546875 297.866668701171875 324.959930419921875 355.1375732421875 374.5423583984375 393.965087890625 407.243072509765625 421.981964111328125 441.2977294921875 462.217926025390625 489.404754638671875 524.8565673828125 568.52850341796875 623.528076171875 691.148193359375 759.0416259765625 832.4505615234375 911.03497314453125 962.0909423828125 1009.4072265625 1061.79833984375 1115.230224609375 1145.3260498046875 1163.9215087890625 1201.1527099609375 1245.63916015625 1254.451904296875 1261.5333251953125 1303.618896484375 1351.1221923828125 1404.0028076171875 1453.3043212890625 1494.597412109375 1528.94921875 1553.491943359375 1576.4349365234375 1610.073486328125 1647.9114990234375 1681.769775390625 1716.3572998046875 1744.25927734375 1766.2764892578125 1768.697265625 1749.0718994140625 1722.992919921875 1695.414306640625 1669.0399169921875 1654.8848876953125 1663.8165283203125 1689.9617919921875 1716.1883544921875 1725.7252197265625 1717.953369140625 1717.0419921875 1720.796875 1721.0035400390625 1709.078369140625 1682.087890625 1655.9122314453125 1630.5823974609375 1611.734130859375 1616.1859130859375 1625.8765869140625 1646.41259765625 1662.0771484375 1652.8504638671875 1646.5389404296875 1662.467041015625 1682.3983154296875 1696.42578125 1713.76171875 1727.065673828125 1744.390869140625 1758.3172607421875 1758.39697265625 1757.102783203125 1769.1280517578125 1792.0819091796875 1823.05908203125 1849.0848388671875 1870.5841064453125 1884.983154296875 1900.42578125 1920.355224609375 1947.18701171875 1954.6790771484375 1948.131591796875 1929.6953125 1883.82470703125 1821.45947265625 1769.69091796875 1728.34228515625 1690.43798828125 1657.3546142578125 1639.4798583984375 1642.8916015625 1658.1898193359375 1705.578857421875 1772.2032470703125 1822.5438232421875 1845.532958984375 1842.3748779296875 1842.5181884765625 1846.2481689453125 1838.420166015625 1824.779296875 1814.36572265625 1804.023193359375 1788.89306640625 1756.1148681640625 1721.61669921875 1682.384521484375 1634.60498046875 1587.1883544921875 1548.11572265625 1520.352783203125 1521.03515625 1536.8134765625 1561.63671875 1573.1876220703125 1562.1790771484375 1539.61669921875 1505.517578125 
1641.309814453125 1622.1793212890625 1596.140625 1566.5179443359375 1529.92236328125 1485.466064453125 1436.9505615234375 1391.29345703125 1347.9837646484375 1311.926025390625 1264.87060546875 1218.7337646484375 1176.2747802734375 1112.92578125 1088.9158935546875 1116.9141845703125 1142.020751953125 1151.394775390625 1139.9417724609375 1106.6832275390625 1072.3458251953125 1049.5120849609375 1023.39068603515625 994.67327880859375 960.91583251953125 918.7806396484375 877.53558349609375 830.89764404296875 787.44921875 761.2646484375 737.2432861328125 704.38543701171875 662.4224853515625 629.781494140625 603.420654296875 545.75335693359375 465.947357177734375 404.57366943359375 354.41693115234375 323.486236572265625 305.832305908203125 277.68475341796875 257.39837646484375 239.273223876953125 215.55047607421875 180.4178466796875 144.1720123291015625 139.7711029052734375 178.0619354248046875 231.726165771484375 264.28411865234375 274.989349365234375 286.565032958984375 300.1346435546875 322.675262451171875 344.922210693359375 360.60968017578125 379.037872314453125 395.934783935546875 412.3707275390625 433.904205322265625 458.624725341796875 492.3013916015625 528.9273681640625 561.82965087890625 609.105712890625 669.4757080078125 738.1336669921875 817.99053955078125 887.18780517578125 914.810791015625 947.082275390625 1000.3699951171875 1059.5362548828125 1091.9417724609375 1108.246826171875 1141.797607421875 1182.2652587890625 1213.766845703125 1267.1800537109375 1330.2857666015625 1369.33056640625 1397.1400146484375 1433.4814453125 1464.211181640625 1491.1636962890625 1525.1724853515625 1562.1468505859375 1605.80859375 1647.12353515625 1682.76318359375 1718.698486328125 1745.984130859375 1767.68310546875 1765.1973876953125 1742.9759521484375 1713 1680.386474609375 1651.70361328125 1636.910400390625 1648.288818359375 1674.1634521484375 1699.72216796875 1706.9444580078125 1695.9345703125 1691.392333984375 1698.093017578125 1704.576904296875 1697.6585693359375 1667.9285888671875 1634.9476318359375 1609.396240234375 1599.2347412109375 1611.6746826171875 1625.18310546875 1640.572509765625 1642.2054443359375 1629.752685546875 1627.5546875 1647.0174560546875 1662.6527099609375 1681.285400390625 1703.208740234375 1711.3238525390625 1721.9837646484375 1738.8330078125 1738.940185546875 1735.763671875 1748.55859375 1774.0054931640625 1807.5535888671875 1840.397705078125 1862.567626953125 1872.6724853515625 1886.7772216796875 1909.624755859375 1935.89208984375 1938.4705810546875 1945.9149169921875 1929.093994140625 1879.4246826171875 1817.57080078125 1770.59814453125 1740.258544921875 1710.9246826171875 1686.451171875 1672.1533203125 1675.68017578125 1682.582275390625 1704.0421142578125 1754.6287841796875 1812.5010986328125 1850.365478515625 1853.439208984375 1856.3084716796875 1853.9766845703125 1844.601806640625 1831.09912109375 1811.600341796875 1784.8707275390625 1745.671630859375 1712.0162353515625 1684.2943115234375 1652.675048828125 1615.7852783203125 1581.2486572265625 1555.5565185546875 1542.6612548828125 1545.4949951171875 1565.2393798828125 1578.820068359375 1570.5401611328125 1551.224853515625 1522.6474609375 1480.5015869140625 
1601.716552734375 1579.7105712890625 1550.93408203125 1516.765625 1474.5133056640625 1425.4454345703125 1382.8958740234375 1345.6201171875 1300.864501953125 1258.80712890625 1209.1357421875 1164.4300537109375 1132.991455078125 1086.2093505859375 1048.2755126953125 1063.2213134765625 1088.9935302734375 1104.05224609375 1107.6173095703125 1090.670166015625 1049.4820556640625 1006.0372314453125 977.201904296875 956.9478759765625 933.3504638671875 895.7769775390625 850.300537109375 802.1634521484375 762.7799072265625 738.11395263671875 716.2572021484375 686.031494140625 650.50860595703125 612.788330078125 581.78765869140625 541.95001220703125 487.107818603515625 434.989166259765625 378.62579345703125 344.876708984375 328.8309326171875 304.8868408203125 271.0426025390625 240.1768646240234375 216.0502166748046875 183.2758941650390625 145.5408477783203125 137.5700836181640625 167.2904510498046875 212.42333984375 253.409759521484375 275.254547119140625 286.5625 300.260284423828125 326.069366455078125 349.864990234375 358.088958740234375 373.745574951171875 394.887359619140625 408.403717041015625 427.629669189453125 455.050506591796875 492.660186767578125 538.236572265625 575.58197021484375 616.07818603515625 659.37139892578125 716.99737548828125 790.2525634765625 840.83294677734375 866.45758056640625 903.2225341796875 960.7998046875 1026.2984619140625 1074.7689208984375 1102.45556640625 1128.1109619140625 1168.084716796875 1218.6195068359375 1276.5523681640625 1338.9710693359375 1397.6905517578125 1429.45361328125 1446.0711669921875 1461.7965087890625 1476.791015625 1510.6478271484375 1551.150390625 1598.24365234375 1639.1630859375 1675.615478515625 1713.1783447265625 1744.434814453125 1764.5640869140625 1761.5382080078125 1738.2528076171875 1704.584228515625 1670.38037109375 1638.975341796875 1624.4139404296875 1635.588623046875 1653.7774658203125 1672.9979248046875 1678.087890625 1669.146240234375 1665.002197265625 1674.756591796875 1687.420654296875 1686.740966796875 1658.64208984375 1615.6961669921875 1589.686279296875 1587.1474609375 1605.421142578125 1624.8446044921875 1636.5142822265625 1625.7127685546875 1607.933349609375 1608.29443359375 1629.982421875 1648.7276611328125 1674.704345703125 1698.30810546875 1707.258056640625 1715.9927978515625 1722.3858642578125 1719.4959716796875 1719.8653564453125 1732.4927978515625 1760.78271484375 1796.682373046875 1830.175537109375 1850.3670654296875 1858.739501953125 1872.670166015625 1895.9775390625 1914.580078125 1919.607666015625 1937.8204345703125 1925.652099609375 1878.3782958984375 1817.5296630859375 1776.2841796875 1755.126220703125 1731.7679443359375 1713.898193359375 1699.940185546875 1697.94091796875 1698.8985595703125 1708.3118896484375 1740.749755859375 1791.114013671875 1841.1639404296875 1862.537353515625 1862.71923828125 1855.3851318359375 1844.0924072265625 1824.4713134765625 1794.8292236328125 1756.128662109375 1710.5333251953125 1678.6783447265625 1648.024169921875 1622.4755859375 1603.6494140625 1586.313720703125 1570.8800048828125 1564.9990234375 1578.024658203125 1600.76416015625 1596.6055908203125 1566.8641357421875 1539.27099609375 1502.1324462890625 1453.4423828125 
1579.775634765625 1547.8409423828125 1516.2188720703125 1483.4898681640625 1449.142333984375 1407.3118896484375 1369.5220947265625 1333.5977783203125 1288.226806640625 1244.0947265625 1192.27197265625 1144.458251953125 1097.3896484375 1053.73046875 1013.101806640625 1010.36260986328125 1032.29541015625 1046.5955810546875 1054.3717041015625 1057.3184814453125 1021.636474609375 961.38134765625 920.04595947265625 914.91522216796875 903.22821044921875 868.03314208984375 822.43853759765625 778.2935791015625 741.4462890625 711.81427001953125 687.552734375 660.13201904296875 627.1798095703125 598.83294677734375 566.51324462890625 531.3260498046875 501.02447509765625 464.974700927734375 407.334442138671875 369.844482421875 358.38934326171875 334.2366943359375 294.309051513671875 256.5341796875 227.84063720703125 195.2160491943359375 153.6307830810546875 135.810272216796875 150.96527099609375 188.5364837646484375 233.8882904052734375 269.84979248046875 281.51507568359375 295.298187255859375 319.15771484375 341.854400634765625 357.33642578125 373.5806884765625 388.353240966796875 402.16387939453125 422.32061767578125 449.8433837890625 490.7908935546875 538.74810791015625 580.6739501953125 616.46337890625 646.910888671875 694.408935546875 761.89013671875 806.28302001953125 849.9912109375 907.81689453125 968.60577392578125 1037.28857421875 1099.3377685546875 1136.8836669921875 1161.5469970703125 1208.966064453125 1266.1297607421875 1318.1357421875 1361.3416748046875 1419.2193603515625 1462.65234375 1477.6761474609375 1483.655517578125 1489.8948974609375 1506.662353515625 1538.818359375 1583.2823486328125 1626.9078369140625 1666.408203125 1706.4779052734375 1740.6092529296875 1761.6025390625 1761.883056640625 1738.3385009765625 1702.333740234375 1667.0128173828125 1631.38037109375 1611.30126953125 1612.9036865234375 1627.28662109375 1641.305419921875 1645.582763671875 1637.3673095703125 1635.34375 1652.1923828125 1672.3023681640625 1679.677490234375 1656.1566162109375 1611.4483642578125 1580.2939453125 1578.206787109375 1595.1640625 1613.11962890625 1624.99462890625 1611.03076171875 1589.4345703125 1590.1832275390625 1611.6024169921875 1637.14990234375 1668.0992431640625 1690.6727294921875 1700.704833984375 1707.510986328125 1705.5828857421875 1699.127685546875 1705.1055908203125 1721.3131103515625 1749.9727783203125 1784.5286865234375 1809.7080078125 1826.6505126953125 1840.639404296875 1860.0927734375 1878.5687255859375 1889.2958984375 1899.2335205078125 1922.6640625 1925.6351318359375 1901.458984375 1861.3935546875 1824.267333984375 1789.8519287109375 1753.4482421875 1733.4322509765625 1717.90869140625 1710.4349365234375 1707.2637939453125 1714.012451171875 1734.0736083984375 1774.7030029296875 1833.6053466796875 1861.28564453125 1862.951171875 1858.83984375 1838.3800048828125 1800.089111328125 1761.1337890625 1722.305419921875 1690.1221923828125 1668.8675537109375 1635.1884765625 1610.7362060546875 1605.980224609375 1600.5460205078125 1591.105712890625 1597.9981689453125 1619.1212158203125 1626.803466796875 1604.09619140625 1561.0413818359375 1517.3057861328125 1468.95166015625 1423.5726318359375 
1587.724853515625 1543.6422119140625 1509.991455078125 1485.2879638671875 1459.8646240234375 1434.6104736328125 1411.2415771484375 1374.77294921875 1330.57421875 1293.1795654296875 1242.7276611328125 1179.2430419921875 1109.68798828125 1049.9005126953125 1003.2181396484375 979.83233642578125 979.04766845703125 983.13262939453125 988.60772705078125 1011.79351806640625 997.85223388671875 941.034423828125 883.67755126953125 865.4486083984375 861.23553466796875 835.52850341796875 795.96038818359375 757.662353515625 722.5750732421875 690.2783203125 670.094482421875 643.68353271484375 608.955078125 583.8690185546875 558.580322265625 526.50567626953125 499.801788330078125 471.871551513671875 425.722686767578125 391.241424560546875 373.9652099609375 354.502044677734375 323.717010498046875 284.218292236328125 247.647613525390625 211.22314453125 169.450927734375 137.11712646484375 135.0467987060546875 162.740081787109375 205.183502197265625 251.9585723876953125 271.93511962890625 290.1661376953125 322.0401611328125 354.461822509765625 376.35009765625 390.198883056640625 401.103912353515625 412.30072021484375 427.283599853515625 450.144317626953125 485.933624267578125 530.3692626953125 569.1357421875 593.5133056640625 639.99603271484375 705.0758056640625 770.85943603515625 822.5125732421875 878.96929931640625 941.381591796875 996.78546142578125 1059.3121337890625 1127.1710205078125 1169.92236328125 1186.7603759765625 1231.221923828125 1297.3128662109375 1354.2236328125 1397.788330078125 1443.0830078125 1486.9039306640625 1509.690673828125 1518.5748291015625 1523.5540771484375 1527.5697021484375 1538.897216796875 1570.27685546875 1617.209716796875 1661.599853515625 1702.4744873046875 1739.5400390625 1764.9012451171875 1766.338623046875 1740.774658203125 1705.59765625 1667.701416015625 1631.1553955078125 1602.6763916015625 1582.8963623046875 1589.0001220703125 1602.2000732421875 1608.5916748046875 1601.4996337890625 1605.4342041015625 1631.515869140625 1662.9078369140625 1677.3673095703125 1658.87353515625 1620.659423828125 1582.8331298828125 1570.72607421875 1578.4295654296875 1591.860107421875 1605.0496826171875 1590.2120361328125 1567.5975341796875 1570.683837890625 1593.052001953125 1623.0499267578125 1654.6002197265625 1676.013427734375 1683.2220458984375 1685.380859375 1685.38427734375 1683.61767578125 1692.6473388671875 1711.6923828125 1739.4495849609375 1766.3726806640625 1787.04638671875 1805.3310546875 1823.9775390625 1841.3934326171875 1851.5513916015625 1862.072998046875 1877.0706787109375 1904.110595703125 1912.1441650390625 1907.7933349609375 1903.88818359375 1875.5594482421875 1830.731689453125 1778.17138671875 1745.6995849609375 1727.639404296875 1715.114501953125 1711.760009765625 1716.1953125 1729.4984130859375 1762.4715576171875 1823.7823486328125 1859.6904296875 1862.777099609375 1856.2222900390625 1824.8902587890625 1769.0267333984375 1728.8875732421875 1700.4635009765625 1684.5830078125 1669.419921875 1640.2615966796875 1624.8887939453125 1623.9132080078125 1619.537109375 1623.5032958984375 1644.4066162109375 1654.046630859375 1636.9822998046875 1600.743896484375 1548.5377197265625 1497.22119140625 1448.4095458984375 1409.3760986328125 
1616.6971435546875 1576.0084228515625 1548.019775390625 1529.206298828125 1514.4617919921875 1498.9674072265625 1473.2218017578125 1433.1470947265625 1389.9146728515625 1340.7855224609375 1292.4139404296875 1230.6370849609375 1150.712158203125 1073.748779296875 1017.51300048828125 973.49102783203125 945.23492431640625 930.70098876953125 919.81048583984375 944.67938232421875 959.2381591796875 925.10931396484375 865.28924560546875 815.93817138671875 808.92047119140625 796.09844970703125 768.79156494140625 737.36810302734375 706.90673828125 678.272216796875 658.4573974609375 638.10552978515625 605.10516357421875 573.1248779296875 548.06005859375 520.46392822265625 494.517333984375 467.928802490234375 427.694915771484375 394.009918212890625 377.105926513671875 360.911590576171875 334.81719970703125 300.667388916015625 262.52667236328125 225.1014556884765625 186.9869232177734375 150.417449951171875 131.9900970458984375 140.1779937744140625 175.2134857177734375 225.2512054443359375 258.426605224609375 286.087066650390625 318.94940185546875 356.836151123046875 383.668304443359375 399.557342529296875 413.758758544921875 429.897979736328125 445.30596923828125 461.8035888671875 486.448699951171875 518.47442626953125 550.2979736328125 587.449462890625 651.44476318359375 725.72381591796875 796.51458740234375 854.43951416015625 908.0859375 973.08935546875 1040.8856201171875 1097.766845703125 1154.19287109375 1204.2498779296875 1214.5091552734375 1230.5753173828125 1285.614501953125 1341.6119384765625 1392.83984375 1446.2276611328125 1498.66845703125 1535.567626953125 1553.1683349609375 1557.4420166015625 1557.8883056640625 1559.913330078125 1576.67724609375 1616.6146240234375 1662.3814697265625 1700.1153564453125 1740.5694580078125 1769.862548828125 1770.755126953125 1744.833251953125 1707.833984375 1669.392333984375 1636.232421875 1606.870849609375 1573.6121826171875 1554.5439453125 1553.2762451171875 1562.5101318359375 1564.6868896484375 1582.2125244140625 1614.4432373046875 1653.979736328125 1672.3338623046875 1660.69091796875 1632.2337646484375 1597.8951416015625 1573.9239501953125 1565.99853515625 1572.0628662109375 1577.1068115234375 1560.5030517578125 1540.677490234375 1548.5130615234375 1575.4700927734375 1605.28759765625 1633.3836669921875 1649.552001953125 1655.8306884765625 1657.142333984375 1661.0755615234375 1666.6075439453125 1682.7896728515625 1702.1568603515625 1725.1708984375 1749.21923828125 1770.43994140625 1792.5302734375 1812.87548828125 1822.4031982421875 1822.3369140625 1834.5015869140625 1861.28125 1892.3189697265625 1901.0313720703125 1905.4208984375 1913.455078125 1898.830810546875 1857.1102294921875 1799.7061767578125 1757.225341796875 1737.2918701171875 1717.5770263671875 1713.511474609375 1715.97314453125 1723.0875244140625 1752.86083984375 1811.9976806640625 1857.0576171875 1859.5157470703125 1852.4727783203125 1818.4661865234375 1756.9173583984375 1719.3941650390625 1699.0029296875 1687.8223876953125 1671.6612548828125 1655.5440673828125 1655.422607421875 1665.1015625 1667.0877685546875 1675.17919921875 1682.1942138671875 1667.7381591796875 1632.5308837890625 1582.761474609375 1526.3656005859375 1478.2667236328125 1438.2144775390625 1408.9173583984375 
1682.151123046875 1650.1494140625 1614.62744140625 1590.53515625 1574.960205078125 1552.0020751953125 1509.6617431640625 1462.037841796875 1412.8697509765625 1358.966552734375 1302.3946533203125 1236.94091796875 1164.4085693359375 1087.1474609375 1020.7733154296875 971.353515625 935.87750244140625 911.40545654296875 876.783203125 868.91278076171875 887.1923828125 879.40582275390625 835.7086181640625 777.3162841796875 755.17962646484375 753.29107666015625 733.89508056640625 709.80267333984375 689.00482177734375 663.0255126953125 643.93115234375 631.37408447265625 606.460693359375 570.18560791015625 540.966552734375 511.602294921875 482.853057861328125 457.507080078125 423.9969482421875 394.70086669921875 381.2977294921875 367.45404052734375 341.701904296875 307.614166259765625 272.2637939453125 236.4788818359375 203.030975341796875 169.591766357421875 143.6087646484375 133.919769287109375 153.12213134765625 198.0910797119140625 246.346710205078125 281.901611328125 314.37890625 353.864898681640625 381.508148193359375 398.85308837890625 413.416717529296875 436.567901611328125 467.056793212890625 490.248504638671875 513.85711669921875 538.80938720703125 564.669189453125 600.0123291015625 652.818603515625 727.4371337890625 800.62481689453125 863.52178955078125 925.8863525390625 994.56378173828125 1064.64111328125 1136.133056640625 1193.9735107421875 1240.4462890625 1256.2686767578125 1251.2861328125 1278.3192138671875 1322.383544921875 1368.91943359375 1429.142578125 1493.86669921875 1545.3482666015625 1577.801025390625 1588.2799072265625 1593.2564697265625 1597.0853271484375 1606.7197265625 1635.495849609375 1674.5120849609375 1707.61669921875 1746.283935546875 1773.6357421875 1773.641845703125 1747.8546142578125 1711.7596435546875 1673.5733642578125 1640.7332763671875 1613.0919189453125 1584.40283203125 1554.3486328125 1531.5828857421875 1520.9117431640625 1534.717041015625 1565.265625 1593.1717529296875 1635.17822265625 1660.9144287109375 1655.4449462890625 1633.8212890625 1607.4285888671875 1580.0660400390625 1558.81298828125 1554.09912109375 1549.223388671875 1528.354248046875 1515.61865234375 1528.194580078125 1552.4188232421875 1580.0732421875 1604.6551513671875 1618.689697265625 1628.6820068359375 1634.322021484375 1637.24169921875 1647.90673828125 1670.7542724609375 1688.413330078125 1708.801513671875 1734.5133056640625 1757.249267578125 1782.0833740234375 1804.7322998046875 1810.6767578125 1808.093994140625 1826.4415283203125 1856.356689453125 1882.755126953125 1891.98583984375 1897.3712158203125 1906.1668701171875 1902.1844482421875 1868.4085693359375 1816.399169921875 1770.188232421875 1750.23974609375 1724.338623046875 1716.0989990234375 1718.373779296875 1725.0648193359375 1745.2227783203125 1792.26416015625 1839.2640380859375 1851.68017578125 1857.24072265625 1835.0025634765625 1776.1390380859375 1739.455322265625 1714.32177734375 1693.5465087890625 1685.1593017578125 1684.154296875 1697.073486328125 1715.34326171875 1721.7279052734375 1721.33154296875 1693.50048828125 1654.9539794921875 1610.3450927734375 1557.389892578125 1508.3656005859375 1470.0233154296875 1442.2109375 1417.966796875 
1752.052978515625 1705.3343505859375 1661.55712890625 1640.1273193359375 1620.202392578125 1579.8165283203125 1520.614501953125 1459.284912109375 1406.8411865234375 1359.49072265625 1308.576416015625 1246.5882568359375 1178.1080322265625 1095.440673828125 1015.41748046875 955.960205078125 916.19354248046875 885.3643798828125 853.280517578125 820.10479736328125 809.8134765625 806.2818603515625 770.56243896484375 735.11810302734375 710.02508544921875 706.81195068359375 692.67510986328125 674.5771484375 660.23773193359375 636.34423828125 617.370849609375 607.39434814453125 594.2662353515625 562.21002197265625 532.5677490234375 502.92913818359375 471.888580322265625 448.188262939453125 421.830169677734375 398.48907470703125 382.59698486328125 359.126800537109375 332.719696044921875 296.77294921875 263.921112060546875 235.9364013671875 206.06903076171875 179.9405670166015625 158.049774169921875 137.2089080810546875 142.7808837890625 185.6616363525390625 238.23468017578125 274.82672119140625 308.35662841796875 344.746826171875 373.750701904296875 399.978607177734375 417.5750732421875 439.890533447265625 469.1380615234375 498.167724609375 532.69122314453125 566.38494873046875 588.18328857421875 605.52880859375 647.96063232421875 716.3939208984375 788.77081298828125 856.81353759765625 923.43060302734375 997.16900634765625 1073.8629150390625 1156.158447265625 1218.1292724609375 1264.9300537109375 1295.7745361328125 1295.6561279296875 1307.1385498046875 1343.618896484375 1376.1976318359375 1422.383056640625 1482.6654052734375 1539.58349609375 1586.3580322265625 1611.4957275390625 1624.5797119140625 1631.4725341796875 1638.9405517578125 1657.804443359375 1685.9100341796875 1716.52099609375 1750.691650390625 1776.6373291015625 1778.652587890625 1751.5657958984375 1718.161865234375 1686.341796875 1654.1190185546875 1627.4654541015625 1599.5997314453125 1565.798583984375 1530.387451171875 1498.9068603515625 1510.123291015625 1545.92529296875 1574.8707275390625 1612.52197265625 1644.0166015625 1643.6845703125 1624.4376220703125 1601.6231689453125 1575.52294921875 1549.34375 1534.8099365234375 1523.40576171875 1504.056884765625 1500.785888671875 1515.6983642578125 1535.473876953125 1557.6751708984375 1579.25 1593.456787109375 1606.834716796875 1617.303955078125 1629.4501953125 1649.087158203125 1667.4217529296875 1682.7279052734375 1697.1103515625 1719.30859375 1744.3056640625 1772.10009765625 1795.290771484375 1801.7874755859375 1802.269287109375 1825.10693359375 1854.21240234375 1873.149169921875 1876.8829345703125 1881.1654052734375 1892.8026123046875 1895.164794921875 1883.810791015625 1840.9300537109375 1786.8905029296875 1763.0697021484375 1739.2503662109375 1730.3355712890625 1731.994873046875 1740.4576416015625 1754.2899169921875 1780.8050537109375 1817.795654296875 1846.3746337890625 1859.426513671875 1849.294921875 1803.513427734375 1764.3033447265625 1738.7083740234375 1717.3914794921875 1716.0528564453125 1726.4775390625 1738.1510009765625 1750.591796875 1749.70556640625 1739.660400390625 1693.79736328125 1641.47705078125 1584.7989501953125 1536.0513916015625 1502.9849853515625 1474.8826904296875 1451.993896484375 1428.49609375 
1779.1024169921875 1725.674560546875 1689.33349609375 1666.76123046875 1631.1549072265625 1581.9124755859375 1516.421630859375 1449.5078125 1394.6090087890625 1346.6900634765625 1295.5684814453125 1232.111328125 1161.0606689453125 1075.4439697265625 991.07354736328125 934.32666015625 899.54583740234375 865.14208984375 835.578125 806.735107421875 772.4571533203125 750.311767578125 719.284423828125 691.54864501953125 671.7498779296875 664.11102294921875 651.657470703125 631.3123779296875 616.0142822265625 598.18682861328125 578.56280517578125 562.93841552734375 552.435302734375 534.514404296875 512.97210693359375 488.2901611328125 467.4747314453125 451.097503662109375 427.287200927734375 402.1151123046875 378.50372314453125 347.421600341796875 323.2501220703125 292.114654541015625 261.10736083984375 235.6556549072265625 213.4614715576171875 191.9790496826171875 161.2060546875 135.64788818359375 141.791595458984375 186.349151611328125 241.31561279296875 284.325531005859375 315.51776123046875 351.6866455078125 376.81817626953125 399.907806396484375 422.018096923828125 447.0804443359375 477.025421142578125 506.845916748046875 530.56878662109375 549.94696044921875 566.43572998046875 594.17791748046875 646.0877685546875 706.95489501953125 776.22613525390625 846.0501708984375 915.4736328125 990.99261474609375 1069.0257568359375 1148.3177490234375 1217.9908447265625 1271.938720703125 1321.069091796875 1347.12060546875 1353.764892578125 1384.6929931640625 1424.9576416015625 1457.6695556640625 1490.6873779296875 1530.57373046875 1578.1015625 1619.138916015625 1646.169189453125 1660.2281494140625 1668.7823486328125 1679.829345703125 1698.217529296875 1725.2125244140625 1756.158447265625 1780.96044921875 1785.252685546875 1763.3807373046875 1735.3023681640625 1711.03271484375 1680.85986328125 1651.2322998046875 1617.9029541015625 1580.2706298828125 1536.6578369140625 1495.0301513671875 1485.4248046875 1515.0595703125 1552.3253173828125 1591.77392578125 1621.181640625 1625.285400390625 1609.4896240234375 1587.8367919921875 1562.351318359375 1536.41064453125 1516.12890625 1503.5087890625 1490.527099609375 1496.5274658203125 1520.4017333984375 1547.993896484375 1563.2943115234375 1573.5916748046875 1584.9912109375 1599.58740234375 1616.8553466796875 1642.513671875 1670.0850830078125 1690.7825927734375 1703.5789794921875 1709.2642822265625 1721.633544921875 1742.0770263671875 1765.960205078125 1786.00634765625 1791.9619140625 1798.26171875 1818.0572509765625 1838.8740234375 1851.320556640625 1864.20556640625 1879.66259765625 1896.69189453125 1902.103515625 1904.494384765625 1873.7978515625 1811.443359375 1778.922607421875 1763.2103271484375 1755.6802978515625 1747.630615234375 1751.7586669921875 1768.0694580078125 1780.2578125 1803.700927734375 1844.1312255859375 1864.9354248046875 1858.7266845703125 1829.3397216796875 1791.4637451171875 1761.7596435546875 1753.33251953125 1759.2103271484375 1768.7462158203125 1772.4912109375 1770.739013671875 1757.1478271484375 1735.947021484375 1688.7169189453125 1634.76025390625 1578.071044921875 1534.1864013671875 1508.118896484375 1484.906982421875 1463.288330078125 1438.7763671875 
1776.375 1732.39599609375 1707.3365478515625 1671.31982421875 1621.1195068359375 1569.14697265625 1498.4075927734375 1433.7200927734375 1376.73779296875 1324.224609375 1259.8232421875 1185.2703857421875 1114.8843994140625 1041.6287841796875 971.5565185546875 923.1590576171875 895.607666015625 870.2921142578125 841.23211669921875 804.977294921875 767.82080078125 739.129638671875 716.75103759765625 692.11016845703125 657.96246337890625 636.43011474609375 622.606201171875 603.94525146484375 587.3277587890625 573.12408447265625 561.557861328125 548.192138671875 531.001708984375 515.58502197265625 501.156829833984375 481.4964599609375 463.30224609375 449.825042724609375 434.738128662109375 411.207305908203125 390.376708984375 361.7652587890625 338.640533447265625 312.97894287109375 284.78912353515625 254.086029052734375 227.8694915771484375 194.573486328125 155.64923095703125 133.3381195068359375 146.6138916015625 195.6919403076171875 245.45599365234375 281.1103515625 309.859466552734375 341.797149658203125 363.537628173828125 383.6402587890625 410.55157470703125 443.61090087890625 469.07330322265625 488.753143310546875 503.81414794921875 521.2490234375 546.23590087890625 582.2926025390625 635.0882568359375 694.44647216796875 757.736572265625 830.975341796875 906.08551025390625 978.20379638671875 1052.26220703125 1129.17529296875 1199.3612060546875 1258.23876953125 1321.09912109375 1381.1826171875 1406.4991455078125 1418.6622314453125 1455.5411376953125 1491.1593017578125 1520.2135009765625 1543.322998046875 1579.2684326171875 1618.590576171875 1652.7457275390625 1679.3570556640625 1692.2503662109375 1697.8199462890625 1708.619873046875 1732.3685302734375 1760.7742919921875 1780.6763916015625 1788.9176025390625 1774.26904296875 1746.5357666015625 1723.486083984375 1694.4095458984375 1661.669677734375 1627.612060546875 1588.90380859375 1544.395263671875 1498.6004638671875 1470.4779052734375 1484.4437255859375 1523.471923828125 1566.4581298828125 1598.548828125 1606.579833984375 1597.18603515625 1577.130126953125 1548.98779296875 1523.310791015625 1500.609130859375 1484.1016845703125 1481.6644287109375 1505.637939453125 1541.6727294921875 1572.813720703125 1586.0301513671875 1592.353271484375 1604.4295654296875 1625.1094970703125 1644.8570556640625 1668.391357421875 1690.9112548828125 1709.81103515625 1725.318603515625 1730.605712890625 1735.9014892578125 1750.6297607421875 1766.783203125 1781.647705078125 1792.5660400390625 1794.384765625 1806.721923828125 1825.5909423828125 1847.3741455078125 1873.5980224609375 1897.4688720703125 1911.9290771484375 1919.0108642578125 1923.463623046875 1902.8934326171875 1845.154296875 1795.5662841796875 1777.77294921875 1775.855712890625 1765.43017578125 1767.7491455078125 1786.2152099609375 1794.599609375 1796.310546875 1834.90478515625 1877.179443359375 1879.784423828125 1859.494873046875 1834.4176025390625 1812.7357177734375 1805.0230712890625 1809.7315673828125 1808.0953369140625 1793.721435546875 1774.60693359375 1749.5264892578125 1716.558349609375 1668.5560302734375 1620.8631591796875 1575.209228515625 1542.1658935546875 1521.8675537109375 1498.9986572265625 1476.39306640625 1454.18701171875 
1768.4239501953125 1740.489501953125 1702.0941162109375 1650.1536865234375 1599.2169189453125 1541.7139892578125 1476.984619140625 1416.2264404296875 1354.74169921875 1293.4300537109375 1219.8038330078125 1149.38818359375 1088.7799072265625 1036.5513916015625 1006.003173828125 960.12103271484375 915.96929931640625 879.578369140625 849.49127197265625 818.34515380859375 794.6197509765625 779.77197265625 763.39202880859375 729.4547119140625 690.134765625 661.39276123046875 649.4813232421875 637.02728271484375 615.44207763671875 601.49224853515625 593.70361328125 574.69671630859375 554.918701171875 540.38671875 526.9364013671875 503.946868896484375 481.6319580078125 465.093597412109375 452.291107177734375 426.98760986328125 394.6849365234375 364.40191650390625 338.7042236328125 313.218536376953125 286.90020751953125 258.1981201171875 226.758544921875 178.6286773681640625 143.5729827880859375 134.01702880859375 162.6389923095703125 214.3496856689453125 253.44866943359375 280.722381591796875 303.155914306640625 332.079437255859375 362.604095458984375 388.412841796875 406.00665283203125 426.013275146484375 448.74920654296875 468.025634765625 496.09527587890625 521.3614501953125 546.608154296875 579.038330078125 625.5308837890625 684.12115478515625 749.56768798828125 826.12493896484375 911.52960205078125 982.9674072265625 1044.1221923828125 1111.78857421875 1179.186767578125 1245.6551513671875 1314.2464599609375 1378.64892578125 1426.8353271484375 1445.227294921875 1464.1842041015625 1492.990478515625 1527.1025390625 1553.768798828125 1587.3209228515625 1622.7423095703125 1655.8328857421875 1688.3614501953125 1703.61474609375 1708.3978271484375 1712.8544921875 1729.386962890625 1749.94140625 1764.2760009765625 1773.520751953125 1765.9666748046875 1742.875732421875 1715.9976806640625 1688.300537109375 1657.001708984375 1625.2752685546875 1585.7052001953125 1541.60498046875 1497.5233154296875 1459.4462890625 1460.7802734375 1494.4949951171875 1534.750732421875 1564.971923828125 1580.86279296875 1584.5272216796875 1570.2525634765625 1538.3077392578125 1507.91357421875 1487.25830078125 1469.329833984375 1483.7977294921875 1522.9256591796875 1563.1126708984375 1592.5831298828125 1609.903076171875 1621.260498046875 1637.9000244140625 1658.138427734375 1673.57861328125 1687.7581787109375 1704.6942138671875 1720.5076904296875 1738.751708984375 1751.07763671875 1756.8265380859375 1764.75439453125 1779.1710205078125 1791.212646484375 1799.701171875 1799.7041015625 1814.916015625 1839.7882080078125 1865.364013671875 1893.80029296875 1915.3760986328125 1918.215087890625 1926.1064453125 1933.4041748046875 1929.9852294921875 1889.1395263671875 1841.38232421875 1820.1937255859375 1811.41455078125 1797.3157958984375 1797.426513671875 1810.4066162109375 1813.453857421875 1805.63427734375 1827.0540771484375 1874.95556640625 1888.2318115234375 1873.8544921875 1856.8228759765625 1843.5892333984375 1836.4974365234375 1834.1654052734375 1817.9000244140625 1782.6552734375 1753.19482421875 1722.85546875 1685.7762451171875 1645.074462890625 1608.399169921875 1574.67333984375 1551.663330078125 1530.7451171875 1510.619140625 1491.35693359375 1471.6583251953125 
1758.1448974609375 1723.025146484375 1673.8978271484375 1621.3359375 1568.9521484375 1513.4720458984375 1458.5745849609375 1395.2252197265625 1328.9942626953125 1264.139892578125 1195.0657958984375 1149.9788818359375 1115.9310302734375 1091.4840087890625 1057.7713623046875 990.768798828125 944.02337646484375 907.22161865234375 881.7294921875 860.393798828125 842.76177978515625 829.632568359375 807.82080078125 768.33160400390625 739.50836181640625 728.19842529296875 715.4697265625 687.97796630859375 657.052734375 639.56988525390625 627.4490966796875 602.0516357421875 581.32122802734375 563.7794189453125 548.6361083984375 528.33551025390625 512.44561767578125 493.878997802734375 466.74169921875 429.1561279296875 392.91522216796875 360.9237060546875 329.04754638671875 302.859100341796875 281.049713134765625 253.9253082275390625 211.2416229248046875 158.59130859375 134.5554962158203125 140.699920654296875 187.047760009765625 234.7957305908203125 261.591278076171875 285.8204345703125 311.223968505859375 344.278900146484375 374.142547607421875 400.197265625 421.779632568359375 436.755126953125 452.94287109375 477.15557861328125 506.6048583984375 532.89508056640625 555.2679443359375 583.7799072265625 630.0325927734375 689.678955078125 759.07177734375 836.34112548828125 924.11773681640625 1000.10308837890625 1058.7205810546875 1122.10009765625 1193.1796875 1250.7867431640625 1293.12646484375 1345.45556640625 1407.0948486328125 1450.8125 1467.0478515625 1485.209228515625 1517.86767578125 1549.52685546875 1581.68017578125 1623.32763671875 1666.8482666015625 1693.8656005859375 1699.16357421875 1704.878173828125 1708.2640380859375 1713.9320068359375 1724.8045654296875 1735.19921875 1743.981201171875 1741.7818603515625 1727.3511962890625 1703.783935546875 1675.953369140625 1642.651123046875 1606.470703125 1567.8946533203125 1527.1126708984375 1488.544189453125 1448.64208984375 1440.8626708984375 1463.62890625 1491.031494140625 1518.616943359375 1547.682861328125 1570.802490234375 1559.9871826171875 1524.6339111328125 1486.9117431640625 1460.498291015625 1460.8143310546875 1492.009033203125 1538.994140625 1582.0147705078125 1609.981689453125 1628.043701171875 1646.146484375 1666.989990234375 1686.8162841796875 1698.6044921875 1706.5994873046875 1718.5013427734375 1733.841552734375 1753.0146484375 1770.5504150390625 1776.1812744140625 1781.139892578125 1794.2423095703125 1807.6572265625 1811.1187744140625 1818.244140625 1840.885498046875 1863.3165283203125 1885.382080078125 1912.089111328125 1926.6239013671875 1920.350341796875 1925.5816650390625 1936.138916015625 1944.1444091796875 1926.8812255859375 1905.134521484375 1901.740234375 1885.1942138671875 1854.5224609375 1834.552978515625 1834.9532470703125 1834.1494140625 1828.7322998046875 1833.077392578125 1867.3489990234375 1890.228759765625 1878.44482421875 1863.0191650390625 1851.3406982421875 1843.6630859375 1830.116455078125 1807.8865966796875 1768.4095458984375 1732.0086669921875 1706.8487548828125 1671.95849609375 1638.8734130859375 1610.270263671875 1583.7432861328125 1564.3472900390625 1544.266845703125 1526.6947021484375 1509.2674560546875 1492.809814453125 
1739.1458740234375 1692.174072265625 1643.7518310546875 1595.86279296875 1545.4736328125 1496.60400390625 1441.8553466796875 1374.240478515625 1308.60791015625 1255.05126953125 1218.354736328125 1204.737548828125 1177.683349609375 1142.8387451171875 1076.130126953125 1017.0760498046875 991.510009765625 964.41082763671875 925.26458740234375 897.3831787109375 882.9251708984375 869.407958984375 842.986328125 803.6397705078125 781.03094482421875 776.67669677734375 762.08282470703125 728.1241455078125 690.71929931640625 666.898681640625 647.842041015625 621.30572509765625 597.848388671875 582.85906982421875 571.54052734375 553.1309814453125 533.092529296875 509.061126708984375 470.775543212890625 424.72552490234375 388.881378173828125 357.201812744140625 324.39990234375 295.061859130859375 272.27569580078125 240.415802001953125 189.55621337890625 144.7269744873046875 133.6418914794921875 154.659149169921875 204.67626953125 248.8941650390625 274.365753173828125 294.103912353515625 324.830047607421875 358.407196044921875 383.15216064453125 404.003204345703125 430.6024169921875 452.373809814453125 471.32342529296875 493.65411376953125 518.4366455078125 539.88031005859375 559.79901123046875 585.490966796875 631.88116455078125 696.18048095703125 767.8505859375 841.7601318359375 922.7496337890625 1000.90887451171875 1070.733642578125 1138.0211181640625 1195.098388671875 1224.2518310546875 1248.31982421875 1295.447509765625 1360.7685546875 1424.3822021484375 1458.364501953125 1475.95654296875 1505.0543212890625 1542.453125 1575.6402587890625 1617.037353515625 1665.31787109375 1690.2109375 1686.0552978515625 1688.0247802734375 1692.276611328125 1691.82470703125 1699.405029296875 1712.023193359375 1719.744384765625 1718.6083984375 1708.8359375 1691.906494140625 1667.54638671875 1632.9478759765625 1591.278564453125 1549.1597900390625 1513.5594482421875 1481.33837890625 1441.9273681640625 1422.9002685546875 1430.72607421875 1442.1611328125 1470.9376220703125 1512.0650634765625 1536.5491943359375 1528.715576171875 1495.85693359375 1456.56884765625 1442.0443115234375 1468.001708984375 1498.0950927734375 1540.8043212890625 1587.3104248046875 1620.565673828125 1637.7593994140625 1663.01806640625 1693.5286865234375 1714.7364501953125 1726.28515625 1731.754638671875 1738.987060546875 1752.5821533203125 1770.3863525390625 1788.012451171875 1792.4637451171875 1794.00634765625 1804.216064453125 1819.147705078125 1823.4627685546875 1840.3863525390625 1868.5400390625 1887.1324462890625 1900.9388427734375 1924.3043212890625 1936.2421875 1929.57080078125 1929.7947998046875 1940.730712890625 1944.6199951171875 1937.280517578125 1936.5760498046875 1945.3660888671875 1936.4635009765625 1907.76806640625 1877.5323486328125 1865.23095703125 1863.9947509765625 1864.0469970703125 1861.6881103515625 1876.4261474609375 1885.8194580078125 1874.7547607421875 1858.9251708984375 1851.5018310546875 1849.1907958984375 1842.482177734375 1820.899658203125 1775.425048828125 1733.985107421875 1708.5650634765625 1677.091064453125 1644.887451171875 1622.8460693359375 1602.3023681640625 1581.5889892578125 1558.4921875 1542.41259765625 1529.8140869140625 1524.7376708984375 
1705.9510498046875 1658.3455810546875 1610.7884521484375 1564.1197509765625 1517.28173828125 1480.0638427734375 1435.1580810546875 1380.5833740234375 1332.1500244140625 1298.6893310546875 1279.2850341796875 1263.075927734375 1219.7767333984375 1162.01953125 1103.14599609375 1072.0318603515625 1045.7310791015625 1007.95458984375 965.662353515625 931.9888916015625 910.95166015625 892.81744384765625 872.29364013671875 844.6591796875 822.52813720703125 809.0052490234375 784.960205078125 754.209228515625 712.3173828125 678.5194091796875 656.9190673828125 636.11474609375 613.748779296875 596.39971923828125 587.85540771484375 569.997314453125 540.96539306640625 512.99371337890625 473.484954833984375 425.360076904296875 387.501556396484375 353.648651123046875 319.064910888671875 290.103729248046875 261.709503173828125 222.7020416259765625 171.77777099609375 136.1363372802734375 138.7448272705078125 175.3372802734375 218.6539764404296875 255.1248931884765625 280.382598876953125 303.07177734375 338.420166015625 373.917236328125 397.87640380859375 412.53094482421875 431.859344482421875 450.602783203125 471.045684814453125 492.988800048828125 522.2398681640625 547.45941162109375 567.13714599609375 589.7049560546875 633.30615234375 702.034423828125 766.1754150390625 836.42333984375 910.49053955078125 985.88836669921875 1054.675048828125 1107.1446533203125 1142.1153564453125 1160.16552734375 1191.99365234375 1247.70703125 1319.7435302734375 1389.28466796875 1439.5220947265625 1470.0316162109375 1497.154296875 1538.634765625 1577.6448974609375 1614.3436279296875 1652.7838134765625 1677.885009765625 1678.929931640625 1668.267333984375 1669.0965576171875 1667.7176513671875 1678.1866455078125 1698.0447998046875 1704.5491943359375 1702.5633544921875 1697.4473876953125 1686.305908203125 1668.66748046875 1641.9627685546875 1603.2464599609375 1562.006103515625 1527.0960693359375 1486.791748046875 1440.6307373046875 1403.2210693359375 1388.6400146484375 1399.1822509765625 1432.6507568359375 1466.1849365234375 1481.57861328125 1478.2691650390625 1454.2718505859375 1428.4080810546875 1442.913818359375 1475.002685546875 1500.7041015625 1530.861572265625 1573.0745849609375 1617.94775390625 1642.954833984375 1672.6673583984375 1707.69091796875 1732.342529296875 1750.46533203125 1762.6678466796875 1761.5751953125 1767.2303466796875 1787.4298095703125 1802.8348388671875 1805.3349609375 1803.7525634765625 1811.065185546875 1827.1871337890625 1836.9766845703125 1862.51513671875 1889.3780517578125 1906.4124755859375 1916.0595703125 1928.4697265625 1936.57666015625 1934.05078125 1937.609375 1946.0250244140625 1945.38818359375 1943.1151123046875 1950.2581787109375 1955.8409423828125 1950.264892578125 1945.49462890625 1936.579833984375 1917.654052734375 1915.60791015625 1917.551025390625 1901.2000732421875 1884.820556640625 1871.7457275390625 1860.9781494140625 1850.2393798828125 1846.1319580078125 1842.8778076171875 1841.4656982421875 1826.81298828125 1791.351806640625 1749.20703125 1712.773681640625 1683.7208251953125 1653.4613037109375 1634.7550048828125 1616.9176025390625 1593.2781982421875 1574.6087646484375 1573.497802734375 1576.553466796875 1571.219970703125 
1666.145263671875 1624.6905517578125 1584.7781982421875 1547.8343505859375 1504.8802490234375 1472.244873046875 1440.96142578125 1411.70751953125 1383.912109375 1354.0623779296875 1324.18603515625 1284.88232421875 1228.66552734375 1180.2529296875 1152.056640625 1129.91162109375 1089.580078125 1048.0546875 1006.67889404296875 969.44805908203125 933.74468994140625 909.08331298828125 893.525390625 867.6456298828125 837.99639892578125 814.03546142578125 793.26678466796875 765.90496826171875 722.3260498046875 684.310302734375 661.15185546875 644.8389892578125 625.68511962890625 604.9725341796875 593.49554443359375 584.61346435546875 555.17987060546875 518.89910888671875 478.513519287109375 432.5130615234375 390.853912353515625 350.466522216796875 312.615142822265625 283.113067626953125 247.859832763671875 204.9454193115234375 158.3365325927734375 132.45794677734375 145.89385986328125 186.4474639892578125 221.321441650390625 256.3665771484375 282.744537353515625 312.417266845703125 347.99493408203125 378.038116455078125 398.07257080078125 409.49761962890625 425.56976318359375 445.544952392578125 465.870269775390625 487.040679931640625 510.83465576171875 535.39599609375 558.15850830078125 590.08575439453125 634.70953369140625 693.4296875 750.5045166015625 817.24395751953125 886.43585205078125 951.43408203125 1008.0408935546875 1052.8648681640625 1086.3282470703125 1114.0457763671875 1161.7677001953125 1226.6522216796875 1307.701416015625 1385.369873046875 1437.1839599609375 1474.5643310546875 1503.0789794921875 1541.0457763671875 1583.5389404296875 1611.294677734375 1637.9808349609375 1662.7086181640625 1670.475341796875 1652.7022705078125 1642.955810546875 1641.5020751953125 1655.0714111328125 1682.2684326171875 1690.003173828125 1687.58740234375 1683.665771484375 1674.1669921875 1662.2630615234375 1645.3388671875 1615.1746826171875 1575.177978515625 1535.067138671875 1493.16796875 1441.6893310546875 1390.970458984375 1359.1409912109375 1363.733154296875 1389.9847412109375 1415.0181884765625 1429.141845703125 1428.4493408203125 1414.054931640625 1414.617919921875 1452.292724609375 1489.2281494140625 1517.339111328125 1534.9344482421875 1562.5478515625 1608.3719482421875 1643.04736328125 1676.372802734375 1712.57080078125 1741.3931884765625 1766.953125 1783.4788818359375 1779.3380126953125 1775.6973876953125 1796.4620361328125 1810.3084716796875 1814.90869140625 1813.842041015625 1822.6668701171875 1838.8956298828125 1850.936767578125 1876.031005859375 1893.976318359375 1908.0498046875 1920.54541015625 1925.1517333984375 1926.4078369140625 1928.28466796875 1936.6075439453125 1944.7430419921875 1944.7366943359375 1947.4940185546875 1956.8572998046875 1957.4207763671875 1952.3365478515625 1961.4871826171875 1962.4508056640625 1951.617919921875 1946.033935546875 1938.697509765625 1909.6046142578125 1876.9212646484375 1851.4927978515625 1832.2901611328125 1818.8436279296875 1812.990478515625 1810.5321044921875 1810.1295166015625 1806.9813232421875 1787.2305908203125 1751.0169677734375 1716.0130615234375 1687.8846435546875 1662.16748046875 1647.5592041015625 1632.114013671875 1613.72216796875 1602.7506103515625 1614.6807861328125 1619.1510009765625 1600.53662109375 
1639.4493408203125 1608.1202392578125 1584.240478515625 1562.9439697265625 1531.865478515625 1507.0382080078125 1485.911865234375 1463.7342529296875 1428.5557861328125 1388.261962890625 1346.0177001953125 1292.1484375 1241.9593505859375 1214.929931640625 1195.1151123046875 1160.8712158203125 1113.090576171875 1071.1092529296875 1032.65234375 996.454345703125 949.16552734375 909.03131103515625 891.14642333984375 858.02618408203125 821.53533935546875 792.283447265625 774.6829833984375 754.74334716796875 721.0523681640625 685.705810546875 661.520263671875 644.59124755859375 628.01953125 608.4210205078125 591.03814697265625 589.9813232421875 574.48345947265625 537.179931640625 488.302978515625 437.710968017578125 393.23614501953125 351.26739501953125 307.5965576171875 270.23565673828125 229.143280029296875 186.2008056640625 150.134735107421875 135.7989349365234375 157.946014404296875 194.3582000732421875 232.4252471923828125 266.922210693359375 288.7635498046875 318.167724609375 346.9598388671875 369.823486328125 392.30621337890625 414.971221923828125 436.51751708984375 457.276153564453125 478.8828125 500.167236328125 519.4981689453125 543.01141357421875 570.88323974609375 604.93475341796875 650.745849609375 706.66546630859375 765.325439453125 820.98779296875 888.80084228515625 941.0369873046875 987.4156494140625 1032.196044921875 1074.378662109375 1118.95361328125 1171.642578125 1238.3101806640625 1314.83203125 1395.6611328125 1453.699462890625 1494.3397216796875 1524.6412353515625 1554.8553466796875 1588.3173828125 1611.5084228515625 1629.5736083984375 1645.6624755859375 1649.618408203125 1634.016357421875 1618.067138671875 1613.8519287109375 1629.1759033203125 1657.9007568359375 1668.241943359375 1664.397705078125 1659.140625 1652.9202880859375 1645.845703125 1630.4949951171875 1605.6904296875 1567.2071533203125 1525.398193359375 1484.1163330078125 1430.93115234375 1374.6241455078125 1338.8480224609375 1333.4154052734375 1348.0081787109375 1366.14111328125 1378.5892333984375 1383.6123046875 1392.7176513671875 1424.0762939453125 1472.2955322265625 1512.98486328125 1540.1507568359375 1559.28759765625 1573.1759033203125 1602.6751708984375 1640.976806640625 1675.4866943359375 1712.6229248046875 1745.45556640625 1774.6483154296875 1796.8043212890625 1792.304931640625 1785.793212890625 1803.0772705078125 1819.875 1825.1822509765625 1825.638916015625 1836.611328125 1851.734130859375 1862.5341796875 1877.475341796875 1888.994873046875 1902.9991455078125 1914.707763671875 1919.837158203125 1925.561279296875 1927.7225341796875 1934.40283203125 1945.15673828125 1950.546875 1954.41748046875 1964.528076171875 1960.775390625 1956.2811279296875 1959.7733154296875 1957.501220703125 1954.33935546875 1949.22216796875 1937.5682373046875 1908.4483642578125 1880.8944091796875 1854.9169921875 1825.84326171875 1805.00244140625 1790.85693359375 1784.5919189453125 1785.318603515625 1784.4044189453125 1770.93701171875 1742.006591796875 1715.87109375 1690.828857421875 1676.1268310546875 1663.1234130859375 1650.1063232421875 1637.5892333984375 1634.221923828125 1644.4141845703125 1638.6776123046875 1612.4593505859375 
1638.8984375 1616.5255126953125 1602.260009765625 1589.913330078125 1577.57373046875 1569.04931640625 1540.788330078125 1497.92041015625 1451.241455078125 1401.685302734375 1352.801025390625 1309.58056640625 1277.0545654296875 1251.541259765625 1222.7061767578125 1178.14306640625 1124.7266845703125 1079.68212890625 1037.7608642578125 995.976806640625 946.02752685546875 898.84588623046875 867.75372314453125 826.14825439453125 783.87115478515625 756.598388671875 742.47137451171875 728.99853515625 709.04473876953125 676.58502197265625 649.89068603515625 634.731689453125 621.5103759765625 603.40655517578125 584.36492919921875 584.5762939453125 582.8648681640625 554.6568603515625 506.673492431640625 449.3865966796875 392.131500244140625 344.13092041015625 302.8819580078125 259.844757080078125 210.7635955810546875 173.7357025146484375 141.4319000244140625 133.7196044921875 166.74658203125 208.660858154296875 238.793914794921875 264.608306884765625 286.161895751953125 313.5322265625 338.0234375 364.96038818359375 391.345794677734375 415.7481689453125 437.56268310546875 460.599334716796875 490.8702392578125 518.736328125 542.15716552734375 567.149169921875 592.27520751953125 624.49395751953125 675.22607421875 739.26416015625 794.9378662109375 842.394775390625 899.41729736328125 957.515380859375 1000.1009521484375 1042.6890869140625 1085.6190185546875 1128.7408447265625 1178.7330322265625 1241.7110595703125 1314.2132568359375 1389.3472900390625 1458.75927734375 1509.9482421875 1544.6383056640625 1568.581787109375 1591.35986328125 1609.772216796875 1621.1629638671875 1628.6669921875 1624.1075439453125 1606.2569580078125 1590.987060546875 1586.5137939453125 1599.4718017578125 1626.6456298828125 1641.170654296875 1633.595947265625 1625.9326171875 1623.05517578125 1618.4986572265625 1606.5902099609375 1589.4437255859375 1558.4290771484375 1515.867919921875 1470.6337890625 1416.7984619140625 1356.321533203125 1316.8115234375 1321.132080078125 1347.5552978515625 1358.1492919921875 1366.2464599609375 1384.4212646484375 1412.8521728515625 1451.79833984375 1499.0570068359375 1538.4727783203125 1561.407958984375 1579.5726318359375 1595.4329833984375 1612.4779052734375 1640.5211181640625 1672.4173583984375 1707.313720703125 1741.2607421875 1774.2315673828125 1799.3841552734375 1795.68994140625 1793.490234375 1810.975341796875 1828.029296875 1834.3365478515625 1835.2646484375 1844.6773681640625 1854.612060546875 1864.6588134765625 1872.433349609375 1878.4334716796875 1892.62744140625 1907.3846435546875 1917.8966064453125 1925.8154296875 1929.7005615234375 1939.4573974609375 1952.121337890625 1957.3392333984375 1961.224609375 1969.041015625 1964.98681640625 1965.816162109375 1961.07958984375 1958.795654296875 1961.4835205078125 1955.962646484375 1943.67626953125 1916.20849609375 1892.2564697265625 1871.8973388671875 1843.03369140625 1821.4356689453125 1807.81787109375 1788.582763671875 1774.544677734375 1766.5350341796875 1755.536376953125 1736.1910400390625 1717.5462646484375 1699.88671875 1692.6671142578125 1681.5924072265625 1671.2847900390625 1665.120849609375 1665.37841796875 1664.40185546875 1647.0418701171875 1617.42333984375 
1652.63720703125 1636.73681640625 1628.6458740234375 1637.3115234375 1641.3082275390625 1622.625244140625 1576.4061279296875 1519.40380859375 1468.890380859375 1422.1767578125 1384.3468017578125 1350.88134765625 1317.08447265625 1284.7633056640625 1246.298828125 1194.69775390625 1133.7950439453125 1086.097900390625 1039.3060302734375 987.54656982421875 934.46484375 877.82281494140625 833.85357666015625 793.95050048828125 751.7958984375 720.97802734375 705.7652587890625 697.00238037109375 679.97247314453125 650.294921875 622.47320556640625 608.99114990234375 599.212158203125 583.32122802734375 564.61956787109375 563.22442626953125 567.27752685546875 553.7562255859375 517.326416015625 462.0537109375 396.907623291015625 343.007415771484375 300.19390869140625 260.19366455078125 213.480072021484375 169.7214813232421875 136.8252105712890625 134.0213775634765625 170.6799163818359375 219.525360107421875 244.154510498046875 264.993011474609375 286.27734375 314.243927001953125 337.200469970703125 356.60211181640625 379.00555419921875 405.706573486328125 429.43426513671875 454.689453125 481.34075927734375 507.212371826171875 531.28173828125 557.69158935546875 584.69927978515625 620.9129638671875 674.6658935546875 729.7593994140625 776.99591064453125 823.54296875 870.67333984375 922.69439697265625 966.50164794921875 1007.62298583984375 1052.3516845703125 1094.981201171875 1152.00244140625 1217.6243896484375 1287.5390625 1359.1712646484375 1438.6329345703125 1507.36474609375 1550.7672119140625 1575.24267578125 1592.9927978515625 1606.8475341796875 1612.827392578125 1614.6453857421875 1602.0703125 1578.2730712890625 1564.03662109375 1559.6124267578125 1574.2410888671875 1599.863037109375 1612.4173583984375 1602.295654296875 1589.2978515625 1586.8787841796875 1585.5263671875 1581.2109375 1574.20556640625 1553.7076416015625 1513.670166015625 1464.234375 1403.5894775390625 1341.79931640625 1302.244384765625 1321.9056396484375 1370.238525390625 1401.2410888671875 1416.062255859375 1427.4384765625 1449.5435791015625 1483.6556396484375 1519.911376953125 1556.7489013671875 1581.9140625 1596.93896484375 1606.290283203125 1620.174560546875 1643.16357421875 1671.9058837890625 1703.101806640625 1735.0643310546875 1767.00732421875 1794.6280517578125 1798.7296142578125 1794.403076171875 1807.716064453125 1825.15234375 1829.8426513671875 1833.5093994140625 1844.5460205078125 1846.6851806640625 1852.3677978515625 1861.0057373046875 1872.2335205078125 1886.9317626953125 1904.4312744140625 1915.2781982421875 1923.662353515625 1934.6435546875 1949.0400390625 1963.098388671875 1961.9774169921875 1965.387451171875 1970.5703125 1967.2835693359375 1968.4356689453125 1968.7666015625 1971.7706298828125 1972.12744140625 1968.8441162109375 1964.5728759765625 1932.6151123046875 1903.2723388671875 1883.345458984375 1860.2591552734375 1843.902099609375 1834.6573486328125 1809.1591796875 1781.725830078125 1761.5562744140625 1750.9691162109375 1743.287353515625 1729.0594482421875 1715.861328125 1710.1590576171875 1697.164306640625 1686.5399169921875 1684.4102783203125 1688.7574462890625 1675.5679931640625 1645.22314453125 1617.269287109375 
1672.8074951171875 1678.5733642578125 1702.928955078125 1705.98388671875 1693.2286376953125 1654.9190673828125 1603.0928955078125 1548.3902587890625 1499.9573974609375 1458.1622314453125 1422.4891357421875 1382.0611572265625 1342.5775146484375 1311.9808349609375 1265.90869140625 1198.0960693359375 1133.553955078125 1089.521728515625 1039.6590576171875 983.47747802734375 923.96905517578125 863.6668701171875 813.18756103515625 768.21966552734375 727.07330322265625 695.13201904296875 673.52850341796875 662.40521240234375 642.3184814453125 620.47027587890625 596.03070068359375 579.35101318359375 571.88104248046875 559.30267333984375 540.61456298828125 535.09405517578125 537.0574951171875 535.9134521484375 520.4306640625 476.035308837890625 411.6173095703125 356.365325927734375 308.24176025390625 264.638458251953125 219.657318115234375 170.1793365478515625 137.197479248046875 136.5605621337890625 176.7215118408203125 220.369873046875 243.522979736328125 267.45147705078125 291.837005615234375 321.67303466796875 351.568634033203125 376.773895263671875 393.15899658203125 427.958038330078125 455.344207763671875 472.792572021484375 496.66400146484375 523.2628173828125 547.4832763671875 565.87750244140625 597.37158203125 638.45001220703125 700.1783447265625 743.1715087890625 779.34002685546875 831.3997802734375 879.31854248046875 914.609375 950.844970703125 990.9903564453125 1030.280517578125 1077.2039794921875 1132.032958984375 1191.191650390625 1256.5623779296875 1330.193115234375 1412.69580078125 1488.5035400390625 1547.4542236328125 1574.387451171875 1591.1153564453125 1601.527099609375 1604.4052734375 1599.2198486328125 1579.2962646484375 1552.9521484375 1539.5162353515625 1536.058837890625 1549.541015625 1573.089111328125 1578.3966064453125 1562.420654296875 1544.6002197265625 1544.5413818359375 1552.4483642578125 1556.9248046875 1548.0474853515625 1529.548828125 1498.075439453125 1455.4404296875 1389.750244140625 1326.5008544921875 1288.2327880859375 1315.439453125 1375.9993896484375 1431.3624267578125 1463.5675048828125 1475.277587890625 1492.8681640625 1514.7606201171875 1543.347412109375 1577.4473876953125 1602.7510986328125 1616.6158447265625 1618.348876953125 1627.91845703125 1654.5496826171875 1681.6087646484375 1711.2220458984375 1737.6331787109375 1760.2249755859375 1787.126220703125 1799.0838623046875 1791.6876220703125 1797.4725341796875 1813.410888671875 1815.91015625 1823.99951171875 1835.5867919921875 1832.91455078125 1834.2967529296875 1845.928466796875 1862.1231689453125 1876.3426513671875 1893.794921875 1908.650390625 1923.696533203125 1942.3243408203125 1961.097900390625 1977.5693359375 1968.9149169921875 1970.46728515625 1971.8709716796875 1970.3953857421875 1974.2147216796875 1981.6710205078125 1991.0069580078125 1998.116455078125 1995.8631591796875 1988.6787109375 1953.3365478515625 1913.7979736328125 1886.5654296875 1869.2626953125 1853.991943359375 1843.8382568359375 1825.5888671875 1797.43310546875 1771.8587646484375 1763.6649169921875 1758.6068115234375 1747.9683837890625 1736.19775390625 1725.677490234375 1712.7337646484375 1703.4190673828125 1707.7708740234375 1709.65185546875 1688.4617919921875 1646.61474609375 1607.153564453125 
1727.1475830078125 1752.361083984375 1759.978515625 1743.6781005859375 1724.3189697265625 1688.89599609375 1630.637451171875 1578.0985107421875 1533.4029541015625 1488.7203369140625 1444.7347412109375 1403.0347900390625 1362.1085205078125 1328.347900390625 1280.4771728515625 1208.0059814453125 1137.90283203125 1085.1456298828125 1027.15771484375 970.1146240234375 909.9871826171875 856.57373046875 809.06524658203125 764.3673095703125 718.984375 685.469482421875 656.86114501953125 632.201416015625 613.0145263671875 598.256103515625 578.445556640625 556.21923828125 544.70733642578125 534.3787841796875 517.82733154296875 511.72406005859375 510.203887939453125 510.0810546875 509.544403076171875 470.738861083984375 410.2281494140625 353.59307861328125 303.983367919921875 261.691314697265625 218.9710693359375 169.2702789306640625 133.904815673828125 139.2126922607421875 179.761688232421875 219.1001434326171875 247.9836273193359375 274.797698974609375 301.24688720703125 329.906585693359375 374.05621337890625 414.6890869140625 427.421539306640625 447.60919189453125 486.824432373046875 507.117919921875 524.07696533203125 544.9241943359375 570.515869140625 595.58868408203125 622.13299560546875 666.049072265625 734.14788818359375 781.4202880859375 822.5050048828125 891.0758056640625 948.5101318359375 978.55010986328125 1003.28802490234375 1039.380126953125 1077.8800048828125 1118.214599609375 1165.5072021484375 1206.53857421875 1252.41259765625 1315.267578125 1387.9541015625 1467.1741943359375 1537.9056396484375 1571.5208740234375 1585.891845703125 1592.552001953125 1591.631103515625 1577.083740234375 1550.4371337890625 1525.008056640625 1513.7618408203125 1509.9642333984375 1522.4178466796875 1538.8629150390625 1539.102294921875 1509.2496337890625 1487.3895263671875 1496.305419921875 1518.8712158203125 1529.537109375 1509.310546875 1483.6661376953125 1461.02978515625 1426.0986328125 1370.278076171875 1306.620849609375 1274.5587158203125 1309.0400390625 1376.266357421875 1442.8966064453125 1486.882080078125 1509.5751953125 1532.2750244140625 1552.732666015625 1574.7757568359375 1599.5855712890625 1618.876220703125 1632.4490966796875 1635.2525634765625 1643.8919677734375 1666.6737060546875 1691.2298583984375 1718.953369140625 1740.5574951171875 1757.2266845703125 1779.634521484375 1793.7391357421875 1790.2120361328125 1786.2236328125 1796.0186767578125 1797.505615234375 1808.1763916015625 1818.6900634765625 1815.853515625 1816.2974853515625 1832.1273193359375 1854.1981201171875 1868.855224609375 1880.7169189453125 1899.79248046875 1923.155517578125 1951.5733642578125 1977.1153564453125 1985.7718505859375 1967.597900390625 1965.172119140625 1966.463623046875 1969.4666748046875 1981.064208984375 1998.7117919921875 2008.833740234375 2012.9468994140625 2014.218505859375 1999.7552490234375 1962.5523681640625 1917.4820556640625 1885.429443359375 1870.300537109375 1854.5107421875 1844.375244140625 1832.695556640625 1807.160888671875 1785.32275390625 1778.26953125 1772.77294921875 1766.88037109375 1755.493408203125 1743.41650390625 1731.323486328125 1728.6983642578125 1731.57763671875 1723.341552734375 1690.817626953125 1644.4232177734375 1595.798583984375 
1794.0728759765625 1799.7662353515625 1782.5927734375 1758.49853515625 1727.97705078125 1689.13134765625 1639.2633056640625 1591.0186767578125 1534.332275390625 1481.7454833984375 1440.385009765625 1403.3890380859375 1362.919921875 1327.8841552734375 1277.61767578125 1215.034912109375 1148.1422119140625 1089.2132568359375 1025.5465087890625 969.36895751953125 907.6568603515625 851.48175048828125 805.33404541015625 766.63458251953125 728.00128173828125 694.08056640625 661.6785888671875 630.212890625 603.88104248046875 579.74603271484375 562.8175048828125 541.770263671875 526.5711669921875 513.3018798828125 501.13604736328125 494.737152099609375 489.6822509765625 486.490142822265625 487.95440673828125 456.02117919921875 398.04522705078125 346.597198486328125 298.62908935546875 259.821258544921875 217.6257781982421875 169.1065216064453125 132.8516387939453125 139.3060760498046875 174.1764068603515625 214.1168670654296875 247.0735321044921875 278.114593505859375 306.66693115234375 342.667510986328125 396.493377685546875 449.091583251953125 474.2557373046875 480.32086181640625 511.51593017578125 549.2939453125 563.8154296875 571.14404296875 591.0186767578125 623.5743408203125 648.94903564453125 687.65570068359375 752.67584228515625 804.9075927734375 855.06365966796875 923.31756591796875 990.2724609375 1040.4254150390625 1067.7420654296875 1095.8453369140625 1143.00537109375 1183.001953125 1225.192138671875 1273.20166015625 1309.78125 1354.9530029296875 1406.2493896484375 1470.35205078125 1533.8460693359375 1568.4378662109375 1580.65234375 1582.826904296875 1571.319091796875 1549.134033203125 1522.875732421875 1498.652099609375 1483.8544921875 1484.3575439453125 1491.1005859375 1492.752685546875 1494.4542236328125 1463.89990234375 1429.072265625 1441.5921630859375 1479.1002197265625 1496.6260986328125 1470.2906494140625 1427.521728515625 1406.3577880859375 1375.377197265625 1337.8358154296875 1290.4227294921875 1263.9405517578125 1302.90283203125 1367.22802734375 1439.9132080078125 1493.2261962890625 1525.0142822265625 1554.228271484375 1580.441650390625 1598.6102294921875 1613.4830322265625 1629.0028076171875 1646.69580078125 1657.2432861328125 1662.003662109375 1680.351806640625 1702.028076171875 1725.83544921875 1744.177001953125 1758.28955078125 1773.3270263671875 1784.484130859375 1783.043212890625 1777.037841796875 1779.3485107421875 1779.78271484375 1792.34130859375 1801.19482421875 1795.5948486328125 1797.9852294921875 1817.85205078125 1845.127685546875 1863.6497802734375 1880.8642578125 1901.1778564453125 1923.8656005859375 1955.9202880859375 1979.9947509765625 1980.1480712890625 1961.30908203125 1954.2645263671875 1952.443359375 1965.5257568359375 1991.8555908203125 2007.80029296875 2015.075439453125 2016.5372314453125 2023.0162353515625 2004.4827880859375 1952.9154052734375 1897.814208984375 1868.2623291015625 1857.43017578125 1847.7520751953125 1839.0372314453125 1830.763916015625 1815.8135986328125 1797.920166015625 1788.927490234375 1786.325927734375 1781.80859375 1770.2498779296875 1760.9296875 1757.232666015625 1755.65771484375 1749.7308349609375 1736.3294677734375 1695.3916015625 1647.64453125 1601.2095947265625 
1826.2998046875 1813.555419921875 1796.5283203125 1765.339599609375 1723.569091796875 1670.998046875 1622.994140625 1565.435546875 1502.095947265625 1443.6253662109375 1400.267822265625 1365.3956298828125 1327.7803955078125 1290.91455078125 1246.6011962890625 1196.6634521484375 1141.695556640625 1084.561279296875 1022.69091796875 970.25128173828125 913.29730224609375 851.21612548828125 800.0982666015625 759.7508544921875 724.4951171875 694.09820556640625 661.1788330078125 629.06890869140625 598.3651123046875 579.25030517578125 568.09332275390625 547.16046142578125 520.40582275390625 498.922943115234375 485.75189208984375 478.42840576171875 472.087432861328125 465.847869873046875 461.850311279296875 444.087249755859375 398.028717041015625 350.437774658203125 300.27593994140625 258.73980712890625 217.443359375 170.3556060791015625 134.1112060546875 135.1477508544921875 161.501190185546875 201.490936279296875 242.22021484375 279.310577392578125 312.335052490234375 358.711517333984375 415.2022705078125 472.19830322265625 519.5196533203125 530.56951904296875 543.70556640625 586.94268798828125 613.98028564453125 616.29583740234375 621.3709716796875 649.72491455078125 681.35064697265625 715.48486328125 772.058349609375 829.706787109375 877.3675537109375 943.53619384765625 1014.83648681640625 1080.3917236328125 1137.670654296875 1167.869873046875 1211.1884765625 1250.3814697265625 1289.2994384765625 1340.842041015625 1382.6319580078125 1419.9075927734375 1458.5081787109375 1499.252685546875 1537.676025390625 1563.137451171875 1574.31103515625 1568.180908203125 1546.1165771484375 1522.284423828125 1496.3634033203125 1468.4918212890625 1451.59228515625 1457.4771728515625 1452.2724609375 1439.90771484375 1440.1923828125 1415.9444580078125 1380.051025390625 1391.6788330078125 1432.4468994140625 1446.48046875 1425.428466796875 1379.38232421875 1349.941650390625 1320.0408935546875 1283.885986328125 1254.03369140625 1249.1083984375 1291.2374267578125 1348.6016845703125 1416.2021484375 1476.972412109375 1522.398681640625 1554.09130859375 1583.59130859375 1606.8436279296875 1622.007568359375 1641.514404296875 1665.0584716796875 1680.2900390625 1688.17333984375 1704.4013671875 1722.5721435546875 1742.0244140625 1758.707763671875 1771.4498291015625 1779.4400634765625 1777.2967529296875 1771.6103515625 1765.31494140625 1764.8988037109375 1763.4697265625 1773.8448486328125 1780.2235107421875 1775.26806640625 1778.744140625 1800.1387939453125 1832.1148681640625 1858.0335693359375 1880.852294921875 1903.553955078125 1923.2763671875 1946.369873046875 1968.7459716796875 1968.1751708984375 1951.1767578125 1945.351806640625 1944.9495849609375 1962.7645263671875 1994.90087890625 2006.731201171875 2013.4375 2018.898681640625 2025.8094482421875 2006.9998779296875 1951.851806640625 1892.93896484375 1858.127197265625 1845.8804931640625 1842.8369140625 1837.4403076171875 1830.4088134765625 1820.9661865234375 1805.9935302734375 1798.6998291015625 1800.5360107421875 1799.8792724609375 1790.122314453125 1784.983154296875 1781.6884765625 1770.133056640625 1757.4176025390625 1738.9080810546875 1702.75537109375 1664.106201171875 1624.3565673828125 
1828.896728515625 1811.753662109375 1800.7296142578125 1774.5595703125 1728.9476318359375 1668.5430908203125 1606.817138671875 1540.6690673828125 1476.7830810546875 1411.1646728515625 1357.1898193359375 1311.2244873046875 1268.295654296875 1230.749267578125 1189.4334716796875 1150.1922607421875 1101.3870849609375 1049.352294921875 995.4105224609375 953.5052490234375 903.408935546875 840.759521484375 785.485595703125 741.54339599609375 708.81695556640625 681.800048828125 652.03173828125 618.12518310546875 600.111572265625 595.3199462890625 579.22027587890625 558.46685791015625 528.424072265625 497.817474365234375 475.267547607421875 459.930572509765625 452.31011962890625 450.397003173828125 442.86932373046875 428.39544677734375 394.57354736328125 339.87908935546875 290.5157470703125 252.154144287109375 219.36474609375 176.8549957275390625 137.50006103515625 131.3206787109375 153.079559326171875 195.973846435546875 247.578399658203125 286.712188720703125 330.905792236328125 392.034210205078125 456.611083984375 505.37890625 551.5513916015625 575.4501953125 580.828369140625 619.57159423828125 657.1439208984375 672.0123291015625 667.67218017578125 675.58978271484375 706.94000244140625 739.56671142578125 791.326171875 852.69110107421875 903.7823486328125 956.01348876953125 1030.46923828125 1104.7559814453125 1174.58251953125 1224.408447265625 1262.7811279296875 1303.6285400390625 1344.111083984375 1389.1041259765625 1431.351806640625 1459.7742919921875 1483.4136962890625 1512.5352783203125 1537.5177001953125 1557.9033203125 1567.8807373046875 1548.7364501953125 1512.3895263671875 1491.9503173828125 1467.8046875 1429.9803466796875 1423.35888671875 1431.7098388671875 1417.9300537109375 1393.0723876953125 1379.6488037109375 1361.639404296875 1334.1671142578125 1345.9940185546875 1384.7740478515625 1388.2926025390625 1363.47802734375 1323.474609375 1289.6749267578125 1257.71630859375 1225.163818359375 1226.6766357421875 1253.44482421875 1289.6654052734375 1330.8902587890625 1381.8416748046875 1438.881591796875 1493.839599609375 1535.166259765625 1565.75634765625 1601.3253173828125 1629.3597412109375 1657.8587646484375 1685.8291015625 1704.91552734375 1714.8446044921875 1730.1162109375 1747.1705322265625 1762.11865234375 1773.8470458984375 1782.2352294921875 1789.725830078125 1779.1719970703125 1763.2213134765625 1754.0576171875 1750.3984375 1748.095947265625 1754.156005859375 1757.0509033203125 1756.7940673828125 1766.222412109375 1786.031982421875 1817.5513916015625 1849.8463134765625 1873.4046630859375 1897.00830078125 1919.2789306640625 1945.3876953125 1958.2559814453125 1952.0869140625 1938.52685546875 1939.3291015625 1941.7635498046875 1958.064697265625 1992.941162109375 2007.0399169921875 2014.4515380859375 2021.5157470703125 2020.839599609375 2009.5714111328125 1974.529296875 1917.1514892578125 1872.3193359375 1849.169189453125 1840.7701416015625 1835.2601318359375 1828.8251953125 1820.0384521484375 1808.9451904296875 1809.8052978515625 1827.7381591796875 1834.509765625 1823.072265625 1814.1986083984375 1798.4561767578125 1776.93701171875 1761.9691162109375 1740.0447998046875 1711.4193115234375 1682.1025390625 1644.15380859375 
1806.3140869140625 1793.89453125 1781.1962890625 1766.885986328125 1737.079833984375 1684.808837890625 1618.776123046875 1550.40478515625 1481.71484375 1409.96484375 1343.659912109375 1285.77685546875 1227.577392578125 1183.2242431640625 1137.265380859375 1094.9683837890625 1052.6282958984375 1003.1517333984375 947.86212158203125 909.92431640625 873.82012939453125 822.7713623046875 774.82421875 732.12701416015625 697.2838134765625 670.99224853515625 640.9296875 619.775146484375 616.3712158203125 609.01708984375 582.47833251953125 562.0618896484375 541.1522216796875 510.131744384765625 484.435791015625 458.923095703125 434.20806884765625 427.929656982421875 426.39227294921875 413.916412353515625 385.570892333984375 340.924896240234375 298.106689453125 262.2664794921875 230.455810546875 185.6010894775390625 140.960205078125 127.9309539794921875 149.35906982421875 204.3434906005859375 265.052490234375 299.023468017578125 356.5401611328125 438.955535888671875 508.1925048828125 552.39544677734375 590.355712890625 612.7996826171875 611.993408203125 641.980712890625 687.55364990234375 718.62158203125 722.933349609375 719.42633056640625 727.96270751953125 752.353759765625 800.10333251953125 861.3946533203125 917.53106689453125 970.924560546875 1037.313720703125 1111.4114990234375 1174.419189453125 1226.552734375 1270.683349609375 1310.68701171875 1350.3843994140625 1393.718017578125 1436.7069091796875 1465.928955078125 1488.02099609375 1514.360595703125 1534.6619873046875 1552.0169677734375 1560.2811279296875 1527.35009765625 1472.3494873046875 1447.080810546875 1433.3756103515625 1390.841064453125 1387.651123046875 1406.2718505859375 1388.2091064453125 1363.325927734375 1342.2796630859375 1317.348388671875 1295.00146484375 1303.2230224609375 1334.1175537109375 1342.8499755859375 1309.1524658203125 1267.018798828125 1231.8175048828125 1202.8851318359375 1203.973876953125 1248.610595703125 1297.41162109375 1330.47119140625 1351.8685302734375 1378.08740234375 1412.7938232421875 1463.0064697265625 1510.6053466796875 1547.1708984375 1596.3865966796875 1639.8349609375 1671.56298828125 1700.6776123046875 1723.5850830078125 1736.48046875 1749.244384765625 1763.91748046875 1777.7891845703125 1786.01953125 1794.0023193359375 1796.4884033203125 1785.0093994140625 1762.089599609375 1743.6177978515625 1732.9722900390625 1729.39892578125 1734.102783203125 1739.3330078125 1743.0740966796875 1760.40283203125 1778.6251220703125 1797.103515625 1830.7464599609375 1862.697509765625 1886.322265625 1910.40234375 1943.5179443359375 1954.899658203125 1937.208740234375 1929.5927734375 1937.572998046875 1943.6925048828125 1956.535888671875 1987.7955322265625 2008.7557373046875 2023.0921630859375 2028.2340087890625 2017.7479248046875 2009.8072509765625 1998.4666748046875 1962.7664794921875 1913.4835205078125 1869.9503173828125 1845.84423828125 1832.639892578125 1824.440673828125 1820.741455078125 1818.3421630859375 1841.9305419921875 1866.0521240234375 1863.5028076171875 1847.158203125 1830.28076171875 1806.200439453125 1780.669189453125 1763.6658935546875 1744.401123046875 1717.287109375 1685.8829345703125 1649.3526611328125 
1768.1827392578125 1759.972412109375 1751.1068115234375 1742.460205078125 1730.0372314453125 1700.892578125 1642.1895751953125 1569.710693359375 1505.9649658203125 1433.3768310546875 1362.1561279296875 1305.84423828125 1243.04541015625 1173.2393798828125 1113.96826171875 1059.9029541015625 1011.59967041015625 969.6727294921875 919.2760009765625 868.84521484375 830.77813720703125 797.048583984375 760.93035888671875 720.39862060546875 687.39447021484375 660.89422607421875 640.11029052734375 633.4464111328125 631.8486328125 615.8118896484375 593.7093505859375 577.53118896484375 562.94769287109375 531.81671142578125 495.018890380859375 461.157958984375 432.381927490234375 402.377471923828125 393.238250732421875 382.793670654296875 372.572021484375 358.873291015625 322.580963134765625 274.345001220703125 240.7467041015625 198.4189605712890625 147.1878662109375 128.588623046875 152.2572479248046875 219.686614990234375 280.944610595703125 314.76617431640625 374.2803955078125 452.276214599609375 518.91082763671875 573.33465576171875 613.80511474609375 638.70111083984375 641.06964111328125 661.61419677734375 707.370361328125 744.771728515625 759.48443603515625 762.0032958984375 752.64862060546875 766.41558837890625 813.42449951171875 875.7091064453125 932.3389892578125 985.31787109375 1049.41845703125 1119.1312255859375 1174.4093017578125 1215.884033203125 1255.1025390625 1300.4952392578125 1349.59716796875 1385.987548828125 1421.3531494140625 1459.525390625 1487.955078125 1512.234130859375 1531.759765625 1549.0760498046875 1553.7777099609375 1511.2529296875 1451.76416015625 1402.4051513671875 1379.060302734375 1345.975341796875 1350.193115234375 1382.4354248046875 1369.8709716796875 1347.7523193359375 1326.404296875 1293.52197265625 1261.9088134765625 1261.831298828125 1287.059814453125 1307.4390869140625 1273.7496337890625 1222.7362060546875 1186.960205078125 1180.6580810546875 1222.3272705078125 1286.5797119140625 1339.2613525390625 1378.67431640625 1408.84375 1426.895263671875 1440.0654296875 1468.62646484375 1508.62841796875 1550.2891845703125 1600.53955078125 1645.39013671875 1683.8974609375 1718.834716796875 1741.977294921875 1756.576416015625 1768.2374267578125 1780.9683837890625 1790.408203125 1799.0048828125 1806.6895751953125 1801.9515380859375 1784.9283447265625 1758.760498046875 1736.2789306640625 1718.29931640625 1712.51123046875 1715.9443359375 1724.65673828125 1730.673095703125 1749.691650390625 1771.3128662109375 1784.34716796875 1816.5625 1853.566162109375 1876.5179443359375 1905.6458740234375 1936.9063720703125 1950.5189208984375 1934.0762939453125 1925.927001953125 1936.9974365234375 1944.87451171875 1960.370849609375 1986.584228515625 2005.2105712890625 2026.5986328125 2030.2109375 2013.284423828125 2005.2059326171875 2005.01513671875 1997.065185546875 1968.699951171875 1923.5740966796875 1878.8031005859375 1847.0179443359375 1834.9412841796875 1838.1875 1850.9619140625 1875.32763671875 1885.3948974609375 1881.28271484375 1858.8475341796875 1835.797607421875 1810.3277587890625 1785.901123046875 1765.2808837890625 1742.985595703125 1718.4339599609375 1679.4825439453125 1639.6556396484375 
1732.310302734375 1723.63671875 1718.068359375 1712.688232421875 1708.151611328125 1696.9725341796875 1668.567138671875 1617.762451171875 1552.1212158203125 1474.4803466796875 1400.566650390625 1344.2110595703125 1275.6290283203125 1204.12548828125 1128.29833984375 1056.65576171875 991.740478515625 936.310791015625 886.286376953125 838.7513427734375 802.00909423828125 773.08740234375 743.7203369140625 709.54705810546875 686.04412841796875 667.30322265625 656.33837890625 655.80279541015625 645.09796142578125 633.16705322265625 623.88916015625 606.89306640625 584.10919189453125 547.5689697265625 504.808380126953125 467.049652099609375 439.511993408203125 409.1568603515625 383.286285400390625 367.05328369140625 347.339599609375 344.91168212890625 318.05731201171875 271.533905029296875 240.5415191650390625 202.262603759765625 151.477508544921875 132.1508026123046875 165.412811279296875 244.2887725830078125 295.8348388671875 329.04803466796875 387.266510009765625 463.95208740234375 533.60882568359375 589.26727294921875 628.74591064453125 655.51129150390625 663.21759033203125 684.73602294921875 720.0765380859375 751.82391357421875 772.8568115234375 782.952880859375 770.8687744140625 775.53631591796875 824.775146484375 893.81878662109375 952.780517578125 994.1346435546875 1046.7781982421875 1114.489990234375 1170.8126220703125 1208.7216796875 1245.4271240234375 1290.2188720703125 1348.3177490234375 1390.96728515625 1416.465087890625 1447.984130859375 1484.885498046875 1509.8804931640625 1530.3446044921875 1546.722412109375 1538.4100341796875 1491.2962646484375 1438.7406005859375 1381.5545654296875 1335.3277587890625 1297.8468017578125 1311.953857421875 1341.78173828125 1333.76806640625 1315.6258544921875 1302.287353515625 1281.5042724609375 1238.5150146484375 1218.3551025390625 1241.7169189453125 1270.4708251953125 1237.185546875 1180.368896484375 1155.9656982421875 1189.3497314453125 1251.744140625 1316.0286865234375 1373.17431640625 1417.687255859375 1452.421875 1479.0499267578125 1494.7037353515625 1510.6475830078125 1539.4443359375 1573.40673828125 1613.26513671875 1657.0997314453125 1698.1639404296875 1733.4371337890625 1758.178466796875 1775.3570556640625 1786.8275146484375 1798.75439453125 1805.1597900390625 1810.57568359375 1815.3468017578125 1806.278076171875 1782.6148681640625 1755.47509765625 1728.5487060546875 1705.385009765625 1696.3216552734375 1702.1563720703125 1711.8375244140625 1720.987060546875 1740.5596923828125 1762.90283203125 1781.6844482421875 1812.9837646484375 1845.9068603515625 1870.1007080078125 1898.2281494140625 1923.787353515625 1938.4384765625 1927.69921875 1922.1031494140625 1937.629638671875 1944.455322265625 1960.36181640625 1986.239501953125 2003.1380615234375 2026.2452392578125 2023.7008056640625 2005.921630859375 1998.8607177734375 1996.9476318359375 2002.9715576171875 1991.3544921875 1974.92236328125 1937.8154296875 1894.7498779296875 1871.0540771484375 1869.2276611328125 1881.039794921875 1891.152587890625 1887.6661376953125 1885.7464599609375 1868.781005859375 1842.1312255859375 1815.0234375 1794.103271484375 1771.3302001953125 1742.1312255859375 1716.1197509765625 1679.1917724609375 1640.90625 
1700.4970703125 1689.086181640625 1683.8643798828125 1678.89453125 1673.6358642578125 1667.0233154296875 1654.0242919921875 1630.456787109375 1587.1494140625 1515.7259521484375 1437.8397216796875 1368.904052734375 1296.983642578125 1223.269775390625 1142.84326171875 1064.95703125 994.77679443359375 929.03204345703125 869.0760498046875 827.05462646484375 792.2327880859375 765.05810546875 742.2364501953125 726.07073974609375 719.3365478515625 698.74267578125 674.61279296875 674.12847900390625 680.68487548828125 674.93035888671875 659.46978759765625 632.92529296875 601.013427734375 557.5269775390625 511.02215576171875 476.683563232421875 447.1903076171875 425.259735107421875 407.440673828125 383.66546630859375 339.34967041015625 317.0726318359375 296.030364990234375 262.593658447265625 234.296539306640625 201.3326263427734375 153.1865234375 134.8429107666015625 179.669769287109375 265.003265380859375 308.18756103515625 341.9366455078125 399.22967529296875 472.389495849609375 546.4111328125 604.1431884765625 643.48602294921875 666.947265625 677.81427001953125 693.364013671875 722.22052001953125 750.09710693359375 774.68658447265625 790.39642333984375 783.22381591796875 782.65399169921875 824.15521240234375 893.5670166015625 955.01123046875 994.46734619140625 1033.4266357421875 1092.252197265625 1155.739501953125 1199.274658203125 1233.9193115234375 1275.3348388671875 1337.187744140625 1391.517578125 1423.0867919921875 1446.3968505859375 1482.65771484375 1509.7847900390625 1528.3302001953125 1544.1624755859375 1529.474609375 1471.271728515625 1412.781982421875 1355.814208984375 1306.273193359375 1259.7667236328125 1264.6865234375 1282.13427734375 1261.2303466796875 1244.8839111328125 1243.551025390625 1243.143798828125 1214.272216796875 1181.052001953125 1200.896240234375 1234.1500244140625 1203.044677734375 1147.79052734375 1149.791015625 1207.2813720703125 1264.7069091796875 1325.7559814453125 1379.18701171875 1427.93994140625 1482.4364013671875 1519.688232421875 1537.61181640625 1550.8892822265625 1571.7381591796875 1601.201171875 1636.0196533203125 1673.6922607421875 1704.473876953125 1736.397705078125 1765.1529541015625 1789.577392578125 1800.7772216796875 1815.18505859375 1822.6942138671875 1821.1260986328125 1818.806884765625 1806.3096923828125 1778.187255859375 1749.501220703125 1719.986572265625 1694.6861572265625 1680.736328125 1688.05908203125 1697.5380859375 1709.6602783203125 1732.1041259765625 1756.5126953125 1782.8758544921875 1814.2445068359375 1844.6650390625 1867.02734375 1890.8935546875 1909.342529296875 1919.8946533203125 1916.84423828125 1915.2650146484375 1930.8189697265625 1939.87646484375 1959.4912109375 1981.796142578125 2002.228271484375 2023.8463134765625 2017.253173828125 2000.683349609375 1993.069580078125 1987.9671630859375 1994.8709716796875 1994.2606201171875 1991.4716796875 1977.654541015625 1949.52197265625 1929.441650390625 1918.9974365234375 1908.9180908203125 1898.126953125 1884.8790283203125 1879.9710693359375 1870.8505859375 1847.260009765625 1819.8636474609375 1802.4620361328125 1782.0006103515625 1753.7039794921875 1720.3504638671875 1684.59033203125 1650.2030029296875 
1680.1937255859375 1666.400390625 1657.4991455078125 1646.1220703125 1632.3193359375 1622.2166748046875 1614.0670166015625 1602.3868408203125 1575.2601318359375 1526.120849609375 1461.425537109375 1387.4906005859375 1314.066650390625 1230.2666015625 1147.19873046875 1062.7899169921875 986.05035400390625 922.7330322265625 872.53350830078125 832.05352783203125 804.04351806640625 788.62762451171875 778.60357666015625 765.5283203125 750.97332763671875 728.22210693359375 693.26031494140625 681.6953125 693.0172119140625 696.92535400390625 673.18505859375 643.65948486328125 613.67156982421875 568.44097900390625 519.97796630859375 480.85699462890625 452.7320556640625 429.951019287109375 406.63238525390625 380.827911376953125 339.70892333984375 299.52783203125 274.08282470703125 244.160491943359375 218.015106201171875 192.11444091796875 152.7588348388671875 138.37261962890625 188.84503173828125 270.907379150390625 312.07574462890625 354.06353759765625 414.702667236328125 479.824127197265625 549.8809814453125 609.69097900390625 650.77935791015625 675.22943115234375 684.89788818359375 692.847900390625 712.640380859375 745.489501953125 771.711181640625 791.099609375 791.0572509765625 789.18634033203125 820.72271728515625 888.20428466796875 946.91143798828125 988.18963623046875 1021.22314453125 1070.0234375 1137.38525390625 1185.998291015625 1217.783447265625 1253.613525390625 1309.5565185546875 1370.251953125 1412.5302734375 1441.51953125 1481.4222412109375 1510.5517578125 1525.9056396484375 1538.7767333984375 1531.2666015625 1472.8956298828125 1405.89990234375 1342.538818359375 1287.41650390625 1230.01806640625 1209.6766357421875 1211.6273193359375 1189.92431640625 1176.0479736328125 1174.31298828125 1191.260986328125 1190.8695068359375 1154.5205078125 1162.5433349609375 1190.2926025390625 1169.9534912109375 1127.189208984375 1136.1458740234375 1191.66162109375 1244.164794921875 1298.450439453125 1353.8770751953125 1413.716064453125 1485.244873046875 1540.6483154296875 1565.177978515625 1573.95458984375 1598.3216552734375 1617.776611328125 1644.206298828125 1679.5721435546875 1701.488037109375 1726.5985107421875 1755.15283203125 1787.3270263671875 1802.2816162109375 1821.8642578125 1830.774658203125 1824.82470703125 1817.0296630859375 1802.4984130859375 1774.181396484375 1741.8037109375 1709.8975830078125 1682.728515625 1668.3231201171875 1675.4771728515625 1684.6202392578125 1699.329833984375 1726.3099365234375 1755.0513916015625 1782.858642578125 1809.4403076171875 1843.68701171875 1866.2388916015625 1882.018798828125 1895.3948974609375 1901.5513916015625 1904.1708984375 1907.0579833984375 1919.9473876953125 1934.29345703125 1955.6207275390625 1973.8046875 2000.2548828125 2019.5234375 2014.278564453125 2005.2440185546875 1988.864501953125 1982.37890625 1985.3009033203125 1988.1441650390625 1988.4906005859375 1977.6180419921875 1961.872802734375 1959.260009765625 1948.35009765625 1927.767822265625 1906.6617431640625 1887.479248046875 1877.095458984375 1865.275146484375 1847.8939208984375 1825.0341796875 1809.06494140625 1790.1834716796875 1763.72412109375 1727.4688720703125 1686.2354736328125 1645.84326171875 
1657.6885986328125 1647.176025390625 1638.9814453125 1622.9766845703125 1601.3028564453125 1578.1929931640625 1566.2784423828125 1557.2723388671875 1536.2391357421875 1501.2457275390625 1454.6533203125 1391.9864501953125 1313.124755859375 1233.74169921875 1148.9788818359375 1053.9324951171875 980.103515625 929.09857177734375 900.06610107421875 884.83782958984375 874.7904052734375 862.05743408203125 838.832763671875 808.70947265625 787.9256591796875 761.5076904296875 720.85345458984375 693.945556640625 690.21844482421875 685.7344970703125 664.65802001953125 638.3935546875 612.5020751953125 578.02484130859375 535.27545166015625 491.645751953125 463.588409423828125 441.4635009765625 408.736175537109375 370.86041259765625 332.09991455078125 299.25604248046875 272.299224853515625 244.4572296142578125 206.3853302001953125 180.2124176025390625 148.920989990234375 137.329376220703125 189.1793060302734375 272.427001953125 323.72076416015625 377.037994384765625 433.80633544921875 487.746673583984375 544.68438720703125 607.1619873046875 654.4698486328125 677.1712646484375 687.83001708984375 693.0169677734375 707.1612548828125 740.398681640625 767.7581787109375 788.901123046875 795.40826416015625 793.09002685546875 818.22015380859375 880.298095703125 935.38330078125 974.854248046875 1007.850341796875 1042.70263671875 1103.1812744140625 1155.349365234375 1195.5394287109375 1229.8170166015625 1277.2939453125 1336.4276123046875 1391.366943359375 1431.59033203125 1479.9844970703125 1510.4620361328125 1521.06640625 1529.4571533203125 1525.0440673828125 1471.94970703125 1405.412353515625 1344.6358642578125 1289.8582763671875 1226.2225341796875 1177.6966552734375 1151.947998046875 1124.884033203125 1108.97119140625 1111.6531982421875 1136.10302734375 1152.1455078125 1129.4920654296875 1128.159423828125 1142.7606201171875 1129.77099609375 1106.7734375 1105.9013671875 1155.2191162109375 1210.8389892578125 1268.5010986328125 1328.280029296875 1391.0296630859375 1461.9227294921875 1528.647216796875 1565.45263671875 1576.3565673828125 1610.6461181640625 1626.840576171875 1645.4713134765625 1676.991455078125 1696.211669921875 1716.658935546875 1743.4010009765625 1773.39404296875 1796.621337890625 1818.281005859375 1829.5966796875 1824.4947509765625 1811.697021484375 1796.2205810546875 1768.73046875 1733.95556640625 1699.2576904296875 1670.2568359375 1655.41064453125 1662.96923828125 1674.7445068359375 1694.5950927734375 1721.691650390625 1754.32958984375 1781.1639404296875 1805.7872314453125 1846.104736328125 1864.3201904296875 1868.8275146484375 1879.5552978515625 1886.5775146484375 1891.8787841796875 1897.1898193359375 1905.820556640625 1922.994140625 1944.4547119140625 1965.85498046875 1994.0303955078125 2008.421630859375 2010.3099365234375 2005.632080078125 1980.9268798828125 1980.0181884765625 1982.761474609375 1984.792236328125 1984.340087890625 1974.303466796875 1967.7259521484375 1972.0950927734375 1962.661865234375 1941.75390625 1924.686279296875 1898.2958984375 1887.390380859375 1870.083251953125 1846.0079345703125 1825.4776611328125 1812.2020263671875 1792.3646240234375 1763.2366943359375 1726.43017578125 1687.39208984375 1637.247802734375 
1661.343505859375 1653.670654296875 1643.6533203125 1625.7960205078125 1598.3077392578125 1557.892578125 1524.8958740234375 1504.6556396484375 1486.0400390625 1454.2470703125 1411.3902587890625 1355.61865234375 1281.798828125 1207.9693603515625 1129.15478515625 1049.3533935546875 1004.1981201171875 985.26910400390625 975.6414794921875 963.56536865234375 940.95343017578125 908.13232421875 870.93536376953125 836.96575927734375 822.765380859375 799.03326416015625 757.20849609375 720.55010986328125 697.077392578125 678.3902587890625 659.8680419921875 634.72845458984375 606.7171630859375 581.90240478515625 552.09906005859375 512.58526611328125 479.545806884765625 451.480682373046875 422.114715576171875 379.359832763671875 337.5052490234375 303.778228759765625 274.699310302734375 256.613311767578125 230.68939208984375 190.9228363037109375 150.1708984375 139.569610595703125 189.994903564453125 268.74542236328125 328.784881591796875 389.520416259765625 445.461517333984375 493.18243408203125 541.86639404296875 606.177001953125 656.6236572265625 678.24737548828125 688.32379150390625 691.5296630859375 701.43408203125 729.5843505859375 761.0955810546875 783.6849365234375 797.805419921875 798.60845947265625 814.86639404296875 869.10772705078125 919.48944091796875 957.0684814453125 987.8548583984375 1012.02886962890625 1057.79638671875 1113.7982177734375 1165.8282470703125 1209.6065673828125 1257.287109375 1313.0372314453125 1373.207763671875 1425.0843505859375 1476.3902587890625 1505.1043701171875 1514.281982421875 1517.766357421875 1502.9256591796875 1444.8868408203125 1381.0125732421875 1325.367919921875 1285.5797119140625 1239.984619140625 1191.7489013671875 1147.9305419921875 1093.0228271484375 1053.3154296875 1051.2479248046875 1076.656005859375 1091.9791259765625 1090.1959228515625 1090.7569580078125 1092.0850830078125 1078.7540283203125 1074.9783935546875 1088.1025390625 1143.211669921875 1212.06689453125 1271.3961181640625 1325.313720703125 1386.0396728515625 1462.6875 1529.1270751953125 1562.668212890625 1573.30810546875 1613.39208984375 1634.22998046875 1643.119384765625 1658.763916015625 1679.7344970703125 1706.1865234375 1733.577880859375 1756.7061767578125 1783.8729248046875 1807.2469482421875 1819.8564453125 1818.6495361328125 1805.01513671875 1787.9696044921875 1760.8480224609375 1720.87060546875 1686.31982421875 1657.2548828125 1642.2176513671875 1651.908203125 1663.9063720703125 1688.9144287109375 1718.331298828125 1751.5650634765625 1778.547607421875 1805.60205078125 1840.549072265625 1854.53857421875 1859.61669921875 1867.26806640625 1873.7540283203125 1879.396484375 1885.7781982421875 1892.88427734375 1907.609375 1929.9937744140625 1957.3284912109375 1982.1824951171875 1990.2144775390625 1995.1829833984375 1984.765625 1968.8138427734375 1975.709228515625 1977.5667724609375 1981.6806640625 1982.554931640625 1975.09228515625 1974.6241455078125 1979.1505126953125 1974.765869140625 1959.417724609375 1939.70654296875 1913.595458984375 1892.822021484375 1874.7254638671875 1848.465087890625 1824.2958984375 1810.81982421875 1788.531494140625 1754.266357421875 1714.407470703125 1676.668212890625 1627.881103515625 
1709.7313232421875 1703.606201171875 1698.6126708984375 1673.8541259765625 1633.3450927734375 1577.239990234375 1519.4306640625 1477.0361328125 1446.11572265625 1403.66455078125 1356.5947265625 1302.3348388671875 1234.166015625 1171.4852294921875 1114.481689453125 1075.82666015625 1068.908935546875 1063.5089111328125 1053.5565185546875 1032.2081298828125 989.616455078125 935.1737060546875 896.407958984375 874.1480712890625 861.7666015625 831.13800048828125 786.0772705078125 739.62030029296875 706.11480712890625 680.9285888671875 661.59307861328125 639.54901123046875 609.01495361328125 586.721435546875 565.6002197265625 532.99560546875 495.785308837890625 464.6236572265625 433.497833251953125 394.582977294921875 349.398101806640625 311.02459716796875 280.096221923828125 253.7385101318359375 236.8935089111328125 199.7337493896484375 153.684661865234375 139.31573486328125 183.34722900390625 259.555328369140625 330.42095947265625 397.116790771484375 448.723907470703125 495.825439453125 541.8291015625 609.21844482421875 659.20074462890625 677.758544921875 687.791748046875 689.892578125 695.14154052734375 716.9576416015625 751.24310302734375 777.76251220703125 797.0078125 800.36083984375 810.0880126953125 857.45306396484375 900.75946044921875 925.61419677734375 952.5189208984375 983.5654296875 1027.8583984375 1080.0087890625 1137.84619140625 1195.041259765625 1247.004638671875 1305.750732421875 1354.059814453125 1413.241943359375 1468.7967529296875 1497.9656982421875 1504.5067138671875 1502.17578125 1483.4404296875 1425.576416015625 1352.3990478515625 1295.4371337890625 1245.700927734375 1211.8636474609375 1177.3126220703125 1143.974853515625 1105.5286865234375 1045.35107421875 1004.7657470703125 1015.65362548828125 1021.904541015625 1025.668701171875 1035.7579345703125 1040.556396484375 1045.818115234375 1061.67431640625 1097.72998046875 1152.6005859375 1224.283935546875 1294.186279296875 1349.3414306640625 1403.7802734375 1472.2366943359375 1532.75830078125 1557.594482421875 1562.3377685546875 1594.067626953125 1617.7265625 1624.0157470703125 1634.1915283203125 1656.781005859375 1687.56103515625 1722.982177734375 1751.7860107421875 1778.33984375 1792.82861328125 1805.87841796875 1810.3450927734375 1798.65576171875 1779.64794921875 1751.603515625 1709.052490234375 1675.560302734375 1648.745361328125 1633.8917236328125 1641.7564697265625 1654.4681396484375 1680.232177734375 1714.14697265625 1748.4188232421875 1776.927490234375 1798.89453125 1822.3707275390625 1834.140869140625 1850.2513427734375 1857.498046875 1858.2681884765625 1863.399658203125 1871.0516357421875 1877.3726806640625 1889.7816162109375 1916.9813232421875 1948.6024169921875 1965.321044921875 1966.4970703125 1966.8271484375 1953.8927001953125 1954.0643310546875 1965.43701171875 1969.564697265625 1979.226806640625 1982.150146484375 1976.4893798828125 1979.8489990234375 1983.5096435546875 1980.6953125 1970.6246337890625 1950.6162109375 1927.681884765625 1894.774169921875 1871.0115966796875 1844.815673828125 1821.6988525390625 1802.557373046875 1782.1591796875 1746.3988037109375 1703.7745361328125 1662.2137451171875 1615.97216796875 
1748.6749267578125 1747.38330078125 1743.6124267578125 1718.8551025390625 1671.66357421875 1618.5198974609375 1559.5269775390625 1498.464599609375 1436.582275390625 1372.1724853515625 1316.149169921875 1262.444091796875 1214.28369140625 1179.925537109375 1159.8431396484375 1147.16064453125 1139.863525390625 1132.862060546875 1114.2587890625 1077.3675537109375 1018.2960205078125 961.54571533203125 928.4639892578125 913.37652587890625 891.81707763671875 859.8282470703125 813.49627685546875 755.845947265625 706.5633544921875 676.19610595703125 657.08050537109375 643.9364013671875 619.96856689453125 592.11126708984375 573.45709228515625 553.161376953125 520.207763671875 485.10888671875 443.333953857421875 405.472076416015625 360.49603271484375 312.932281494140625 280.34783935546875 253.1724395751953125 227.013916015625 192.755157470703125 151.4903106689453125 139.064483642578125 186.1791534423828125 253.1880035400390625 327.90740966796875 399.6812744140625 448.526519775390625 493.9295654296875 536.26544189453125 611.3992919921875 660.5819091796875 677.1246337890625 681.72259521484375 684.67218017578125 689.820556640625 709.09613037109375 740.41748046875 767.19134521484375 789.84765625 797.72943115234375 800.6795654296875 836.2408447265625 875.566162109375 891.8935546875 914.62420654296875 953.25897216796875 1002.09979248046875 1054.1787109375 1118.0601806640625 1182.7884521484375 1242.4205322265625 1301.3240966796875 1344.4993896484375 1394.074951171875 1451.5966796875 1485.07666015625 1491.35693359375 1482.579345703125 1465.0992431640625 1423.5682373046875 1355.7464599609375 1289.0755615234375 1212.5592041015625 1160.1475830078125 1127.8228759765625 1096.733154296875 1073.412841796875 1029.8372802734375 978.09088134765625 963.18621826171875 968.15216064453125 977.53759765625 994.46942138671875 1018.376953125 1059.8314208984375 1097.8956298828125 1139.6328125 1184.7642822265625 1240.7130126953125 1309.8995361328125 1374.2529296875 1431.537841796875 1486.5601806640625 1529.760986328125 1540.897216796875 1539.98291015625 1554.0211181640625 1573.386962890625 1589.8450927734375 1614.38427734375 1640.366455078125 1670.62841796875 1710.64453125 1745.0374755859375 1768.9239501953125 1776.014404296875 1787.2078857421875 1797.860107421875 1791.03369140625 1773.0411376953125 1741.76611328125 1698.386962890625 1661.9580078125 1633.3883056640625 1624.6212158203125 1632.3135986328125 1644.746337890625 1669.5831298828125 1706.987060546875 1744.2369384765625 1772.6539306640625 1790.1527099609375 1805.3331298828125 1809.7686767578125 1835.87841796875 1843.5299072265625 1838.1024169921875 1846.30029296875 1855.36279296875 1860.9306640625 1876.1336669921875 1904.9560546875 1931.9901123046875 1938.931640625 1931.5030517578125 1930.0821533203125 1929.0931396484375 1935.2845458984375 1948.8660888671875 1963.4715576171875 1977.375 1981.9053955078125 1980.7869873046875 1986.192626953125 1987.1798095703125 1982.0069580078125 1973.1309814453125 1957.774658203125 1936.1251220703125 1899.6253662109375 1866.0595703125 1837.9932861328125 1814.879150390625 1790.7786865234375 1767.312744140625 1735.9344482421875 1694.1854248046875 1651.622802734375 1605.50537109375 
1720.638671875 1718.5345458984375 1717.787109375 1702.4488525390625 1667.3135986328125 1624.7991943359375 1573.944091796875 1512.9542236328125 1444.86962890625 1372.4573974609375 1312.1436767578125 1269.307861328125 1250.3858642578125 1247.7265625 1241.75390625 1224.005859375 1209.559814453125 1193.4556884765625 1149.204833984375 1088.9036865234375 1031.1141357421875 986.56829833984375 968.0540771484375 953.7261962890625 922.1612548828125 885.66876220703125 838.393310546875 776.34820556640625 716.1837158203125 671.970947265625 652.28399658203125 645.8468017578125 626.852783203125 597.56561279296875 579.96905517578125 565.98077392578125 535.39715576171875 500.13568115234375 452.94122314453125 405.901824951171875 362.13629150390625 313.8380126953125 279.01116943359375 253.804046630859375 228.3719482421875 190.905029296875 150.53741455078125 141.4906158447265625 192.9678802490234375 253.882843017578125 316.98760986328125 393.636505126953125 443.53839111328125 486.24566650390625 528.1383056640625 591.84466552734375 654.30401611328125 672.94573974609375 674.69512939453125 677.48101806640625 680.66796875 696.29901123046875 727.06756591796875 752.67401123046875 772.2864990234375 778.38372802734375 779.130126953125 806.75811767578125 838.3372802734375 855.967041015625 876.6114501953125 917.999267578125 977.25543212890625 1038.5595703125 1106.7735595703125 1170.2421875 1233.5416259765625 1290.9136962890625 1338.1954345703125 1378.076171875 1423.3199462890625 1460.5335693359375 1467.666015625 1451.0078125 1432.10302734375 1403.7476806640625 1359.6524658203125 1291.619873046875 1207.434814453125 1135.0130615234375 1083.48974609375 1041.8446044921875 1016.70062255859375 988.68817138671875 944.11041259765625 928.1219482421875 948.7972412109375 981.8148193359375 1011.17755126953125 1046.4156494140625 1101.984130859375 1153.72412109375 1187.975830078125 1230.35107421875 1276.2232666015625 1327.1951904296875 1390.1240234375 1446.899658203125 1482.801513671875 1505.474365234375 1510.96875 1505.3499755859375 1505.0347900390625 1518.1094970703125 1552.6788330078125 1598.196533203125 1628.112060546875 1653.884033203125 1692.94580078125 1728.306640625 1750.685546875 1752.8546142578125 1761.638671875 1776.87841796875 1778.240966796875 1762.2294921875 1730.0032958984375 1686.0152587890625 1646.1114501953125 1616.363037109375 1612.50927734375 1620.8525390625 1631.1556396484375 1654.714599609375 1696.0101318359375 1735.185546875 1764.0048828125 1776.4281005859375 1786.5953369140625 1793.46728515625 1817.17822265625 1817.1123046875 1813.1307373046875 1825.115478515625 1836.597900390625 1846.356201171875 1864.72705078125 1887.6129150390625 1901.360107421875 1896.6248779296875 1887.0023193359375 1891.6937255859375 1902.589111328125 1913.332763671875 1931.52734375 1957.5206298828125 1973.7342529296875 1983.099853515625 1980.062744140625 1979.6304931640625 1980.56396484375 1975.2825927734375 1967.192138671875 1955.310546875 1935.114501953125 1900.5428466796875 1862.3114013671875 1833.9149169921875 1808.0186767578125 1777.340087890625 1748.5440673828125 1717.5458984375 1679.0506591796875 1640.329345703125 1593.3533935546875 
1668.988037109375 1664.521728515625 1656.010498046875 1636.019287109375 1611.051025390625 1584.205810546875 1542.7291259765625 1497.3428955078125 1446.9969482421875 1390.962890625 1347.2427978515625 1323.5965576171875 1334.429931640625 1335.66796875 1328.6842041015625 1300.169677734375 1271.6314697265625 1225.5509033203125 1151.1754150390625 1088.72265625 1053.203125 1035.931396484375 1022.7626953125 995.9622802734375 954.60821533203125 906.50457763671875 852.3187255859375 788.1131591796875 727.70855712890625 674.53955078125 647.37579345703125 638.59197998046875 625.1029052734375 599.25323486328125 579.876953125 567.6138916015625 539.5072021484375 505.296661376953125 462.005615234375 409.8873291015625 365.31585693359375 317.731475830078125 282.798004150390625 255.72412109375 226.174041748046875 192.8118438720703125 153.8123626708984375 142.696044921875 191.3006134033203125 248.6337127685546875 297.397369384765625 369.06793212890625 423.099700927734375 466.223236083984375 507.85247802734375 560.8831787109375 633.191650390625 667.29296875 666.02423095703125 667.01971435546875 673.8990478515625 685.30999755859375 705.43475341796875 728.11834716796875 743.52764892578125 740.678955078125 742.13885498046875 763.58721923828125 785.13092041015625 806.68682861328125 833.8892822265625 884.96929931640625 954.86053466796875 1025.8297119140625 1092.037109375 1154.2979736328125 1220.67333984375 1274.6019287109375 1319.3077392578125 1349.8538818359375 1388.897216796875 1424.3448486328125 1421.5531005859375 1402.7193603515625 1383.7235107421875 1355.9951171875 1328.4393310546875 1277.878662109375 1202.11669921875 1129.0096435546875 1065.361572265625 1006.42181396484375 963.35760498046875 931.94921875 903.350830078125 921.8233642578125 969.5924072265625 1024.8541259765625 1067.1278076171875 1094.6971435546875 1134.9437255859375 1192.0657958984375 1244.6029052734375 1278.1112060546875 1320.560791015625 1367.6251220703125 1409.5601806640625 1444.447021484375 1455.6524658203125 1462.9866943359375 1464.0709228515625 1453.851318359375 1452.5958251953125 1475.96533203125 1522.664306640625 1572.0631103515625 1607.324462890625 1638.479248046875 1676.4029541015625 1717.013671875 1735.1097412109375 1729.1090087890625 1731.1953125 1743.970703125 1750.794677734375 1742.5924072265625 1713.839111328125 1664.814453125 1622.2763671875 1598.771728515625 1600.3966064453125 1608.391357421875 1618.9315185546875 1642.5489501953125 1681.9847412109375 1720.0672607421875 1746.1090087890625 1752.1446533203125 1755.37841796875 1768.3157958984375 1783.1497802734375 1779.385498046875 1781.797119140625 1798.92578125 1814.1910400390625 1826.6290283203125 1846.918701171875 1862.353759765625 1866.1478271484375 1857.6055908203125 1857.4976806640625 1875.556396484375 1889.443359375 1905.3759765625 1927.216796875 1950.296142578125 1967.549560546875 1973.6007080078125 1960.4332275390625 1952.28076171875 1953.439453125 1950.541015625 1941.8616943359375 1936.9000244140625 1920.7027587890625 1891.8916015625 1860.622314453125 1827.9227294921875 1796.8538818359375 1761.660888671875 1727.678466796875 1691.81640625 1653.9989013671875 1615.824462890625 1572.74951171875 
1645.6239013671875 1637.8638916015625 1619.6632080078125 1591.8779296875 1566.819091796875 1545.94677734375 1511.3563232421875 1477.3177490234375 1447.293701171875 1414.78955078125 1395.62890625 1403.006591796875 1415.986572265625 1413.44677734375 1404.326904296875 1379.2520751953125 1316.8494873046875 1234.3675537109375 1159.3037109375 1126.2249755859375 1118.2393798828125 1095.7744140625 1068.3182373046875 1029.98193359375 982.5146484375 922.38031005859375 859.68072509765625 796.688720703125 735.05950927734375 678.79510498046875 641.47216796875 625.91949462890625 616.02130126953125 595.66754150390625 571.5572509765625 555.7586669921875 533.811767578125 505.5465087890625 463.889251708984375 411.20361328125 366.685394287109375 325.06158447265625 287.417999267578125 249.48980712890625 215.0114898681640625 192.2069091796875 151.16241455078125 136.8509063720703125 179.9431915283203125 242.7254638671875 280.45562744140625 327.900665283203125 385.587188720703125 434.354888916015625 473.19207763671875 523.43707275390625 591.27813720703125 649.00787353515625 653.9749755859375 653.42279052734375 665.394287109375 679.665283203125 685.55560302734375 702.08746337890625 713.32464599609375 696.2384033203125 699.37762451171875 717.38165283203125 736.7896728515625 761.429931640625 794.72161865234375 857.498291015625 933.33038330078125 1009.9591064453125 1077.6053466796875 1142.395751953125 1205.7457275390625 1249.901611328125 1292.681640625 1317.121337890625 1353.09375 1379.530517578125 1363.140869140625 1341.8272705078125 1332.1669921875 1300.3760986328125 1275.3472900390625 1239.8858642578125 1173.6622314453125 1110.640625 1052.3115234375 991.0716552734375 929.25079345703125 885.484619140625 886.16851806640625 936.1937255859375 996.5975341796875 1055.6165771484375 1119.976318359375 1156.4200439453125 1179.0185546875 1222.7659912109375 1272.3631591796875 1303.954345703125 1333.308349609375 1372.2349853515625 1402.459716796875 1410.9483642578125 1404.838134765625 1408.4393310546875 1407.68408203125 1393.1982421875 1402.2225341796875 1446.4566650390625 1497.886474609375 1542.95947265625 1584.7430419921875 1628.7032470703125 1662.856689453125 1702.6461181640625 1719.5909423828125 1708.834228515625 1699.086669921875 1704.1910400390625 1710.081787109375 1710.7034912109375 1689.6251220703125 1644.1181640625 1598.135498046875 1575.5858154296875 1582.0860595703125 1587.120849609375 1601.907470703125 1628.15771484375 1662.9976806640625 1694.9385986328125 1715.400146484375 1719.5528564453125 1719.3441162109375 1730.5582275390625 1738.3841552734375 1740.4266357421875 1752.3265380859375 1778.86279296875 1794.1099853515625 1806.5281982421875 1824.63427734375 1837.2960205078125 1842.68115234375 1838.7977294921875 1854.228271484375 1876.044189453125 1894.6591796875 1914.93701171875 1931.7586669921875 1946.91015625 1949.4566650390625 1938.916748046875 1919.53173828125 1908.542724609375 1908.1744384765625 1903.9041748046875 1898.040283203125 1892.8599853515625 1880.1778564453125 1864.1497802734375 1844.94384765625 1815.434814453125 1781.28564453125 1743.5784912109375 1705.2537841796875 1665.8912353515625 1624.212646484375 1586.1181640625 1548.7957763671875 
1634.4283447265625 1625.2132568359375 1606.19677734375 1580.818115234375 1557.8304443359375 1533.7347412109375 1501.0960693359375 1468.9991455078125 1456.1669921875 1455.5633544921875 1473.3734130859375 1486.350830078125 1495.47021484375 1495.7962646484375 1478.9906005859375 1420.6715087890625 1334.802734375 1254.579345703125 1192.717041015625 1192.5142822265625 1185.07177734375 1152.26025390625 1101.7554931640625 1047.3096923828125 992.1209716796875 927.43231201171875 859.1363525390625 800.6766357421875 746.59124755859375 692.12957763671875 644.168701171875 616.036865234375 599.3487548828125 582.52825927734375 558.70068359375 540.0311279296875 520.45892333984375 496.350128173828125 456.86041259765625 400.08575439453125 351.88519287109375 313.1021728515625 277.69183349609375 248.910980224609375 232.13055419921875 207.01751708984375 154.9945220947265625 135.319000244140625 173.7346649169921875 236.5991668701171875 271.12371826171875 293.30841064453125 335.445953369140625 383.601593017578125 432.380584716796875 488.9078369140625 544.32177734375 614.61529541015625 636.61126708984375 635.163330078125 650.6715087890625 664.8048095703125 663.0972900390625 675.0499267578125 685.2608642578125 663.0423583984375 660.557861328125 675.9482421875 699.88043212890625 727.00262451171875 768.33160400390625 840.70343017578125 919.118896484375 991.88433837890625 1057.3983154296875 1117.8931884765625 1179.4931640625 1222.212158203125 1261.0555419921875 1283.7725830078125 1313.0362548828125 1326.892578125 1298.714599609375 1282.745849609375 1284.7254638671875 1245.709716796875 1211.3212890625 1189.1314697265625 1139.041259765625 1067.423828125 1016.7086181640625 966.65777587890625 904.99072265625 860.212646484375 885.73284912109375 948.6505126953125 1014.5926513671875 1080.3905029296875 1139.662841796875 1178.150634765625 1199.3321533203125 1226.9202880859375 1253.4473876953125 1265.1959228515625 1291.280029296875 1333.7156982421875 1359.3448486328125 1358.387939453125 1344.0023193359375 1342.6995849609375 1341.3924560546875 1339.9490966796875 1368.1376953125 1419.95263671875 1472.540771484375 1522.8707275390625 1577.839111328125 1629.001708984375 1659.617919921875 1689.9188232421875 1703.0992431640625 1693.2650146484375 1673.0133056640625 1668.544921875 1672.031494140625 1674.157958984375 1658.400390625 1624.39892578125 1582.9114990234375 1551.3470458984375 1554.720703125 1560.9234619140625 1582.812255859375 1610.545166015625 1639.597900390625 1662.5968017578125 1675.1251220703125 1675.8472900390625 1679.431396484375 1692.0758056640625 1699.684326171875 1708.76123046875 1734.415283203125 1764.7664794921875 1776.5528564453125 1788.2681884765625 1803.456298828125 1817.6839599609375 1830.1226806640625 1837.3822021484375 1853.957763671875 1875.755859375 1903.6829833984375 1925.56982421875 1936.694580078125 1932.502197265625 1915.253662109375 1900.51171875 1885.639892578125 1877.536376953125 1872.0987548828125 1865.6844482421875 1861.3331298828125 1846.7359619140625 1823.055419921875 1811.1319580078125 1809.300048828125 1797.0469970703125 1763.9326171875 1728.521728515625 1691.87548828125 1649.254638671875 1604.8482666015625 1559.9334716796875 1516.885009765625 
1642.5894775390625 1625.1962890625 1603.5946044921875 1584.187255859375 1579.2528076171875 1557.5672607421875 1521.5347900390625 1498.118896484375 1506.755615234375 1529.6636962890625 1549.2611083984375 1557.8157958984375 1561.9324951171875 1543.1624755859375 1502.7437744140625 1434.954833984375 1366.5367431640625 1296.8282470703125 1258.4964599609375 1273.519775390625 1250.2659912109375 1198.67626953125 1124.0372314453125 1057.9803466796875 995.80438232421875 934.14483642578125 871.73504638671875 819.34613037109375 764.7894287109375 710.26531982421875 656.12005615234375 614.7828369140625 586.85919189453125 563.70526123046875 542.42529296875 521.12384033203125 499.100067138671875 472.059722900390625 429.881866455078125 381.598358154296875 345.0433349609375 320.351104736328125 295.67694091796875 274.2652587890625 247.17181396484375 206.267974853515625 154.15521240234375 136.399322509765625 174.0137481689453125 236.6742401123046875 268.01947021484375 280.148193359375 304.08245849609375 340.476226806640625 392.421234130859375 457.436920166015625 509.311187744140625 575.8214111328125 610.81243896484375 615.58123779296875 633.11962890625 642.39678955078125 634.3924560546875 639.418212890625 648.48492431640625 633.9730224609375 630.41162109375 646.8619384765625 672.86944580078125 701.95574951171875 752.42303466796875 825.2562255859375 899.83642578125 967.36663818359375 1029.0679931640625 1081.0343017578125 1133.0755615234375 1181.919921875 1223.1619873046875 1249.2548828125 1271.8101806640625 1264.2515869140625 1231.525634765625 1221.0704345703125 1228.50341796875 1192.0810546875 1153.7171630859375 1136.8961181640625 1103.1678466796875 1029.3082275390625 971.72747802734375 931.007080078125 877.9488525390625 844.8502197265625 882.87896728515625 948.3570556640625 1011.64227294921875 1060.0968017578125 1097.9339599609375 1127.6011962890625 1150.36572265625 1176.429931640625 1197.7530517578125 1201.0638427734375 1233.9925537109375 1277.585205078125 1294.767333984375 1294.73779296875 1281.5948486328125 1275.615478515625 1281.3612060546875 1306.0809326171875 1360.2830810546875 1411.4173583984375 1461.447998046875 1517.89404296875 1576.7684326171875 1630.070556640625 1657.5821533203125 1671.3155517578125 1669.4971923828125 1660.192626953125 1643.5316162109375 1639.28466796875 1642.119140625 1637.5958251953125 1617.241943359375 1594.4586181640625 1561.4610595703125 1526.32080078125 1520.34375 1536.2528076171875 1564.1390380859375 1592.3314208984375 1618.4449462890625 1632.30078125 1637.8935546875 1634.5914306640625 1641.4727783203125 1656.8104248046875 1672.5909423828125 1697.9444580078125 1734.77880859375 1759.023193359375 1767.854736328125 1778.4814453125 1791.99267578125 1811.7137451171875 1831.54345703125 1846.806640625 1861.082275390625 1887.121826171875 1917.3153076171875 1935.270263671875 1930.3668212890625 1905.5115966796875 1885.7364501953125 1880.4129638671875 1873.916015625 1866.321533203125 1855.3519287109375 1846.6165771484375 1839.621826171875 1827.1470947265625 1790.81298828125 1758.0701904296875 1763.3885498046875 1770.269775390625 1746.527099609375 1720.924072265625 1692.074951171875 1650.5897216796875 1605.7197265625 1559.5643310546875 1509.8890380859375 
1692.6749267578125 1660.8424072265625 1626.85009765625 1612.8642578125 1616.3568115234375 1598.898193359375 1569.657470703125 1566.3089599609375 1587.5384521484375 1596.7423095703125 1591.1474609375 1579.5770263671875 1559.848876953125 1526.6627197265625 1487.561767578125 1451.845703125 1410.0408935546875 1356.2982177734375 1349.63427734375 1355.3782958984375 1308.801513671875 1229.7021484375 1145.25830078125 1078.0849609375 1020.43841552734375 955.9674072265625 894.622314453125 842.63751220703125 787.46832275390625 725.176513671875 665.73822021484375 617.1187744140625 585.60028076171875 559.05499267578125 535.53106689453125 509.1702880859375 485.72821044921875 455.84283447265625 418.56256103515625 407.5601806640625 387.547271728515625 357.4058837890625 323.762542724609375 291.18768310546875 256.308013916015625 209.846282958984375 154.104827880859375 141.0487213134765625 175.84912109375 234.737152099609375 265.958770751953125 277.648681640625 293.779632568359375 320.9305419921875 361.442138671875 423.1470947265625 479.93780517578125 536.53216552734375 574.58050537109375 593.50347900390625 610.71197509765625 615.39892578125 601.985107421875 606.8179931640625 614.44854736328125 603.54205322265625 607.46978759765625 625.68414306640625 654.72808837890625 692.583984375 741.23858642578125 810.6702880859375 879.49859619140625 938.3212890625 987.6512451171875 1031.38818359375 1077.3916015625 1128.8753662109375 1181.3055419921875 1212.80712890625 1216.6656494140625 1201.6282958984375 1168.10595703125 1164.581787109375 1163.74951171875 1131.9442138671875 1092.7530517578125 1084.286865234375 1064.83544921875 1006.283447265625 939.81976318359375 886.7481689453125 842.85211181640625 831.34686279296875 883.34234619140625 939.18841552734375 982.04840087890625 1006.519287109375 1031.2294921875 1058.858642578125 1081.473388671875 1106.8419189453125 1129.28271484375 1145.5987548828125 1186.4779052734375 1218.5496826171875 1225.793701171875 1225.8609619140625 1217.9212646484375 1216.957275390625 1253.386474609375 1311.623046875 1378.038330078125 1429.8037109375 1475.102294921875 1522.9072265625 1576.861328125 1625.8726806640625 1652.324951171875 1651.033447265625 1632.844970703125 1615.0887451171875 1601.4913330078125 1605.0811767578125 1610.1051025390625 1597.1517333984375 1569.5120849609375 1550.3145751953125 1525.730712890625 1495.357177734375 1492.9078369140625 1522.9083251953125 1546.54833984375 1571.5765380859375 1594.8428955078125 1601.0367431640625 1602.666748046875 1602.10009765625 1615.427001953125 1639.3663330078125 1672.8319091796875 1715.83984375 1757.491943359375 1776.1536865234375 1774.6627197265625 1783.5147705078125 1799.499267578125 1819.8897705078125 1844.7469482421875 1863.994873046875 1885.1165771484375 1915.7042236328125 1940.3946533203125 1941.806884765625 1914.7366943359375 1879.907470703125 1866.961669921875 1872.0965576171875 1872.449462890625 1865.6800537109375 1849.961181640625 1835.798095703125 1826.8304443359375 1812.2354736328125 1777.959228515625 1733.5404052734375 1718.2802734375 1727.3260498046875 1719.5599365234375 1704.3111572265625 1685.23876953125 1651.1558837890625 1605.71484375 1558.7103271484375 1508.8641357421875 
1745.52099609375 1706.9622802734375 1677.6680908203125 1663.10791015625 1657.7857666015625 1640.0640869140625 1629.705810546875 1640.29541015625 1635.8194580078125 1606.781982421875 1575.7908935546875 1549.9320068359375 1522.1546630859375 1494.3629150390625 1471.87255859375 1458.810546875 1441.0684814453125 1421.3939208984375 1432.5809326171875 1418.7083740234375 1350.3909912109375 1257.361083984375 1168.4908447265625 1098.1207275390625 1040.4305419921875 972.40020751953125 902.81756591796875 842.9534912109375 787.06005859375 728.54754638671875 670.57122802734375 634.38934326171875 608.11126708984375 588.53826904296875 576.32135009765625 545.10125732421875 502.626800537109375 458.530853271484375 434.683013916015625 433.17230224609375 409.46441650390625 377.018280029296875 350.292236328125 319.1265869140625 277.3983154296875 219.607330322265625 164.4623260498046875 144.0826873779296875 167.5972747802734375 218.9678955078125 258.28179931640625 275.708984375 290.37542724609375 312.272003173828125 342.367889404296875 390.83331298828125 447.785980224609375 499.511932373046875 538.56292724609375 571.734375 588.10333251953125 590.12994384765625 574.4718017578125 578.823974609375 586.97991943359375 581.995849609375 589.5445556640625 612.880615234375 652.4886474609375 687.84063720703125 729.13812255859375 789.29449462890625 849.51556396484375 896.53448486328125 931.6175537109375 968.68145751953125 1020.36962890625 1080.0599365234375 1136.2781982421875 1165.9825439453125 1157.9287109375 1154.109619140625 1121.5654296875 1108.5213623046875 1094.7711181640625 1066.64306640625 1036.9932861328125 1027.7716064453125 1012.17449951171875 977.52838134765625 916.76861572265625 850.91961669921875 805.9547119140625 824.00506591796875 885.91351318359375 925.72381591796875 936.9381103515625 943.6778564453125 961.46844482421875 989.72674560546875 1012.30523681640625 1038.022216796875 1064.654052734375 1097.5076904296875 1136.3492431640625 1161.2366943359375 1169.1646728515625 1171.183837890625 1166.4710693359375 1194.2796630859375 1259.1583251953125 1330.657470703125 1397.76611328125 1447.838134765625 1492.306884765625 1534.507080078125 1573.9215087890625 1612.52001953125 1641.3260498046875 1638.6112060546875 1609.77783203125 1579.46875 1561.953857421875 1566.388427734375 1566.3189697265625 1548.1998291015625 1523.052001953125 1499.582763671875 1483.507568359375 1462.4237060546875 1477.8472900390625 1512.343994140625 1531.2581787109375 1549.956298828125 1565.3209228515625 1571.3038330078125 1578.919921875 1591.1302490234375 1615.4931640625 1652.914794921875 1696.9781494140625 1745.658935546875 1783.8824462890625 1794.157958984375 1790.4619140625 1797.62158203125 1815.260009765625 1835.831787109375 1862.41162109375 1888.0340576171875 1911.687744140625 1941.5660400390625 1957.2613525390625 1946.0838623046875 1906.5142822265625 1869.1571044921875 1857.9703369140625 1863.2802734375 1866.943115234375 1861.0225830078125 1846.8939208984375 1833.540283203125 1819.51318359375 1798.1102294921875 1760.806884765625 1718.498046875 1683.226806640625 1671.54345703125 1667.862060546875 1660.3187255859375 1656.1158447265625 1635.532958984375 1595.9796142578125 1549.330078125 1499.027587890625 
1777.86328125 1752.26123046875 1730.1513671875 1715.0738525390625 1702.7276611328125 1688.262451171875 1685.061279296875 1667.86083984375 1625.4456787109375 1577.95361328125 1543.1400146484375 1523.44775390625 1503.0848388671875 1488.5482177734375 1478.5826416015625 1473.6102294921875 1479.609619140625 1492.9779052734375 1503.76806640625 1469.5970458984375 1385.5621337890625 1285.1282958984375 1177.8695068359375 1081.3699951171875 1013.1744384765625 953.9766845703125 885.38055419921875 827.64239501953125 776.2091064453125 730.7703857421875 698.14984130859375 676.67138671875 646.56671142578125 623.55670166015625 602.154541015625 563.99847412109375 513.30596923828125 483.380828857421875 472.09991455078125 458.0283203125 439.197052001953125 422.968902587890625 404.84930419921875 367.482696533203125 311.679168701171875 241.712860107421875 184.0566864013671875 144.8744354248046875 147.6530609130859375 195.0244293212890625 246.67156982421875 271.35211181640625 286.7391357421875 305.640869140625 337.435028076171875 369.525177001953125 411.704132080078125 460.84503173828125 508.08831787109375 553.80670166015625 568.21282958984375 564.64385986328125 549.095703125 550.30133056640625 559.517333984375 562.2828369140625 569.8917236328125 596.58087158203125 640.0146484375 678.15771484375 717.18310546875 763.25848388671875 804.18023681640625 834.56500244140625 866.431884765625 910.4332275390625 975.2662353515625 1045.510009765625 1094.3612060546875 1104.7579345703125 1094.8355712890625 1101.370361328125 1067.1064453125 1042.0780029296875 1021.66180419921875 993.56854248046875 969.90972900390625 966.12359619140625 951.51361083984375 929.83160400390625 882.14642333984375 815.34228515625 780.75640869140625 816.18505859375 867.332275390625 889.0157470703125 890.7579345703125 892.44378662109375 913.781982421875 934.71929931640625 955.13177490234375 978.23028564453125 1002.0802001953125 1039.1771240234375 1076.717041015625 1101.6300048828125 1116.3802490234375 1128.81689453125 1142.918212890625 1192.82373046875 1260.5030517578125 1322.9586181640625 1380.5684814453125 1433.123779296875 1482.3372802734375 1524.7060546875 1550.9427490234375 1585.9200439453125 1621.0604248046875 1615.4364013671875 1580.422607421875 1544.8446044921875 1522.5328369140625 1517.2366943359375 1505.100830078125 1486.809326171875 1468.8450927734375 1452.0328369140625 1441.5037841796875 1436.469482421875 1468.0609130859375 1501.6943359375 1518.474609375 1531.094970703125 1542.5357666015625 1556.945556640625 1582.6490478515625 1617.7872314453125 1650.56396484375 1689.206298828125 1731.7301025390625 1775.0782470703125 1804.7977294921875 1810.0845947265625 1804.940673828125 1811.650634765625 1832.6671142578125 1856.7388916015625 1885.3897705078125 1910.638427734375 1933.7606201171875 1961.246826171875 1973.9139404296875 1955.135986328125 1912.46533203125 1873.721435546875 1855.25146484375 1854.33740234375 1858.0294189453125 1854.9688720703125 1843.7996826171875 1830.0316162109375 1812.62744140625 1786.2220458984375 1742.9964599609375 1699.23486328125 1663.475830078125 1630.876953125 1613.470703125 1604.2021484375 1601.044921875 1595.114990234375 1567.1949462890625 1526.2578125 1483.5789794921875 
1820.1204833984375 1798.9996337890625 1777.6148681640625 1761.7772216796875 1749.6629638671875 1729.0887451171875 1697.5133056640625 1647.7166748046875 1592.435791015625 1548.4896240234375 1526.6793212890625 1518.110595703125 1512.995849609375 1507.8936767578125 1506.9873046875 1517.380126953125 1546.7354736328125 1567.84375 1554.294677734375 1485.2896728515625 1408.0567626953125 1310.4410400390625 1189.8997802734375 1078.0885009765625 1002.40380859375 946.58355712890625 896.564208984375 848.81866455078125 798.37591552734375 757.56805419921875 725.5313720703125 689.03717041015625 648.80267333984375 617.6619873046875 586.84478759765625 554.484130859375 529.9669189453125 522.15045166015625 525.6986083984375 513.37884521484375 498.33441162109375 486.2532958984375 451.570831298828125 408.20770263671875 343.835174560546875 271.18731689453125 212.50341796875 161.622802734375 140.42926025390625 176.10784912109375 232.96331787109375 264.951995849609375 282.407073974609375 299.2861328125 327.34234619140625 358.90472412109375 387.128173828125 434.996368408203125 488.207366943359375 534.574951171875 544.1348876953125 537.21075439453125 524.388671875 526.82586669921875 536.58050537109375 543.916259765625 557.22796630859375 582.5091552734375 621.11773681640625 661.1533203125 695.1551513671875 730.62322998046875 757.61431884765625 776.20977783203125 807.27337646484375 861.403564453125 936.473876953125 1013.15496826171875 1045.2957763671875 1036.6346435546875 1031.7667236328125 1040.9859619140625 1005.25616455078125 967.03814697265625 940.6605224609375 914.479736328125 902.6929931640625 906.45123291015625 886.01983642578125 864.06988525390625 829.5042724609375 779.77313232421875 762.46173095703125 795.19415283203125 820.077392578125 830.3603515625 838.42889404296875 848.87646484375 872.9832763671875 882.87261962890625 901.3487548828125 927.55780029296875 949.7913818359375 981.3394775390625 1007.61328125 1035.277587890625 1064.55322265625 1105.3802490234375 1145.1094970703125 1190.6884765625 1240.7659912109375 1291.43798828125 1338.462646484375 1384.928955078125 1431.713134765625 1477.482177734375 1512.526611328125 1558.951171875 1590.0047607421875 1581.489501953125 1546.218017578125 1511.5009765625 1483.682861328125 1461.851806640625 1442.327880859375 1426.4072265625 1416.9056396484375 1409.760009765625 1409.457763671875 1421.6192626953125 1456.127197265625 1489.9990234375 1504.94873046875 1513.8984375 1533.621826171875 1566.144287109375 1613.39501953125 1657.1793212890625 1692.470703125 1723.1732177734375 1758.5439453125 1791.8543701171875 1814.7125244140625 1822.89599609375 1814.9730224609375 1818.5556640625 1843.9287109375 1872.2493896484375 1902.15185546875 1928.8203125 1955.2745361328125 1978.6558837890625 1989.594970703125 1972.591552734375 1926.1099853515625 1885.914794921875 1859.620361328125 1847.9989013671875 1850.131103515625 1851.5469970703125 1837.2767333984375 1820.3011474609375 1804.3660888671875 1785.1082763671875 1754.2301025390625 1713.780517578125 1673.5152587890625 1633.59423828125 1594.1435546875 1564.6317138671875 1546.3253173828125 1537.4140625 1513.1502685546875 1480.91064453125 1454.5146484375 
1855.760498046875 1835.4044189453125 1813.2237548828125 1798.069580078125 1775.2774658203125 1728.62646484375 1676.7100830078125 1626.311767578125 1575.8719482421875 1541.8905029296875 1526.6163330078125 1531.2230224609375 1541.972900390625 1551.6546630859375 1565.294677734375 1591.2828369140625 1621.25 1632.243896484375 1603.7125244140625 1529.00439453125 1442.1348876953125 1335.57275390625 1205.724609375 1098.9013671875 1033.1888427734375 982.1339111328125 934.33099365234375 877.69696044921875 820.84210205078125 768.21649169921875 716.96417236328125 671.62615966796875 642.18560791015625 620.7738037109375 600.86053466796875 584.610107421875 571.50274658203125 560.3272705078125 567.2730712890625 574.440185546875 557.09271240234375 532.8387451171875 489.37481689453125 439.138641357421875 377.697998046875 304.13421630859375 243.8643035888671875 185.92657470703125 154.31658935546875 166.874847412109375 210.4033355712890625 247.43365478515625 268.796905517578125 284.475128173828125 311.409942626953125 347.254669189453125 377.632720947265625 419.1827392578125 464.31866455078125 507.25177001953125 519.48443603515625 506.048583984375 497.545928955078125 506.376251220703125 519.86773681640625 534.29388427734375 552.54583740234375 573.32421875 602.10467529296875 630.65576171875 658.56915283203125 691.4447021484375 711.65850830078125 727.31866455078125 759.28668212890625 825.1619873046875 905.5535888671875 963.16021728515625 978.8851318359375 968.265869140625 971.0567626953125 983.50921630859375 942.660400390625 894.41522216796875 864.0499267578125 841.49371337890625 828.49566650390625 835.60009765625 823.33892822265625 793.9644775390625 761.88507080078125 738.33404541015625 739.8248291015625 757.87884521484375 770.46307373046875 779.31927490234375 792.292236328125 804.92523193359375 826.20391845703125 831.69207763671875 846.56549072265625 874.28369140625 902.27117919921875 934.37078857421875 957.229248046875 987.0889892578125 1028.55224609375 1078.8660888671875 1121.6871337890625 1152.590087890625 1192.71142578125 1238.223388671875 1291.2415771484375 1335.5413818359375 1374.0697021484375 1418.352783203125 1478.978759765625 1533.384765625 1552.6187744140625 1539.3590087890625 1508.4354248046875 1478.80517578125 1446.8460693359375 1412.2523193359375 1389.873779296875 1377.608642578125 1380.1060791015625 1390.3468017578125 1414.3890380859375 1433.7518310546875 1451.2237548828125 1479.530029296875 1496.0369873046875 1513.9395751953125 1547.05615234375 1589.28466796875 1631.6068115234375 1669.7689208984375 1706.0076904296875 1737.5897216796875 1771.784423828125 1797.34912109375 1815.931884765625 1827.590087890625 1820.5302734375 1824.6331787109375 1857.0765380859375 1886.4844970703125 1915.0838623046875 1941.5736083984375 1968.6990966796875 1989.6151123046875 1998.40576171875 1993.146728515625 1962.5045166015625 1922.604248046875 1889.6966552734375 1865.5391845703125 1863.9984130859375 1860.5172119140625 1845.0931396484375 1818.455322265625 1799.2115478515625 1782.722412109375 1764.4066162109375 1738.2620849609375 1706.087890625 1665.8248291015625 1615.3787841796875 1571.505615234375 1540.8919677734375 1514.1793212890625 1489.1876220703125 1460.3736572265625 1434.29345703125 
1898.95947265625 1877.751708984375 1852.8946533203125 1824.6529541015625 1779.3333740234375 1724.319091796875 1666.1446533203125 1621.3316650390625 1585.598876953125 1558.4261474609375 1550.8680419921875 1565.7960205078125 1586.568359375 1613.3846435546875 1646.2752685546875 1674.298828125 1697.247314453125 1681.4774169921875 1626.806884765625 1549.145751953125 1464.0899658203125 1352.7652587890625 1225.784423828125 1127.216552734375 1083.427490234375 1035.3104248046875 964.28045654296875 886.544189453125 816.46258544921875 757.1669921875 717.61712646484375 698.487548828125 697.7828369140625 681.19464111328125 655.65521240234375 632.81939697265625 618.41168212890625 599.12127685546875 598.25250244140625 623.038818359375 609.1663818359375 569.0418701171875 526.27130126953125 472.662139892578125 413.123992919921875 330.3289794921875 261.132232666015625 208.4550323486328125 156.4427032470703125 148.9376373291015625 182.658599853515625 216.8737640380859375 239.084625244140625 259.3909912109375 297.495941162109375 336.749755859375 365.728118896484375 394.658233642578125 433.15777587890625 478.388397216796875 494.834442138671875 476.7357177734375 474.47430419921875 487.097381591796875 505.364349365234375 526.54559326171875 541.41400146484375 552.87286376953125 575.8839111328125 594.49951171875 621.57330322265625 652.07745361328125 666.7421875 684.67791748046875 723.5078125 792.34808349609375 862.95831298828125 896.377685546875 900.72100830078125 893.53173828125 902.7137451171875 918.44134521484375 882.8992919921875 828.11474609375 789.4119873046875 767.50872802734375 755.0450439453125 754.81097412109375 751.577880859375 729.49493408203125 715.277587890625 720.89117431640625 731.246337890625 747.40618896484375 771.95928955078125 792.13494873046875 808.26763916015625 810.146484375 808.2913818359375 821.64324951171875 835.5966796875 854.4080810546875 871.69500732421875 896.282958984375 917.85986328125 945.38983154296875 983.05181884765625 1022.63861083984375 1063.9715576171875 1100.1898193359375 1142.0341796875 1186.2886962890625 1239.358642578125 1287.93896484375 1331.9517822265625 1383.0960693359375 1452.874267578125 1503.28369140625 1513.649658203125 1494.82763671875 1462.269775390625 1434.237548828125 1407.2498779296875 1376.9560546875 1353.2679443359375 1357.388916015625 1388.56396484375 1419.755859375 1454.047119140625 1473.1717529296875 1469.478271484375 1479.5616455078125 1501.336181640625 1536.1776123046875 1574.58935546875 1609.1192626953125 1638.0252685546875 1670.8270263671875 1705.2725830078125 1738.7633056640625 1775.9814453125 1798.7066650390625 1815.178955078125 1828.893798828125 1826.066650390625 1838.184326171875 1871.7926025390625 1904.124755859375 1930.9537353515625 1953.3909912109375 1978.4072265625 1994.8345947265625 2003.8201904296875 2007.8177490234375 2005.725341796875 1984.4049072265625 1945.3746337890625 1910.9520263671875 1902.9073486328125 1895.6361083984375 1877.400634765625 1848.6214599609375 1816.0816650390625 1786.7135009765625 1764.957275390625 1738.4432373046875 1705.3079833984375 1669.3477783203125 1634.146728515625 1606.2891845703125 1575.568359375 1547.71630859375 1518.9761962890625 1482.187255859375 1446.1444091796875 
1982.4774169921875 1934.0533447265625 1887.241455078125 1841.2252197265625 1792.295166015625 1743.2926025390625 1687.504150390625 1642.1915283203125 1616.6456298828125 1599.9521484375 1596.0953369140625 1610.2447509765625 1642.353759765625 1682.4755859375 1719.3280029296875 1748.3179931640625 1747.68310546875 1697.2900390625 1623.207763671875 1539.9908447265625 1456.6038818359375 1351.0665283203125 1242.3675537109375 1177.1280517578125 1128.5145263671875 1061.2242431640625 972.28839111328125 874.23712158203125 798.76202392578125 768.86383056640625 772.43060302734375 776.7396240234375 770.86102294921875 743.82733154296875 709.02215576171875 679.85302734375 661.06591796875 636.07708740234375 623.36260986328125 643.750732421875 641.085693359375 592.27862548828125 546.44586181640625 499.2779541015625 443.988525390625 354.077850341796875 276.862152099609375 228.8367767333984375 166.1796112060546875 133.7919769287109375 155.52099609375 190.487335205078125 217.35467529296875 236.4106292724609375 274.769927978515625 314.3963623046875 337.879486083984375 368.473846435546875 415.785430908203125 463.99072265625 469.5919189453125 444.598876953125 451.014678955078125 469.401702880859375 491.27886962890625 515.311279296875 525.65142822265625 527.13092041015625 543.47686767578125 563.1121826171875 590.8848876953125 613.70196533203125 625.27264404296875 645.14080810546875 685.9368896484375 753.7510986328125 807.2467041015625 821.335693359375 820.60430908203125 820.30224609375 822.13238525390625 847.0596923828125 834.8692626953125 775.4146728515625 720.42523193359375 697.65277099609375 700.2139892578125 713.757568359375 726.99517822265625 736.28387451171875 752.0816650390625 762.57421875 778.422607421875 797.07000732421875 825.2261962890625 850.84881591796875 866.3135986328125 865.908935546875 852.186279296875 861.50799560546875 879.9737548828125 890.97723388671875 895.81646728515625 903.06494140625 908.249267578125 916.735107421875 942.0977783203125 974.7225341796875 1017.32672119140625 1058.7496337890625 1098.4495849609375 1142.625244140625 1194.49365234375 1247.756591796875 1303.124755859375 1364.3577880859375 1426.021240234375 1465.0045166015625 1470.109130859375 1447.48486328125 1410.9532470703125 1383.013671875 1359.37841796875 1342.5357666015625 1331.571044921875 1358.02978515625 1408.12548828125 1459.25439453125 1497.714599609375 1511.8992919921875 1499.0908203125 1486.242431640625 1508.5205078125 1552.5313720703125 1592.5831298828125 1626.6114501953125 1652.0888671875 1674.6343994140625 1702.4150390625 1737.620361328125 1775.68115234375 1795.8682861328125 1811.8062744140625 1826.50146484375 1832.5250244140625 1851.9163818359375 1882.4542236328125 1916.9691162109375 1943.1649169921875 1960.9805908203125 1981.8839111328125 1999.74267578125 2007.3472900390625 2016.7982177734375 2026.7486572265625 2022.3507080078125 1999.314453125 1963.3995361328125 1948.959228515625 1939.6171875 1909.5474853515625 1870.166748046875 1828.5859375 1793.041748046875 1768.54833984375 1739.26513671875 1705.4508056640625 1677.53759765625 1652.6702880859375 1624.5789794921875 1591.1331787109375 1558.3848876953125 1524.0924072265625 1486.6844482421875 1448.8203125 
2022.8634033203125 1961.2342529296875 1906.04296875 1859.2288818359375 1813.626953125 1768.876220703125 1724.7406005859375 1687.0321044921875 1664.8035888671875 1659.4810791015625 1657.7174072265625 1663.689697265625 1688.38232421875 1729.926025390625 1772.2833251953125 1778.114990234375 1741.0255126953125 1686.1171875 1614.6444091796875 1541.5087890625 1451.7701416015625 1353.567138671875 1274.207763671875 1220.212646484375 1143.3956298828125 1059.188232421875 968.31304931640625 867.03662109375 834.93402099609375 853.39764404296875 862.131591796875 867.7918701171875 839.8277587890625 798.07513427734375 761.74102783203125 728.49053955078125 699.25079345703125 668.89862060546875 647.336181640625 661.7283935546875 666.47467041015625 616.28240966796875 555.65753173828125 502.10809326171875 441.556793212890625 358.835357666015625 289.239471435546875 249.16510009765625 205.6710662841796875 152.179168701171875 134.6724700927734375 165.1329803466796875 196.358795166015625 215.944854736328125 247.870574951171875 286.83551025390625 322.10211181640625 364.36572265625 407.002166748046875 440.3533935546875 436.40045166015625 419.76849365234375 439.163848876953125 472.602691650390625 494.673095703125 511.6585693359375 509.43426513671875 497.84527587890625 514.7669677734375 543.2371826171875 559.42401123046875 573.4840087890625 586.9884033203125 614.57403564453125 649.7039794921875 696.77874755859375 733.82568359375 743.76605224609375 740.195068359375 741.201171875 744.7078857421875 770.51312255859375 779.9527587890625 725.841552734375 667.18121337890625 672.80712890625 716.3406982421875 763.91790771484375 792.156494140625 830.63629150390625 855.9158935546875 845.04278564453125 861.20758056640625 883.222900390625 897.2950439453125 914.0107421875 933.36688232421875 926.70159912109375 906.65362548828125 918.90679931640625 941.9742431640625 956.67242431640625 962.58380126953125 961.1297607421875 955.02581787109375 945.35418701171875 939.26171875 951.82928466796875 988.8447265625 1028.570556640625 1064.86474609375 1109.4205322265625 1160.113525390625 1214.9798583984375 1272.05224609375 1332.7801513671875 1380.7860107421875 1415.3695068359375 1420.850341796875 1390.4251708984375 1351.4490966796875 1330.529296875 1315.7476806640625 1311.0001220703125 1326.00146484375 1370.8890380859375 1435.6180419921875 1498.958251953125 1543.283447265625 1551.5172119140625 1531.9874267578125 1504.68505859375 1513.65478515625 1552.001220703125 1595.0806884765625 1631.43359375 1657.5185546875 1673.298095703125 1697.474853515625 1734.507568359375 1772.663818359375 1791.23779296875 1807.5858154296875 1824.577880859375 1835.192138671875 1855.014892578125 1883.9561767578125 1921.42529296875 1944.250732421875 1958.466064453125 1978.00390625 1995.808349609375 2005.89111328125 2018.2904052734375 2027.436767578125 2029.591552734375 2016.459228515625 1987.59228515625 1967.82568359375 1946.0279541015625 1910.5244140625 1867.1817626953125 1822.4075927734375 1789.9842529296875 1763.4664306640625 1733.99365234375 1698.339599609375 1669.1417236328125 1645.1158447265625 1613.955078125 1579.76171875 1546.0750732421875 1513.8446044921875 1480.611572265625 1443.734619140625 
2063.6181640625 2009.611572265625 1942.06787109375 1887.70849609375 1841.8594970703125 1801.95751953125 1772.3365478515625 1744.2794189453125 1720.3184814453125 1711.8299560546875 1722.86328125 1727.767333984375 1737.8876953125 1770.536376953125 1794.029052734375 1761.2979736328125 1706.2442626953125 1646.8955078125 1585.9735107421875 1525.3321533203125 1453.6793212890625 1371.51904296875 1303.048095703125 1217.6910400390625 1111.985595703125 1028.7713623046875 950.72503662109375 905.34130859375 925.54443359375 948.6221923828125 949.83258056640625 943.32220458984375 904.90802001953125 856.7498779296875 817.26556396484375 778.52984619140625 737.2215576171875 704.23199462890625 676.98187255859375 673.38427734375 682.2445068359375 641.0809326171875 565.791748046875 500.0936279296875 427.64447021484375 355.04217529296875 306.883148193359375 269.378326416015625 237.244598388671875 203.1649627685546875 161.217529296875 151.144195556640625 179.1990814208984375 208.916900634765625 234.34014892578125 280.46771240234375 329.838714599609375 363.8187255859375 389.87457275390625 405.764251708984375 400.39892578125 406.109466552734375 437.79193115234375 469.701507568359375 489.173736572265625 497.21636962890625 486.40740966796875 471.88983154296875 491.368438720703125 516.57403564453125 530.82830810546875 533.92791748046875 555.50921630859375 592.19244384765625 616.37066650390625 636.5126953125 656.6070556640625 669.26202392578125 667.06024169921875 656.17950439453125 667.17242431640625 692.101318359375 709.2615966796875 671.10595703125 657.92962646484375 715.5205078125 778.04779052734375 832.5743408203125 853.43963623046875 889.2896728515625 930.30194091796875 932.5675048828125 944.74652099609375 965.9334716796875 969.55218505859375 982.7286376953125 1000.63995361328125 986.78369140625 955.95269775390625 961.69873046875 998.82489013671875 1031.108154296875 1036.167724609375 1025.3853759765625 1004.12646484375 994.07073974609375 987.74566650390625 974.41815185546875 973.9322509765625 999.83697509765625 1040.5128173828125 1087.840576171875 1132.1082763671875 1178.8594970703125 1230.6962890625 1285.628662109375 1322.6602783203125 1351.61181640625 1364.123779296875 1334.523193359375 1298.294189453125 1283.593017578125 1286.4940185546875 1310.6812744140625 1352.453857421875 1409.0523681640625 1473.4989013671875 1531.0853271484375 1576.474609375 1579.8095703125 1558.6358642578125 1528.9034423828125 1521.9044189453125 1551.6326904296875 1591.8665771484375 1624.763916015625 1647.97314453125 1666.3931884765625 1692.8800048828125 1731.85205078125 1769.030029296875 1787.600341796875 1804.64501953125 1822.28076171875 1834.0960693359375 1852.9984130859375 1879.780029296875 1915.295166015625 1936.9652099609375 1949.4454345703125 1968.8934326171875 1987.347900390625 2002.4609375 2014.013671875 2021.431884765625 2026.1927490234375 2014.61669921875 1990.20947265625 1970.57177734375 1945.6192626953125 1908.5821533203125 1863.236328125 1814.429443359375 1783.2529296875 1756.0430908203125 1723.043701171875 1684.0487060546875 1655.3681640625 1635.3282470703125 1603.5640869140625 1565.812744140625 1536.731689453125 1503.972900390625 1468.50927734375 1437.08740234375 
2075.472900390625 2061.742919921875 2001.0457763671875 1925.4931640625 1880.0921630859375 1849.2716064453125 1820.4366455078125 1798.2843017578125 1776.7025146484375 1762.640869140625 1777.8115234375 1793.1007080078125 1798.6634521484375 1803.7862548828125 1776.318359375 1713.4906005859375 1652.0673828125 1586.3404541015625 1535.8927001953125 1486.8614501953125 1426.8779296875 1352.182373046875 1280.5087890625 1193.294189453125 1088.63427734375 1016.58880615234375 990.3485107421875 997.898681640625 1006.77032470703125 1020.2193603515625 1022.744140625 1002.7806396484375 951.6163330078125 907.402099609375 869.1661376953125 833.54351806640625 790.38330078125 743.6746826171875 714.689697265625 693.8416748046875 694.32666015625 658.979248046875 578.345947265625 504.63116455078125 434.26971435546875 367.457794189453125 330.4500732421875 298.622344970703125 253.9557647705078125 225.6740264892578125 199.456573486328125 159.91693115234375 162.05126953125 197.84033203125 224.1113433837890625 262.441558837890625 313.96990966796875 350.5194091796875 366.77630615234375 367.42266845703125 370.472930908203125 393.777069091796875 417.564056396484375 433.4859619140625 447.9425048828125 450.110076904296875 440.99188232421875 438.563262939453125 456.154388427734375 478.665374755859375 496.96185302734375 496.61773681640625 518.77191162109375 549.38397216796875 568.03900146484375 574.5999755859375 576.67474365234375 588.59033203125 591.4600830078125 584.23248291015625 604.85552978515625 634.53814697265625 647.57464599609375 645.593994140625 689.826416015625 769.99981689453125 826.96881103515625 883.56353759765625 914.783447265625 937.61834716796875 981.201904296875 1010.28033447265625 1029.675048828125 1051.2655029296875 1047.34912109375 1050.6519775390625 1057.732421875 1035.2069091796875 998.5950927734375 991.18975830078125 1033.954345703125 1090.5863037109375 1100.8409423828125 1089.34521484375 1066.54345703125 1051.0028076171875 1042.7415771484375 1033.76123046875 1008.29449462890625 991.19732666015625 1014.96856689453125 1059.2984619140625 1103.4000244140625 1143.1644287109375 1182.8961181640625 1229.4248046875 1258.3448486328125 1286.0867919921875 1299.0067138671875 1276.02197265625 1257.449951171875 1269.7537841796875 1301.5732421875 1341.600341796875 1390.551025390625 1447.5335693359375 1507.912841796875 1560.9407958984375 1597.6490478515625 1600.82421875 1582.3056640625 1555.01904296875 1539.8597412109375 1554.124267578125 1586.74658203125 1616.16650390625 1636.149169921875 1657.603271484375 1685.6007080078125 1724.6663818359375 1761.813232421875 1783.5614013671875 1800.0760498046875 1816.4288330078125 1829.604248046875 1849.557861328125 1874.1632080078125 1904.342041015625 1924.091064453125 1936.4842529296875 1956.1279296875 1974.708251953125 1994.0582275390625 2004.59326171875 2012.9586181640625 2014.6318359375 2001.11279296875 1978.750244140625 1954.4010009765625 1927.6484375 1890.8553466796875 1848.992431640625 1808.7193603515625 1776.2596435546875 1746.59375 1712.7501220703125 1675.6556396484375 1647.06396484375 1623.9095458984375 1591.8575439453125 1556.851318359375 1530.46630859375 1497.702880859375 1461.8837890625 1432.814208984375 
2051.102294921875 2065.84765625 2041.711181640625 1975.735595703125 1925.3265380859375 1910.77734375 1880.143310546875 1847.5474853515625 1829.9730224609375 1833.2020263671875 1848.13330078125 1853.9266357421875 1850.8031005859375 1804.75 1731.1270751953125 1667.66943359375 1609.955322265625 1549.52880859375 1493.0303955078125 1445.326171875 1390.69677734375 1327.5303955078125 1264.171630859375 1180.927001953125 1094.774169921875 1061.9031982421875 1082.9910888671875 1081.615234375 1077.5830078125 1093.0084228515625 1098.5572509765625 1064.4586181640625 999.40765380859375 950.616455078125 914.49676513671875 881.31793212890625 842.18670654296875 789.49334716796875 753.361328125 723.72869873046875 704.3660888671875 676.6226806640625 600.18505859375 520.6248779296875 447.483367919921875 385.56298828125 341.43341064453125 308.21905517578125 269.47686767578125 232.7320556640625 203.16827392578125 162.2423248291015625 147.56402587890625 173.297576904296875 199.2173309326171875 232.434661865234375 283.944732666015625 323.08404541015625 328.2515869140625 320.502227783203125 329.17327880859375 355.220428466796875 376.76922607421875 383.38079833984375 388.082000732421875 388.78387451171875 387.598480224609375 395.93902587890625 413.8773193359375 432.730224609375 447.62701416015625 451.09210205078125 464.746673583984375 486.328887939453125 503.555267333984375 510.18377685546875 514.3436279296875 533.46917724609375 560.2867431640625 590.8526611328125 624.35638427734375 647.1903076171875 673.53485107421875 691.06719970703125 750.84906005859375 834.9429931640625 875.78216552734375 919.78271484375 972.42047119140625 1000.8585205078125 1036.130859375 1079.774658203125 1105.4129638671875 1129.0028076171875 1124.6195068359375 1117.000244140625 1110.5841064453125 1078.0743408203125 1037.9552001953125 1021.26312255859375 1063.0367431640625 1129.393310546875 1163.7393798828125 1154.4217529296875 1133.642578125 1122.0574951171875 1113.1505126953125 1097.9501953125 1064.5673828125 1028.19873046875 1012.37152099609375 1030.1654052734375 1067.9154052734375 1103.849853515625 1134.8050537109375 1169.919921875 1197.6270751953125 1223.54443359375 1233.7420654296875 1227.4090576171875 1245.9407958984375 1294.19921875 1340.716552734375 1379.588623046875 1426.2783203125 1483.291015625 1535.8338623046875 1586.969482421875 1618.3150634765625 1619.0660400390625 1604.8914794921875 1587.32421875 1572.3035888671875 1574.8267822265625 1595.266845703125 1615.3856201171875 1630.759765625 1649.8570556640625 1676.7552490234375 1714.1312255859375 1753.496337890625 1775.9552001953125 1792.5145263671875 1807.8074951171875 1822.5421142578125 1842.4351806640625 1865.880126953125 1889.946533203125 1908.5128173828125 1922.359130859375 1940.2861328125 1958.4140625 1979.7418212890625 1992.08056640625 2001.347900390625 1997.184326171875 1975.669189453125 1938.0462646484375 1907.041015625 1880.095947265625 1848.88671875 1818.3759765625 1792.8272705078125 1765.5650634765625 1737.0716552734375 1707.5692138671875 1676.40478515625 1649.007568359375 1619.1890869140625 1580.6934814453125 1542.9815673828125 1514.475830078125 1481.3961181640625 1450.349365234375 1425.1226806640625 
2001.7738037109375 2035.9639892578125 2057.35546875 2045.242431640625 2005.6231689453125 1967.9375 1931.272216796875 1906.298828125 1912.9307861328125 1912.378662109375 1910.6983642578125 1910.320556640625 1870.9959716796875 1787.840087890625 1719.1810302734375 1671.097412109375 1620.2845458984375 1556.91064453125 1512.4197998046875 1471.807373046875 1433.2642822265625 1381.458740234375 1289.7005615234375 1183.4627685546875 1139.31201171875 1154.1885986328125 1165.1346435546875 1150.2901611328125 1149.1329345703125 1158.3594970703125 1164.4337158203125 1123.947509765625 1054.3631591796875 998.24359130859375 955.784912109375 917.95159912109375 877.80572509765625 827.9327392578125 786.975341796875 746.27490234375 715.38580322265625 689.4495849609375 632.91754150390625 547.91156005859375 467.33746337890625 401.767333984375 347.2906494140625 306.4219970703125 275.741912841796875 238.3383636474609375 192.0941009521484375 148.2858734130859375 134.093017578125 147.8440704345703125 180.2600555419921875 213.1194915771484375 257.765594482421875 270.02716064453125 265.74896240234375 263.647216796875 276.30169677734375 301.673095703125 325.23468017578125 330.597320556640625 333.217193603515625 335.7569580078125 342.514862060546875 358.59075927734375 375.376678466796875 391.28863525390625 400.449676513671875 411.27423095703125 424.763519287109375 444.429443359375 468.114990234375 492.183868408203125 524.06207275390625 572.05792236328125 623.93597412109375 671.49224853515625 711.3753662109375 724.73681640625 733.78875732421875 762.6444091796875 817.8564453125 891.69476318359375 929.29296875 951.03717041015625 1011.1568603515625 1066.0006103515625 1112.863525390625 1157.8314208984375 1179.453369140625 1199.385498046875 1199.0977783203125 1190.5577392578125 1162.20361328125 1121.8199462890625 1079.3466796875 1057.20556640625 1093.1834716796875 1157.0787353515625 1211.775390625 1216.794189453125 1199.901611328125 1196.080810546875 1189.9473876953125 1159.2286376953125 1112.17138671875 1073.91552734375 1046.8204345703125 1030.6146240234375 1044.703857421875 1075.542236328125 1104.0089111328125 1131.7818603515625 1154.0933837890625 1175.7939453125 1192.8681640625 1213.194580078125 1255.9124755859375 1316.317626953125 1376.3687744140625 1420.65771484375 1454.801025390625 1509.3363037109375 1566.3704833984375 1610.288818359375 1635.3900146484375 1635.586181640625 1629.9808349609375 1627.191162109375 1616.638671875 1614.0968017578125 1623.2890625 1630.18994140625 1634.145263671875 1647.1402587890625 1674.4959716796875 1708.5250244140625 1743.979248046875 1766.7781982421875 1783.760498046875 1798.6153564453125 1814.409423828125 1834.94873046875 1853.4415283203125 1874.1904296875 1891.0899658203125 1904.5458984375 1921.2099609375 1939.2015380859375 1960.4349365234375 1974.5076904296875 1982.2415771484375 1974.7470703125 1947.3856201171875 1894.52197265625 1857.633544921875 1831.9508056640625 1813.1363525390625 1798.1221923828125 1780.8382568359375 1759.682373046875 1733.9703369140625 1707.3458251953125 1680.9617919921875 1651.7884521484375 1618.765869140625 1574.3258056640625 1533.7713623046875 1505.02734375 1474.519775390625 1447.59423828125 1422.4971923828125 
1949.707763671875 1997.365234375 2045.3701171875 2078.501708984375 2074.69384765625 2030.9266357421875 2003.262451171875 1994.6107177734375 1996.1494140625 1977.3349609375 1966.58837890625 1951.46826171875 1875.441162109375 1796.528564453125 1762.55126953125 1719.86572265625 1655.5684814453125 1595.0675048828125 1577.8468017578125 1547.2989501953125 1504.1859130859375 1419.0511474609375 1292.4248046875 1207.2369384765625 1210.0142822265625 1248.9219970703125 1257.3607177734375 1234.1544189453125 1230.032958984375 1231.6583251953125 1223.7274169921875 1172.97802734375 1107.684326171875 1052.9150390625 1008.61810302734375 969.800537109375 922.27899169921875 861.6473388671875 802.7689208984375 756.3179931640625 717.34088134765625 687.545166015625 649.31146240234375 573.83245849609375 493.25909423828125 418.281219482421875 354.934051513671875 304.80914306640625 271.14605712890625 241.3637542724609375 194.7674560546875 144.6925811767578125 128.337493896484375 136.482757568359375 166.741729736328125 198.728607177734375 229.2033538818359375 229.877227783203125 232.6906890869140625 243.5474090576171875 252.692962646484375 262.3309326171875 280.677398681640625 294.8770751953125 309.4415283203125 324.1663818359375 338.342681884765625 348.278045654296875 355.370513916015625 371.637359619140625 395.84649658203125 424.597198486328125 450.359283447265625 475.169708251953125 509.973724365234375 549.85736083984375 592.1751708984375 645.65447998046875 704.4697265625 740.19171142578125 782.5423583984375 806.7630615234375 793.2132568359375 822.6649169921875 883.5240478515625 943.5673828125 979.7913818359375 982.8011474609375 1029.9576416015625 1101.968994140625 1171.3016357421875 1223.8336181640625 1260.1949462890625 1277.945068359375 1280.109619140625 1261.3685302734375 1217.532958984375 1173.09765625 1126.64453125 1094.96728515625 1125.4163818359375 1190.8125 1254.0931396484375 1275.92578125 1271.0423583984375 1263.5697021484375 1250.65771484375 1210.623046875 1154.3209228515625 1108.515869140625 1081.055419921875 1057.202880859375 1046.362060546875 1072.33056640625 1104.328369140625 1136.8243408203125 1167.2010498046875 1184.766845703125 1198.9764404296875 1226.1627197265625 1273.9029541015625 1333.86376953125 1388.378173828125 1444.7662353515625 1493.22900390625 1539.4310302734375 1590.8236083984375 1637.4498291015625 1658.701416015625 1651.3973388671875 1652.6851806640625 1665.92724609375 1663.4278564453125 1656.5863037109375 1654.702392578125 1653.0010986328125 1646.7501220703125 1654.26025390625 1676.0498046875 1702.56201171875 1735.0615234375 1756.2738037109375 1774.73876953125 1790.0423583984375 1807.246337890625 1826.1131591796875 1842.0076904296875 1859.4605712890625 1873.6053466796875 1887.9638671875 1903.4674072265625 1922.8819580078125 1942.6671142578125 1953.7791748046875 1958.0594482421875 1954.794677734375 1939.1329345703125 1894.330322265625 1849.455078125 1819.394287109375 1804.5042724609375 1792.6961669921875 1776.5567626953125 1760.8065185546875 1736.9720458984375 1711.16162109375 1687.668701171875 1651.6192626953125 1610.2728271484375 1564.202392578125 1526.0693359375 1496.6944580078125 1467.2642822265625 1445.1385498046875 1422.038818359375 
1907.244873046875 1959.9644775390625 2013.436767578125 2058.961181640625 2082.496337890625 2072.99609375 2076.818603515625 2090.708251953125 2094.473388671875 2084.525634765625 2049.3232421875 1987.3839111328125 1912.1783447265625 1853.4490966796875 1822.8121337890625 1767.603759765625 1705.7047119140625 1667.66015625 1644.0301513671875 1593.8330078125 1515.427001953125 1414.5594482421875 1301.6414794921875 1253.9473876953125 1292.9111328125 1343.29296875 1342.0943603515625 1318.9798583984375 1309.920654296875 1297.0953369140625 1278.52978515625 1220.8660888671875 1164.626220703125 1113.3240966796875 1052.2891845703125 1005.75555419921875 960.796875 901.2147216796875 831.9200439453125 768.606689453125 722.63067626953125 685.4129638671875 651.94232177734375 587.4454345703125 502.998992919921875 429.14556884765625 365.49139404296875 312.7689208984375 275.746673583984375 246.3860015869140625 206.764739990234375 159.163848876953125 127.8027801513671875 134.3096160888671875 160.8679046630859375 199.5413970947265625 237.2257080078125 259.807098388671875 277.907989501953125 310.28448486328125 324.5579833984375 298.93597412109375 287.09881591796875 314.77838134765625 344.08587646484375 356.518707275390625 372.703338623046875 390.767974853515625 405.610076904296875 427.832855224609375 451.635162353515625 483.35418701171875 506.72308349609375 533.13311767578125 572.05706787109375 622.486083984375 667.14678955078125 718.41802978515625 775.37811279296875 813.5177001953125 850.76806640625 878.2218017578125 859.89990234375 874.01788330078125 935.53399658203125 996.23590087890625 1037.905517578125 1040.1873779296875 1055.52978515625 1118.510498046875 1186.7064208984375 1248.088623046875 1311.1650390625 1357.203369140625 1355.491943359375 1318.9881591796875 1267.7550048828125 1219.5008544921875 1176.1490478515625 1139.9346923828125 1159.6337890625 1220.1162109375 1282.4130859375 1323.60888671875 1336.389892578125 1325.8138427734375 1295.0301513671875 1244.9522705078125 1189.42822265625 1144.260498046875 1117.6640625 1093.2386474609375 1069.179931640625 1067.362548828125 1095.84375 1138.9508056640625 1187.937255859375 1222.76513671875 1251.603515625 1282.8603515625 1320.99072265625 1364.734130859375 1416.1453857421875 1473.6861572265625 1530.7071533203125 1580.6007080078125 1612.5985107421875 1648.7791748046875 1671.925048828125 1669.498779296875 1678.3033447265625 1695.5885009765625 1697.4044189453125 1694.223876953125 1689.1865234375 1679.42041015625 1670.595703125 1672.79541015625 1683.1275634765625 1701.3487548828125 1726.92822265625 1746.8377685546875 1765.6866455078125 1780.7252197265625 1799.5865478515625 1819.63134765625 1832.6522216796875 1846.026123046875 1859.40966796875 1872.7236328125 1889.365234375 1909.5958251953125 1927.6671142578125 1933.607666015625 1933.4619140625 1935.0826416015625 1931.935546875 1910.802978515625 1872.7628173828125 1830.189208984375 1801.5279541015625 1786.2657470703125 1773.214111328125 1761.064697265625 1741.6910400390625 1713.9853515625 1687.925048828125 1649.784912109375 1600.911376953125 1552.4256591796875 1517.130126953125 1489.197021484375 1461.4205322265625 1440.625244140625 1416.3304443359375 
1867.67431640625 1922.32177734375 1981.26318359375 2033.69921875 2067.138427734375 2077.005859375 2087.84130859375 2100.235595703125 2105.4873046875 2099.4599609375 2075.458251953125 2026.768310546875 1972.08056640625 1921.92431640625 1883.7437744140625 1830.1396484375 1772.3751220703125 1731.8848876953125 1676.63037109375 1602.7259521484375 1510.333984375 1408.4925537109375 1330.4832763671875 1330.7906494140625 1377.76025390625 1419.0478515625 1418.4190673828125 1402.1339111328125 1393.9620361328125 1362.5352783203125 1329.4805908203125 1271.40625 1218.839111328125 1161.9776611328125 1092.0166015625 1028.626220703125 975.0955810546875 915.5587158203125 849.73687744140625 779.7254638671875 721.70745849609375 679.6148681640625 642.6322021484375 583.11309814453125 504.293426513671875 432.13482666015625 370.192047119140625 318.24749755859375 279.6025390625 245.5366668701171875 207.4162139892578125 171.1932373046875 134.1205902099609375 134.6506805419921875 166.4694366455078125 210.8199462890625 259.490509033203125 296.766632080078125 330.348907470703125 368.393646240234375 397.31085205078125 391.6400146484375 366.12908935546875 374.338226318359375 406.197784423828125 412.641998291015625 423.1549072265625 447.761627197265625 474.7470703125 504.11248779296875 515.475341796875 541.93450927734375 558.6195068359375 589.21649169921875 638.671875 691.03802490234375 738.0684814453125 789.6754150390625 834.81365966796875 872.951171875 904.47314453125 939.336669921875 932.828125 922.97314453125 975.42376708984375 1043.7515869140625 1099.3424072265625 1113.1551513671875 1108.539794921875 1144.8636474609375 1206.7535400390625 1272.764404296875 1347.2012939453125 1409.4114990234375 1414.5379638671875 1374.7685546875 1316.6495361328125 1266.4249267578125 1226.599853515625 1185.1199951171875 1193.5826416015625 1250.6846923828125 1315.0911865234375 1373.6588134765625 1399.8643798828125 1378.7279052734375 1326.389404296875 1273.706298828125 1229.9063720703125 1190.2625732421875 1159.36474609375 1132.6024169921875 1104.2672119140625 1078.7744140625 1091.6314697265625 1135.43017578125 1180.088623046875 1222.509521484375 1271.7177734375 1320.3170166015625 1365.853515625 1401.3182373046875 1447.1116943359375 1497.656982421875 1546.7279052734375 1591.747802734375 1618.096923828125 1642.216064453125 1665.1983642578125 1673.9437255859375 1692.0987548828125 1705.0126953125 1704.0830078125 1710.1180419921875 1717.4012451171875 1714.8804931640625 1709.449462890625 1709.5147705078125 1712.9588623046875 1722.42138671875 1730.141357421875 1738.2830810546875 1758.297607421875 1776.490234375 1795.58935546875 1814.3577880859375 1824.820556640625 1836.05859375 1847.91748046875 1860.26025390625 1876.452880859375 1896.0506591796875 1910.7857666015625 1914.568359375 1912.58740234375 1917.4144287109375 1919.645751953125 1913.7999267578125 1896.435791015625 1867.7620849609375 1830.6182861328125 1802.38232421875 1783.1981201171875 1772.4228515625 1748.3443603515625 1710.4156494140625 1677.6507568359375 1636.404296875 1588.1314697265625 1542.0159912109375 1507.647705078125 1480.118408203125 1453.974853515625 1434.534912109375 1409.3865966796875 
1836.1561279296875 1890.9725341796875 1955.51123046875 2003.9498291015625 2032.6409912109375 2051.869140625 2065.415771484375 2079.4462890625 2082.03564453125 2079.84228515625 2062.64208984375 2030.2120361328125 1996.0203857421875 1963.3377685546875 1929.0230712890625 1881.3460693359375 1821.6842041015625 1759.3468017578125 1683.178955078125 1603.3656005859375 1509.393798828125 1418.32958984375 1394.4713134765625 1419.0731201171875 1457.2452392578125 1491.3958740234375 1499.503662109375 1481.8760986328125 1457.18798828125 1418.341552734375 1381.261962890625 1324.6400146484375 1259.0594482421875 1195.7822265625 1122.246337890625 1049.2193603515625 981.9981689453125 916.60198974609375 850.757080078125 787.9056396484375 723.47802734375 668.75115966796875 630.5997314453125 574.69232177734375 501.068572998046875 428.998779296875 365.811187744140625 316.54656982421875 281.20001220703125 247.93072509765625 206.609832763671875 177.0599365234375 143.814178466796875 133.59210205078125 165.776641845703125 214.1050567626953125 263.565704345703125 298.87347412109375 338.79229736328125 387.840301513671875 433.030975341796875 462.729095458984375 464.9151611328125 454.306549072265625 463.7657470703125 469.471954345703125 470.328643798828125 482.44940185546875 505.2178955078125 539.39801025390625 564.57373046875 584.0487060546875 604.550048828125 645.6947021484375 701.35052490234375 749.27838134765625 792.54705810546875 838.86932373046875 879.12054443359375 924.40728759765625 961.73895263671875 988.6064453125 993.926025390625 988.7449951171875 1016.557373046875 1076.73828125 1144.092529296875 1181.1878662109375 1183.396728515625 1187.9632568359375 1235.6141357421875 1298.7174072265625 1368.30517578125 1426.5316162109375 1454.0113525390625 1418.4718017578125 1363.33642578125 1314.3724365234375 1268.1331787109375 1227.5196533203125 1229.1737060546875 1282.2025146484375 1352.259765625 1421.38427734375 1447.434814453125 1410.308349609375 1358.24560546875 1313.3138427734375 1272.856689453125 1232.517578125 1202.635986328125 1175.5338134765625 1143.07861328125 1110.2806396484375 1094.9776611328125 1118.5189208984375 1163.2216796875 1209.6192626953125 1255.43359375 1304.864013671875 1353.22021484375 1386.9425048828125 1424.91748046875 1471.6318359375 1517.5272216796875 1560.7618408203125 1597.1158447265625 1616.232177734375 1632.5050048828125 1643.0948486328125 1660.659912109375 1676.5931396484375 1682.40966796875 1692.89892578125 1712.6689453125 1726.9033203125 1736.5269775390625 1740.3819580078125 1747.0550537109375 1756.0377197265625 1756.8857421875 1752.96240234375 1761.0196533203125 1770.9886474609375 1790.1368408203125 1809.4483642578125 1819.001220703125 1828.398681640625 1837.7696533203125 1849.72265625 1865.846923828125 1884.359130859375 1895.1444091796875 1895.9842529296875 1895.1058349609375 1902.316650390625 1906.087890625 1906.9757080078125 1902.9395751953125 1894.74462890625 1874.216796875 1843.90283203125 1810.8729248046875 1781.00390625 1742.532958984375 1698.44384765625 1661.644287109375 1618.658935546875 1572.87939453125 1533.8936767578125 1498.7421875 1472.156982421875 1447.744140625 1428.726318359375 1402.1341552734375 
1798.3736572265625 1864.52880859375 1933.230224609375 1971.768310546875 1992.9873046875 2014.1795654296875 2023.8226318359375 2034.416015625 2043.2730712890625 2044.4835205078125 2032.5947265625 2017.8359375 2001.7894287109375 1973.912353515625 1934.8607177734375 1888.9012451171875 1833.83642578125 1767.45458984375 1689.6671142578125 1608.1524658203125 1528.6851806640625 1482.6533203125 1488.8812255859375 1503.15869140625 1529.573974609375 1557.8895263671875 1562.02392578125 1537.732177734375 1490.3070068359375 1446.6617431640625 1410.7056884765625 1354.3560791015625 1287.321533203125 1218.1319580078125 1144.016845703125 1070.0113525390625 998.26885986328125 921.60528564453125 848.584716796875 781.6640625 717.3956298828125 652.76715087890625 614.30572509765625 566.971923828125 498.85552978515625 428.3016357421875 365.26080322265625 316.153289794921875 282.83795166015625 257.073272705078125 214.7041778564453125 181.450653076171875 149.1231536865234375 133.92254638671875 163.9881439208984375 211.9219818115234375 253.302337646484375 286.14520263671875 327.021484375 389.171539306640625 463.080230712890625 510.000457763671875 520.5506591796875 513.27655029296875 505.073516845703125 503.69244384765625 494.557952880859375 481.0648193359375 500.236236572265625 543.26165771484375 581.40301513671875 607.42547607421875 637.19122314453125 688.6466064453125 745.12738037109375 797.22589111328125 844.1251220703125 880.89544677734375 916.825927734375 963.340576171875 1003.63800048828125 1034.591552734375 1051.2191162109375 1051.8336181640625 1063.0394287109375 1107.7574462890625 1173.62158203125 1238.1129150390625 1251.0872802734375 1242.1220703125 1276.3006591796875 1328.9156494140625 1385.843994140625 1442.9266357421875 1484.865234375 1464.78271484375 1415.555419921875 1364.9327392578125 1315.22265625 1272.6302490234375 1267.0899658203125 1318.6182861328125 1383.7738037109375 1448.0142822265625 1481.8895263671875 1452.0985107421875 1401.0413818359375 1356.812744140625 1313.2557373046875 1276.39794921875 1248.1839599609375 1211.34521484375 1169.300537109375 1142.4532470703125 1121.60302734375 1112.610107421875 1141.2337646484375 1190.03564453125 1233.9161376953125 1277.0040283203125 1321.5205078125 1351.24853515625 1378.0946044921875 1417.4896240234375 1461.40625 1506.0155029296875 1546.2020263671875 1573.2623291015625 1581.6064453125 1589.51220703125 1604.493408203125 1621.226318359375 1638.8470458984375 1657.7611083984375 1680.6009521484375 1699.400146484375 1724.9022216796875 1746.589599609375 1763.1695556640625 1778.5548095703125 1780.19189453125 1774.5296630859375 1774.4859619140625 1774.6231689453125 1790.4273681640625 1808.201416015625 1816.112060546875 1821.1019287109375 1829.7177734375 1841.3597412109375 1858.3060302734375 1873.29052734375 1879.9525146484375 1879.0186767578125 1881.2626953125 1889.4656982421875 1889.93505859375 1891.22705078125 1894.8590087890625 1893.933349609375 1880.5111083984375 1852.46337890625 1810.8585205078125 1768.613525390625 1728.2830810546875 1686.286865234375 1648.13623046875 1604.1375732421875 1556.7396240234375 1517.4642333984375 1486.18212890625 1463.89306640625 1443.1370849609375 1421.950439453125 1393.4151611328125 
1762.6124267578125 1834.34619140625 1896.094482421875 1929.787109375 1949.7818603515625 1964.5870361328125 1973.6158447265625 1985.4493408203125 1995.783203125 2000.111328125 2004.471923828125 2006.2518310546875 1994.734619140625 1973.46875 1936.1065673828125 1885.427001953125 1834.5926513671875 1774.59619140625 1702.00390625 1624.431640625 1565.3463134765625 1553.865966796875 1562.8851318359375 1584.1181640625 1605.1795654296875 1621.51708984375 1599.77490234375 1557.1685791015625 1503.0042724609375 1449.81103515625 1414.8948974609375 1358.0504150390625 1296.95263671875 1233.6441650390625 1158.9339599609375 1089.6427001953125 1016.82513427734375 936.6658935546875 853.44390869140625 776.50555419921875 708.151611328125 637.79217529296875 586.83062744140625 555.19146728515625 500.172088623046875 428.956268310546875 369.518524169921875 320.959381103515625 286.507781982421875 268.12347412109375 229.7568206787109375 187.48321533203125 151.023681640625 133.5774688720703125 164.62371826171875 209.403900146484375 241.1781768798828125 271.750274658203125 313.390655517578125 379.124481201171875 455.5709228515625 516.613525390625 536.746826171875 528.3277587890625 529.98712158203125 529.61309814453125 511.3251953125 485.15325927734375 503.6785888671875 546.67535400390625 583.08966064453125 615.3453369140625 655.7928466796875 712.0240478515625 774.7757568359375 835.32147216796875 889.5987548828125 919.633056640625 949.3480224609375 987.91754150390625 1027.184326171875 1071.1387939453125 1100.6507568359375 1106.380126953125 1112.115478515625 1152.285888671875 1215.0201416015625 1281.844970703125 1307.683349609375 1291.2607421875 1314.7818603515625 1365.5390625 1422.470947265625 1475.8172607421875 1521.3214111328125 1521.4852294921875 1472.314453125 1416.904296875 1359.656005859375 1319.7235107421875 1309.1048583984375 1346.684814453125 1408.704833984375 1470.4090576171875 1513.2509765625 1501.0694580078125 1453.730712890625 1399.0535888671875 1348.30224609375 1306.5509033203125 1265.248046875 1217.9232177734375 1186.599365234375 1176.8333740234375 1161.019287109375 1136.7255859375 1130.8197021484375 1160.6693115234375 1200.18408203125 1242.2481689453125 1286.753662109375 1317.6610107421875 1339.2510986328125 1365.4473876953125 1402.2845458984375 1440.9951171875 1476.74560546875 1513.661865234375 1525.2275390625 1535.5482177734375 1556.7169189453125 1577.28369140625 1595.61376953125 1616.3270263671875 1642.4925537109375 1661.87548828125 1693.111083984375 1727.0965576171875 1757.1575927734375 1781.2861328125 1790.4766845703125 1786.6695556640625 1788.7657470703125 1791.310791015625 1803.5938720703125 1814.711181640625 1817.1153564453125 1815.914306640625 1824.0294189453125 1838.5428466796875 1853.21142578125 1861.7076416015625 1863.622802734375 1863.1650390625 1867.60205078125 1875.6495361328125 1875.571044921875 1879.6702880859375 1888.8133544921875 1888.3170166015625 1875.971435546875 1847.818359375 1796.86669921875 1750.9532470703125 1714.3677978515625 1675.5255126953125 1635.102294921875 1590.5953369140625 1545.9417724609375 1505.9312744140625 1472.6236572265625 1450.794677734375 1432.3616943359375 1411.7401123046875 1384.186767578125 
1744.4176025390625 1803.2127685546875 1850.391357421875 1879.972412109375 1899.72412109375 1910.1748046875 1919.9779052734375 1930.465087890625 1945.042236328125 1962.4783935546875 1980.517333984375 1987.1259765625 1979.555908203125 1965.7459716796875 1935.19482421875 1884.292724609375 1831.1512451171875 1775.643310546875 1709.746337890625 1644.2335205078125 1619.5516357421875 1630.392333984375 1652.6446533203125 1675.9400634765625 1677.9617919921875 1657.1822509765625 1612.8963623046875 1558.6864013671875 1501.0751953125 1439.8741455078125 1389.9678955078125 1334.817626953125 1286.3004150390625 1230.002197265625 1161.3358154296875 1091.123779296875 1015.39520263671875 940.6162109375 860.9622802734375 764.44561767578125 692.370849609375 625.71905517578125 559.09576416015625 526.54010009765625 488.733245849609375 426.877227783203125 372.173980712890625 329.327606201171875 293.515625 276.7755126953125 241.11102294921875 191.69476318359375 152.9944915771484375 136.8064727783203125 174.3613433837890625 212.63897705078125 230.385650634765625 258.4862060546875 298.7760009765625 354.981201171875 424.64154052734375 487.848724365234375 519.73712158203125 527.0277099609375 554.03076171875 562.08856201171875 534.2989501953125 501.7835693359375 511.998626708984375 550.855224609375 583.052490234375 621.33673095703125 666.49432373046875 717.46075439453125 789.23077392578125 852.8531494140625 910.48583984375 944.20391845703125 973.9327392578125 1002.47064208984375 1041.9102783203125 1091.93701171875 1140.1507568359375 1158.9407958984375 1165.489990234375 1197.949951171875 1249.870849609375 1309.931884765625 1351.2005615234375 1348.5498046875 1347.573974609375 1392.7642822265625 1455.079345703125 1521.720458984375 1567.47607421875 1569.6317138671875 1525.3758544921875 1466.70849609375 1412.4454345703125 1377.7086181640625 1360.431396484375 1379.7392578125 1431.890869140625 1490.7486572265625 1532.072998046875 1527.271728515625 1494.97412109375 1434.4710693359375 1361.591064453125 1307.7196044921875 1263.950927734375 1228.7347412109375 1226.126220703125 1220.9029541015625 1201.2958984375 1177.5933837890625 1154.4681396484375 1151.0283203125 1166.04248046875 1202.6729736328125 1249.815185546875 1278.5029296875 1299.2366943359375 1323.3426513671875 1350.62451171875 1378.316650390625 1411.1051025390625 1451.0577392578125 1471.9373779296875 1492.5531005859375 1523.1329345703125 1545.0274658203125 1557.5947265625 1574.432373046875 1603.149169921875 1627.6121826171875 1660.732177734375 1707.0572509765625 1743.24755859375 1766.7191162109375 1782.6314697265625 1790.0858154296875 1794.99462890625 1804.100341796875 1816.626708984375 1825.6304931640625 1826.0543212890625 1818.2301025390625 1821.99755859375 1835.6470947265625 1847.213134765625 1850.7537841796875 1848.40185546875 1852.3126220703125 1862.4088134765625 1869.027099609375 1871.2861328125 1878.0340576171875 1884.7080078125 1879.862548828125 1861.4873046875 1834.129150390625 1782.97412109375 1737.585693359375 1701.3873291015625 1661.9383544921875 1620.5892333984375 1576.8394775390625 1540.0208740234375 1504.1829833984375 1469.298828125 1435.361083984375 1405.4312744140625 1385.9708251953125 1366.4046630859375 
1730.463623046875 1768.535400390625 1801.803466796875 1831.48974609375 1850.039306640625 1856.37744140625 1867.340576171875 1880.043701171875 1903.31640625 1931.615478515625 1948.3585205078125 1957.085205078125 1956.8743896484375 1945.2607421875 1923.379150390625 1880.7462158203125 1825.767578125 1769.5469970703125 1713.8087158203125 1679.13134765625 1681.87060546875 1706.466552734375 1731.06640625 1735.6265869140625 1712.5185546875 1670.5440673828125 1615.3538818359375 1554.1451416015625 1486.095947265625 1422.7955322265625 1361.042236328125 1302.6849365234375 1252.8802490234375 1193.4405517578125 1133.7010498046875 1064.1572265625 989.45684814453125 923.59417724609375 850.03411865234375 740.4473876953125 666.41033935546875 605.25921630859375 535.43243408203125 493.27215576171875 464.774261474609375 423.1741943359375 377.131134033203125 341.321441650390625 301.8892822265625 279.182708740234375 250.0973052978515625 198.6694793701171875 160.467437744140625 143.1421966552734375 177.493377685546875 209.428192138671875 223.561004638671875 253.8596343994140625 293.3924560546875 340.657745361328125 405.169036865234375 461.62860107421875 486.18243408203125 502.597015380859375 546.98980712890625 570.94720458984375 550.4283447265625 514.0576171875 515.30255126953125 545.52593994140625 579.90692138671875 624.36859130859375 667.9117431640625 715.066162109375 784.20245361328125 851.11029052734375 910.10516357421875 947.28082275390625 976.88189697265625 1009.6357421875 1051.9832763671875 1099.85400390625 1161.5687255859375 1198.716552734375 1212.2559814453125 1237.7191162109375 1281.2784423828125 1331.190185546875 1375.6199951171875 1392.938232421875 1396.4713134765625 1424.7603759765625 1481.4207763671875 1551.05712890625 1604.492431640625 1607.6094970703125 1561.2196044921875 1506.983642578125 1468.7655029296875 1442.40185546875 1421.4775390625 1423.248291015625 1464.72021484375 1515.7105712890625 1552.8033447265625 1543.4462890625 1507.9754638671875 1435.0406494140625 1355.9794921875 1299.62939453125 1267.26171875 1256.9371337890625 1270.8699951171875 1268.5296630859375 1246.03759765625 1221.4757080078125 1199.8575439453125 1180.67333984375 1173.581298828125 1182.2161865234375 1212.1370849609375 1233.8302001953125 1257.906982421875 1287.1025390625 1314.2152099609375 1339.522216796875 1369.42236328125 1402.8165283203125 1421.586669921875 1451.012939453125 1485.7347412109375 1514.3739013671875 1531.3067626953125 1542.6951904296875 1562.481689453125 1590.036865234375 1626.564697265625 1684.4298095703125 1728.5833740234375 1750.87939453125 1768.4046630859375 1787.1024169921875 1797.311279296875 1808.6290283203125 1823.4564208984375 1832.8232421875 1830.4522705078125 1819.2078857421875 1820.792236328125 1832.8687744140625 1840.3304443359375 1847.5030517578125 1849.720458984375 1857.2017822265625 1868.45947265625 1872.0538330078125 1872.000732421875 1876.0343017578125 1875.6702880859375 1865.707275390625 1844.4742431640625 1817.7955322265625 1774.4810791015625 1732.376708984375 1691.7940673828125 1650.2503662109375 1608.858154296875 1569.9034423828125 1539.3631591796875 1511.2852783203125 1481.620849609375 1448.5771484375 1408.7608642578125 1367.6141357421875 1339.3763427734375 
1686.736328125 1717.7425537109375 1739.230224609375 1780.0284423828125 1803.4052734375 1804.1534423828125 1815.5687255859375 1837.9273681640625 1869.6900634765625 1895.54443359375 1911.1942138671875 1920.4039306640625 1921.5194091796875 1916.0657958984375 1904.98828125 1871.3118896484375 1817.9287109375 1761.17431640625 1725.6920166015625 1725.7867431640625 1739.3905029296875 1761.8314208984375 1771.9854736328125 1757.5587158203125 1724.767333984375 1671.1986083984375 1604.335205078125 1542.741943359375 1474.2635498046875 1413.120361328125 1350.843505859375 1290.4488525390625 1239.681884765625 1177.68408203125 1112.3375244140625 1040.4774169921875 972.42919921875 905.868896484375 827.515625 740.5821533203125 673.89984130859375 592.96221923828125 528.64190673828125 478.37030029296875 446.7041015625 421.29632568359375 384.94378662109375 347.86962890625 305.686737060546875 280.950836181640625 259.381378173828125 208.412384033203125 162.102691650390625 145.6819610595703125 176.5562591552734375 205.2083892822265625 217.3421478271484375 247.2142181396484375 293.42510986328125 340.04656982421875 403.017669677734375 441.296478271484375 447.88751220703125 465.64404296875 508.871612548828125 545.31829833984375 543.2449951171875 516.51904296875 516.43341064453125 545.3135986328125 582.86810302734375 629.43890380859375 664.784423828125 700.08612060546875 763.172119140625 832.9945068359375 897.36767578125 935.9110107421875 968.70037841796875 1010.75177001953125 1054.26025390625 1099.7763671875 1159.032470703125 1205.948486328125 1237.1986083984375 1263.428466796875 1310.857666015625 1356.521728515625 1402.063720703125 1423.8363037109375 1436.7548828125 1461.1875 1503.4906005859375 1567.7374267578125 1622.9342041015625 1625.1082763671875 1576.4725341796875 1529.70166015625 1507.9888916015625 1500.6883544921875 1487.6943359375 1476.1923828125 1496.3558349609375 1542.836669921875 1578.850341796875 1559.32861328125 1511.6002197265625 1438.027099609375 1358.184814453125 1302.16552734375 1280.9088134765625 1294.4014892578125 1319.52001953125 1321.078125 1294.5628662109375 1266.450927734375 1244.5845947265625 1224.400146484375 1214.6925048828125 1204.4869384765625 1201.83837890625 1207.244873046875 1226.353759765625 1263.1463623046875 1292.4058837890625 1314.8084716796875 1339.1209716796875 1364.8995361328125 1384.8310546875 1420.1776123046875 1459.6328125 1491.3841552734375 1507.3934326171875 1511.7926025390625 1526.06884765625 1553.9266357421875 1595.627197265625 1651.77294921875 1705.3287353515625 1739.265625 1760.319580078125 1784.021240234375 1795.0419921875 1807.11865234375 1822.9788818359375 1833.100341796875 1831.8360595703125 1820.12255859375 1821.2080078125 1830.01611328125 1838.90869140625 1855.251220703125 1865.0059814453125 1872.4329833984375 1876.0186767578125 1877.7022705078125 1878.294189453125 1875.61328125 1864.6846923828125 1849.6932373046875 1826.6427001953125 1797.334716796875 1758.885498046875 1721.4327392578125 1682.08251953125 1642.206787109375 1605.3089599609375 1571.8330078125 1543.34716796875 1516.73828125 1490.9254150390625 1463.8922119140625 1432.009521484375 1385.1832275390625 1341.9049072265625 
1631.4942626953125 1663.7115478515625 1681.084716796875 1724.195068359375 1746.181884765625 1748.2666015625 1764.2625732421875 1795.869873046875 1826.9091796875 1848.2528076171875 1864.0836181640625 1877.6717529296875 1880.8768310546875 1882.278564453125 1881.2960205078125 1858.26318359375 1815.6309814453125 1778.196533203125 1768.072265625 1776.0885009765625 1785.9571533203125 1801.3865966796875 1793.382568359375 1765.424072265625 1732.938232421875 1676.211181640625 1606.4725341796875 1547.6412353515625 1488.41943359375 1432.2774658203125 1371.908447265625 1313.9813232421875 1257.2593994140625 1192.3048095703125 1127.2899169921875 1060.8321533203125 992.7689208984375 915.9903564453125 832.1337890625 764.03363037109375 704.61676025390625 638.89263916015625 566.872802734375 496.20849609375 442.7027587890625 411.18450927734375 384.335693359375 349.9283447265625 306.90667724609375 279.52886962890625 260.301116943359375 219.667724609375 171.8292388916015625 141.01165771484375 170.0900115966796875 202.002838134765625 209.1444091796875 227.604278564453125 273.001312255859375 318.001861572265625 374.919769287109375 403.749908447265625 404.455047607421875 427.53338623046875 465.312713623046875 498.38629150390625 512.1549072265625 510.234619140625 519.0770263671875 554.06591796875 596.79864501953125 638.94451904296875 663.4310302734375 683.0203857421875 734.12261962890625 812.42236328125 880.32476806640625 919.73712158203125 957.38446044921875 1005.130615234375 1049.4949951171875 1099.9244384765625 1147.9334716796875 1199.92578125 1245.081787109375 1284.6756591796875 1333.630615234375 1376.2034912109375 1414.314208984375 1454.685791015625 1480.83837890625 1502.1898193359375 1524.7308349609375 1565.3448486328125 1617.132080078125 1634.3189697265625 1596.67236328125 1555.6787109375 1547.8685302734375 1551.9737548828125 1539.5960693359375 1525.2469482421875 1531.7991943359375 1570.2144775390625 1597.331787109375 1572.18115234375 1513.7646484375 1444.27978515625 1371.324462890625 1318.600341796875 1308.005859375 1340.566162109375 1375.802734375 1376.952880859375 1348.618408203125 1318.2137451171875 1287.914306640625 1266.7864990234375 1255.80615234375 1244.9521484375 1236.061767578125 1227.8729248046875 1218.4244384765625 1243.9056396484375 1274.1397705078125 1293.752685546875 1316.1656494140625 1342.0728759765625 1366.61328125 1406.2774658203125 1448.0797119140625 1474.7257080078125 1487.7122802734375 1490.2996826171875 1500.00341796875 1525.3017578125 1565.333740234375 1616.6494140625 1670.5545654296875 1717.8135986328125 1745.0382080078125 1771.039306640625 1789.1739501953125 1801.37109375 1819.269775390625 1830.232421875 1830.1806640625 1820.9398193359375 1821.62060546875 1830.9346923828125 1846.67529296875 1865.6357421875 1880.6773681640625 1889.5462646484375 1888.0435791015625 1883.12353515625 1873.0377197265625 1861.722900390625 1846.7335205078125 1829.3870849609375 1805.127197265625 1775.07568359375 1739.8656005859375 1707.1427001953125 1673.371337890625 1639.5108642578125 1606.4661865234375 1576.9967041015625 1552.807373046875 1526.51416015625 1500.64599609375 1474.412353515625 1440.6051025390625 1396.226806640625 1343.727294921875 
1570.35693359375 1595.4423828125 1623.9678955078125 1671.066162109375 1682.1920166015625 1686.3450927734375 1711.4547119140625 1744.5589599609375 1768.1900634765625 1789.2861328125 1810.5960693359375 1831.9876708984375 1843.3616943359375 1848.958740234375 1854.690185546875 1845.91064453125 1837.9517822265625 1827.9937744140625 1824.9862060546875 1820.9189453125 1814.4979248046875 1818.64599609375 1804.152099609375 1773.6005859375 1740.174072265625 1693.58935546875 1631.4573974609375 1578.511962890625 1523.52978515625 1465.5078125 1404.4141845703125 1334.3079833984375 1267.5777587890625 1205.75048828125 1145.62158203125 1085.2283935546875 1012.23822021484375 930.84765625 863.4818115234375 807.7191162109375 753.22869873046875 680.71441650390625 597.2034912109375 520.594482421875 459.6512451171875 418.0479736328125 379.27325439453125 341.96905517578125 304.839752197265625 278.22869873046875 261.5859375 231.4208984375 191.39892578125 149.2022247314453125 160.975616455078125 196.3055419921875 205.2033843994140625 212.366851806640625 240.4522857666015625 282.346954345703125 332.462371826171875 356.83465576171875 371.36639404296875 400.01531982421875 424.603118896484375 451.325531005859375 473.062896728515625 499.665618896484375 524.57080078125 559.75433349609375 600.66180419921875 633.53662109375 658.0003662109375 675.25726318359375 711.44830322265625 786.53399658203125 854.40972900390625 900.3128662109375 942.1915283203125 994.32244873046875 1044.3363037109375 1094.77099609375 1140.3077392578125 1197.9964599609375 1249.965087890625 1302.378662109375 1345.9757080078125 1381.6583251953125 1422.697021484375 1469.47900390625 1520.9423828125 1546.2550048828125 1557.310546875 1574.879150390625 1604.97705078125 1633.80419921875 1640.350830078125 1623.31591796875 1605.911376953125 1592.197021484375 1579.0518798828125 1568.22802734375 1572.5897216796875 1594.4520263671875 1607.9722900390625 1582.4884033203125 1520.5787353515625 1454.42919921875 1392.99267578125 1343.562255859375 1336.0279541015625 1375.2685546875 1423.379150390625 1430.9483642578125 1402.3817138671875 1368.986083984375 1335.8033447265625 1310.9473876953125 1297.1915283203125 1283.9600830078125 1270.7119140625 1254.755126953125 1233.323486328125 1237.2960205078125 1269.335205078125 1288.7996826171875 1304.4239501953125 1323.9376220703125 1353.2890625 1396.2039794921875 1442.1153564453125 1476.70654296875 1492.0382080078125 1492.6427001953125 1495.6773681640625 1511.5380859375 1542.9361572265625 1584.0596923828125 1628.21142578125 1673.9747314453125 1710.629638671875 1742.7220458984375 1769.3284912109375 1790.990966796875 1811.166748046875 1825.1680908203125 1827.464599609375 1820.8614501953125 1822.4979248046875 1834.927734375 1857.5157470703125 1879.9573974609375 1892.9224853515625 1902.873291015625 1897.397216796875 1873.6573486328125 1845.4803466796875 1826.8521728515625 1815.6953125 1800.5972900390625 1780.7921142578125 1754.239501953125 1727.8065185546875 1701.0089111328125 1669.1201171875 1638.950439453125 1610.06005859375 1584.765625 1560.67138671875 1533.8165283203125 1505.959716796875 1477.4818115234375 1444.045166015625 1402.3709716796875 1355.51513671875 
1509.9254150390625 1523.3526611328125 1559.1263427734375 1611.2723388671875 1621.758056640625 1629.72314453125 1662.30029296875 1682.845947265625 1698.3543701171875 1720.5390625 1749.2493896484375 1780.82666015625 1801.6361083984375 1809.0411376953125 1821.2142333984375 1842.7919921875 1860.2763671875 1858.5562744140625 1847.0262451171875 1832.26513671875 1821.52880859375 1825.236572265625 1810.46044921875 1778.1650390625 1735.49609375 1692.606201171875 1638.9259033203125 1590.782958984375 1538.207763671875 1480.84228515625 1415.738525390625 1346.39404296875 1278.072021484375 1215.852783203125 1159.7733154296875 1096.9776611328125 1028.45458984375 961.44732666015625 909.93896484375 857.89678955078125 792.10638427734375 709.0225830078125 624.33001708984375 533.7711181640625 465.51580810546875 423.076324462890625 384.16241455078125 341.730224609375 303.778564453125 281.669097900390625 271.34735107421875 243.0671539306640625 204.173553466796875 162.678924560546875 148.6239013671875 186.1507568359375 202.8165130615234375 207.90399169921875 220.9729461669921875 252.41278076171875 294.717559814453125 317.794189453125 350.03155517578125 376.5855712890625 387.15380859375 408.782501220703125 434.479888916015625 482.007965087890625 517.244384765625 548.6689453125 585.37640380859375 619.07818603515625 644.2281494140625 664.2908935546875 694.70709228515625 757.0511474609375 827.09503173828125 880.44232177734375 925.98870849609375 977.57073974609375 1034.4078369140625 1081.55322265625 1125.00732421875 1187.488525390625 1247.357177734375 1309.8282470703125 1354.655517578125 1386.1641845703125 1422.064453125 1465.7022705078125 1525.8094482421875 1565.498779296875 1582.751953125 1596.2366943359375 1607.15283203125 1629.70751953125 1654.6868896484375 1652.8868408203125 1625.3831787109375 1602.65869140625 1596.99267578125 1599.0302734375 1607.4832763671875 1617.778076171875 1613.512451171875 1591.625244140625 1538.831787109375 1476.8753662109375 1420.5882568359375 1372.8768310546875 1361.7423095703125 1399.7335205078125 1450.7972412109375 1475.126953125 1452.385986328125 1414.3013916015625 1384.7862548828125 1361.52001953125 1345.626220703125 1327.85205078125 1312.8658447265625 1296.876708984375 1268.4857177734375 1249.9344482421875 1263.2664794921875 1282.0667724609375 1293.9915771484375 1308.435302734375 1337.205810546875 1382.5130615234375 1429.595458984375 1473.1412353515625 1499.014404296875 1504.0792236328125 1504.9771728515625 1513.0423583984375 1531.380126953125 1558.5576171875 1588.499755859375 1625.2822265625 1663.037109375 1699.790771484375 1733.325927734375 1763.6383056640625 1794.879638671875 1814.745361328125 1818.5584716796875 1818.21337890625 1823.0667724609375 1836.0123291015625 1860.3514404296875 1885.924072265625 1905.921142578125 1913.5411376953125 1894.5150146484375 1853.047119140625 1815.1259765625 1791.576416015625 1780.5703125 1769.40283203125 1755.0899658203125 1736.9586181640625 1717.1820068359375 1695.4429931640625 1666.8743896484375 1637.1796875 1608.4346923828125 1587.5479736328125 1563.6014404296875 1537.1473388671875 1508.0301513671875 1476.9840087890625 1442.46435546875 1401.8209228515625 1357.9822998046875 
1436.0074462890625 1443.78271484375 1499.131591796875 1550.990234375 1557.9110107421875 1573.8653564453125 1608.9698486328125 1620.025634765625 1635.1910400390625 1650.2958984375 1682.4849853515625 1719.37060546875 1741.9512939453125 1754.269775390625 1784.0596923828125 1838.4219970703125 1863.7008056640625 1861.00341796875 1849.6591796875 1827.9410400390625 1814.8409423828125 1819.436279296875 1802.0404052734375 1767.7099609375 1719.5482177734375 1673.242431640625 1627.1845703125 1586.541259765625 1540.163330078125 1486.1387939453125 1422.5977783203125 1354.8331298828125 1289.7220458984375 1223.927978515625 1168.498291015625 1111.3367919921875 1048.0677490234375 989.72430419921875 938.65716552734375 881.98651123046875 818.56671142578125 744.7103271484375 658.76123046875 556.42724609375 471.07940673828125 420.55474853515625 382.72528076171875 344.907989501953125 310.472381591796875 286.60357666015625 271.853546142578125 245.9355316162109375 216.7428131103515625 178.6774749755859375 146.5667266845703125 164.4188385009765625 191.12628173828125 201.5738372802734375 214.26324462890625 233.236480712890625 262.085968017578125 288.665191650390625 321.472686767578125 349.883056640625 357.285125732421875 372.574127197265625 400.45794677734375 457.315948486328125 502.4658203125 530.16015625 566.044921875 594.2740478515625 619.0626220703125 642.74725341796875 671.76068115234375 728.76300048828125 803.92987060546875 866.95379638671875 914.219482421875 959.3375244140625 1015.12030029296875 1063.12353515625 1107.8387451171875 1175.0283203125 1241.7337646484375 1303.55810546875 1355.134033203125 1390.0928955078125 1426.9996337890625 1465.9254150390625 1512.9561767578125 1564.185302734375 1586.853759765625 1602.298095703125 1614.9947509765625 1633.5296630859375 1651.2437744140625 1653.4918212890625 1631.677001953125 1610.735595703125 1608.754638671875 1616.163330078125 1628.9200439453125 1634.6231689453125 1616.2686767578125 1588.3895263671875 1546.7813720703125 1494.294189453125 1441.4366455078125 1401.114501953125 1386.601318359375 1418.3489990234375 1470.313232421875 1509.56787109375 1498.4146728515625 1466.0263671875 1437.367919921875 1420.75634765625 1400.9368896484375 1373.0777587890625 1357.3153076171875 1340.226318359375 1314.9588623046875 1284.38427734375 1264.0052490234375 1268.7979736328125 1279.96923828125 1294.155029296875 1318.7032470703125 1363.3209228515625 1415.94091796875 1467.8941650390625 1505.5750732421875 1515.52392578125 1515.9013671875 1517.204345703125 1530.8223876953125 1546.607666015625 1564.3974609375 1592.2420654296875 1625.786865234375 1661.2008056640625 1694.195556640625 1727.4854736328125 1762.5986328125 1791.7490234375 1804.8907470703125 1809.7901611328125 1818.4217529296875 1834.6510009765625 1859.48876953125 1887.348876953125 1914.4677734375 1923.919189453125 1893.952880859375 1838.544921875 1797.19189453125 1774.044189453125 1761.66357421875 1749.3177490234375 1733.1103515625 1721.9718017578125 1707.2576904296875 1689.345458984375 1662.0313720703125 1632.825927734375 1605.3856201171875 1586.3804931640625 1563.3302001953125 1535.1339111328125 1505.44482421875 1475.2557373046875 1439.21240234375 1394.3607177734375 1351.6451416015625 
1369.7579345703125 1391.89990234375 1451.0091552734375 1488.9144287109375 1495.83984375 1525.8087158203125 1554.89208984375 1554.6236572265625 1572.522705078125 1580.783447265625 1608.5693359375 1642.4420166015625 1672.808349609375 1702.11572265625 1750.0009765625 1821.531494140625 1857.5955810546875 1863.2210693359375 1848.6038818359375 1818.26904296875 1793.1124267578125 1803.5145263671875 1785.178466796875 1749.9671630859375 1704.7027587890625 1656.8115234375 1615.0784912109375 1575.97314453125 1535.3387451171875 1489.439453125 1424.865234375 1360.9093017578125 1299.7459716796875 1238.7908935546875 1178.8350830078125 1117.7021484375 1058.09521484375 1001.49237060546875 947.8997802734375 894.94476318359375 842.55340576171875 778.3983154296875 697.76898193359375 603.681396484375 498.97442626953125 435.20794677734375 395.93170166015625 361.3896484375 326.039886474609375 289.91986083984375 277.358154296875 262.950042724609375 242.5830535888671875 203.993438720703125 162.0869598388671875 145.6425933837890625 162.2740478515625 182.3270416259765625 203.541961669921875 221.2110748291015625 242.480224609375 263.49896240234375 287.54180908203125 317.57098388671875 330.0806884765625 343.91656494140625 375.421417236328125 427.5751953125 476.5849609375 504.166046142578125 536.36572265625 563.076171875 586.468505859375 618.589111328125 654.55010986328125 709.8897705078125 786.10162353515625 856.0875244140625 901.58367919921875 937.837646484375 989.70562744140625 1046.448974609375 1093.8812255859375 1158.9755859375 1231.3905029296875 1287.8970947265625 1348.4722900390625 1391.5853271484375 1429.2161865234375 1469.0194091796875 1503.5291748046875 1543.4259033203125 1575.10791015625 1597.513427734375 1620.5975341796875 1640.7979736328125 1652.59765625 1649.6773681640625 1637.75146484375 1627.039306640625 1630.0545654296875 1638.8883056640625 1651.222900390625 1647.8604736328125 1624.594482421875 1589.8583984375 1550.8548583984375 1507.60791015625 1458.3443603515625 1421.1436767578125 1408.5123291015625 1432.941650390625 1485.535400390625 1540.1429443359375 1550.979248046875 1530.73193359375 1503.2994384765625 1480.8602294921875 1450.3992919921875 1421.7484130859375 1404.2216796875 1378.6490478515625 1351.6650390625 1320.726806640625 1285.864501953125 1267.1983642578125 1270.8424072265625 1282.5570068359375 1304.708251953125 1347.47265625 1403.66943359375 1461.1839599609375 1509.7371826171875 1527.8111572265625 1530.6295166015625 1530.350830078125 1542.497802734375 1550.3958740234375 1561.3802490234375 1582.355712890625 1605.57177734375 1633.828857421875 1662.1290283203125 1692.812744140625 1728.350830078125 1763.6591796875 1788.4906005859375 1801.0289306640625 1813.151123046875 1831.6759033203125 1857.4300537109375 1887.748046875 1923.192626953125 1935.3873291015625 1907.7152099609375 1846.7889404296875 1797.060302734375 1775.4779052734375 1760.8570556640625 1748.0308837890625 1727.706787109375 1715.5086669921875 1704.9503173828125 1683.019775390625 1654.806884765625 1628.8974609375 1605.0162353515625 1581.813720703125 1556.8953857421875 1530.1151123046875 1500.1385498046875 1468.1240234375 1431.8663330078125 1386.349365234375 1339.3514404296875 
1316.5989990234375 1358.7940673828125 1403.4749755859375 1422.9676513671875 1435.625732421875 1478.14892578125 1489.834716796875 1482.61328125 1499.91552734375 1506.328369140625 1531.32373046875 1556.658447265625 1616.556884765625 1691.2974853515625 1749.7099609375 1813.953369140625 1848.814697265625 1850.904052734375 1825.6944580078125 1791.92724609375 1766.72509765625 1780.6011962890625 1767.79345703125 1732.2694091796875 1687.667724609375 1642.8099365234375 1600.66162109375 1558.7109375 1522.8992919921875 1483.270263671875 1427.8553466796875 1371.163330078125 1311.7674560546875 1253.111328125 1193.4154052734375 1132.0673828125 1069.66259765625 1010.24884033203125 954.19207763671875 905.0509033203125 857.2117919921875 805.2828369140625 736.04718017578125 649.1463623046875 549.129638671875 470.10595703125 420.0369873046875 385.0155029296875 345.536895751953125 298.444610595703125 277.6497802734375 266.16485595703125 256.774169921875 234.092010498046875 192.702423095703125 148.401153564453125 136.6573486328125 153.356414794921875 180.7431182861328125 198.4930267333984375 210.71923828125 229.07611083984375 252.8771820068359375 280.49462890625 299.49847412109375 319.82257080078125 354.144195556640625 404.193328857421875 447.852142333984375 474.594573974609375 506.162109375 531.45355224609375 554.01788330078125 590.82342529296875 635.80633544921875 692.9185791015625 774.73944091796875 849.96075439453125 891.3826904296875 921.73065185546875 958.34771728515625 1020.3890380859375 1080.75390625 1144.6181640625 1213.3250732421875 1268.1688232421875 1330.80419921875 1390.7451171875 1430.8648681640625 1466.3582763671875 1493.7177734375 1518.50634765625 1552.9306640625 1589.4560546875 1618.2628173828125 1641.514404296875 1654.1796875 1655.9559326171875 1658.49462890625 1659.256103515625 1659.96533203125 1671.9317626953125 1680.9637451171875 1667.2506103515625 1637.7860107421875 1598.89697265625 1559.4227294921875 1517.783203125 1471.09814453125 1435.3248291015625 1426.3419189453125 1454.3843994140625 1506.52197265625 1564.3807373046875 1601.142822265625 1600.0087890625 1569.684326171875 1530.5623779296875 1493.2822265625 1461.970703125 1439.6219482421875 1412.0972900390625 1384.3834228515625 1354.2928466796875 1315.493896484375 1281.5340576171875 1269.63037109375 1276.94189453125 1296.310791015625 1332.4599609375 1382.2220458984375 1443.306884765625 1500.8624267578125 1540.5792236328125 1557.0672607421875 1553.9898681640625 1560.06494140625 1561.998779296875 1567.8931884765625 1583.9637451171875 1602.979248046875 1625.380126953125 1651.095458984375 1676.9718017578125 1710.7823486328125 1745.98681640625 1770.7947998046875 1786.5936279296875 1804.2987060546875 1825.8804931640625 1854.0823974609375 1887.669189453125 1922.864501953125 1937.621337890625 1922.91796875 1872.233154296875 1816.392578125 1789.865966796875 1777.2027587890625 1763.0391845703125 1741.399169921875 1726.794677734375 1715.7720947265625 1690.8089599609375 1659.0521240234375 1633.8685302734375 1606.4178466796875 1580.6427001953125 1555.9022216796875 1530.0721435546875 1499.841064453125 1468.4725341796875 1430.028076171875 1387.32568359375 1351.44677734375 
1263.2686767578125 1322.6317138671875 1358.9345703125 1363.86572265625 1387.9945068359375 1420.517578125 1423.6649169921875 1411.838134765625 1423.96240234375 1430.3453369140625 1454.1129150390625 1493.346923828125 1578.197021484375 1699.40625 1770.120361328125 1811.10888671875 1826.2705078125 1812.44775390625 1771.8046875 1737.6741943359375 1715.946533203125 1725.9169921875 1736.6177978515625 1710.2183837890625 1668.2974853515625 1623.205322265625 1577.046142578125 1534.7945556640625 1504.7425537109375 1473.7906494140625 1434.8388671875 1390.4691162109375 1334.38037109375 1274.0665283203125 1212.9559326171875 1153.670654296875 1089.7564697265625 1029.9041748046875 972.23590087890625 920.99151611328125 874.9189453125 824.73175048828125 765.35516357421875 682.05859375 591.614013671875 508.65032958984375 440.00384521484375 395.7498779296875 355.77783203125 312.550384521484375 282.168548583984375 261.91912841796875 256.888153076171875 264.29364013671875 238.9369964599609375 190.874114990234375 149.7541656494140625 135.8957366943359375 150.204559326171875 165.2309722900390625 174.2376861572265625 189.0306243896484375 216.0436859130859375 241.76214599609375 267.10015869140625 304.33197021484375 342.292724609375 384.0887451171875 418.732879638671875 446.111419677734375 476.825531005859375 500.76446533203125 524.6514892578125 565.61187744140625 616.2584228515625 678.74847412109375 761.8212890625 837.42803955078125 880.3076171875 909.25421142578125 937.71533203125 993.23724365234375 1064.6414794921875 1130.8555908203125 1195.718017578125 1251.8643798828125 1313.8944091796875 1385.3486328125 1430.4217529296875 1459.3587646484375 1486.496337890625 1511.018310546875 1539.435791015625 1573.79736328125 1603.1488037109375 1631.040771484375 1658.1900634765625 1675.050048828125 1690.3673095703125 1711.3590087890625 1720.1385498046875 1721.56982421875 1708.62890625 1687.0047607421875 1661.33056640625 1617.1822509765625 1568.4180908203125 1526.4820556640625 1483.475830078125 1450.8614501953125 1445.109130859375 1478.5322265625 1531.0206298828125 1587.1407470703125 1639.098388671875 1656.8336181640625 1627.9459228515625 1579.0980224609375 1532.8258056640625 1492.380126953125 1464.9117431640625 1437.681640625 1414.1131591796875 1389.601806640625 1347.011962890625 1301.5748291015625 1275.8909912109375 1275.798095703125 1291.0369873046875 1319.5338134765625 1364.4041748046875 1421.126953125 1483.31396484375 1533.79296875 1576.5499267578125 1583.7523193359375 1581.12939453125 1581.7701416015625 1582.1998291015625 1586.1708984375 1599.30810546875 1619.711181640625 1643.159423828125 1666.501220703125 1700.1373291015625 1729.4932861328125 1751.5177001953125 1770.78759765625 1791.1497802734375 1815.14697265625 1847.263671875 1884.192626953125 1918.4940185546875 1934.9000244140625 1924.41015625 1886.2532958984375 1841.33740234375 1815.7607421875 1800.5213623046875 1778.872802734375 1757.4808349609375 1739.749755859375 1722.5843505859375 1693.8253173828125 1659.781005859375 1629.5140380859375 1601.2364501953125 1578.00341796875 1552.8756103515625 1528.71044921875 1498.1527099609375 1463.221435546875 1426.3052978515625 1385.2073974609375 1351.5179443359375 
1218.2520751953125 1272.005859375 1303.6798095703125 1307.0379638671875 1328.3839111328125 1344.685546875 1342.51416015625 1341.7513427734375 1353.4954833984375 1362.9617919921875 1395.663330078125 1472.5760498046875 1587.9295654296875 1699.4803466796875 1759.9727783203125 1782.74658203125 1776.2509765625 1748.2611083984375 1707.0107421875 1663.8770751953125 1626.3861083984375 1646.4600830078125 1686.793212890625 1674.58251953125 1642.016845703125 1598.1865234375 1552.4996337890625 1512.503662109375 1483.4384765625 1463.4652099609375 1435.787841796875 1402.0987548828125 1349.8443603515625 1291.1666259765625 1229.84375 1172.1417236328125 1112.4100341796875 1054.2843017578125 1001.362548828125 945.55792236328125 892.19287109375 837.46356201171875 774.802734375 699.1524658203125 619.35589599609375 540.52667236328125 467.9874267578125 415.998138427734375 380.401336669921875 334.740631103515625 291.665496826171875 259.7945556640625 255.997711181640625 287.252410888671875 281.4105224609375 232.3499908447265625 172.5970916748046875 137.831634521484375 134.3616943359375 140.3909912109375 143.5995941162109375 160.7072906494140625 185.9330596923828125 213.8120880126953125 238.511199951171875 287.441741943359375 325.693023681640625 357.434600830078125 390.568206787109375 422.376312255859375 450.076873779296875 480.07891845703125 505.6383056640625 546.6439208984375 611.51055908203125 672.55987548828125 749.31591796875 817.486083984375 866.41864013671875 896.2222900390625 924.55908203125 975.96807861328125 1047.3897705078125 1106.688232421875 1175.2122802734375 1236.099609375 1293.2183837890625 1364.7183837890625 1429.8824462890625 1459.5081787109375 1482.410888671875 1509.8170166015625 1540.39892578125 1562.313720703125 1581.465576171875 1614.978515625 1661.246337890625 1690.6534423828125 1707.6536865234375 1742.85400390625 1767.880126953125 1759.97900390625 1731.61083984375 1707.674560546875 1682.2476806640625 1639.9923095703125 1584.210205078125 1533.3572998046875 1493.622314453125 1467.7098388671875 1472.6070556640625 1508.53759765625 1557.7568359375 1606.238525390625 1650.609619140625 1678.3482666015625 1662.18359375 1613.781982421875 1558.1002197265625 1512.05908203125 1480.3668212890625 1454.47607421875 1438.051513671875 1422.62451171875 1380.56494140625 1323.251708984375 1286.3128662109375 1275.5328369140625 1288.2037353515625 1310.9248046875 1344.263427734375 1395.241455078125 1457.8636474609375 1513.21875 1566.942626953125 1607.2911376953125 1614.84033203125 1609.5269775390625 1602.1754150390625 1594.25244140625 1598.0635986328125 1612.807861328125 1629.9658203125 1652.0302734375 1681.6600341796875 1708.3056640625 1729.9056396484375 1751.2359619140625 1775.3582763671875 1802.7978515625 1832.3975830078125 1871.925537109375 1910.8974609375 1929.481201171875 1923.4581298828125 1896.68603515625 1860.27392578125 1838.097900390625 1822.61328125 1800.10205078125 1771.8160400390625 1745.41845703125 1717.010009765625 1676.942626953125 1639.079833984375 1608.2353515625 1580.23828125 1554.943359375 1528.979736328125 1503.760009765625 1475.5096435546875 1445.039794921875 1413.788330078125 1377.1680908203125 1345.2276611328125 
1147.6614990234375 1191.553466796875 1229.151123046875 1248.5406494140625 1254.87353515625 1251.1746826171875 1262.546630859375 1277.3310546875 1291.5838623046875 1315.623046875 1381.8043212890625 1497.97021484375 1607.4222412109375 1666.966796875 1703.9847412109375 1722.5989990234375 1700.1778564453125 1678.426513671875 1642.525390625 1598.975830078125 1528.2822265625 1543.9864501953125 1602.9388427734375 1609.0460205078125 1597.982421875 1567.653564453125 1528.7042236328125 1485.782470703125 1454.369873046875 1439.9949951171875 1422.4713134765625 1401.7091064453125 1355.39599609375 1294.3258056640625 1238.1083984375 1184.4638671875 1126.8157958984375 1072.6177978515625 1020.4815673828125 961.8280029296875 900.8160400390625 839.79119873046875 778.03094482421875 719.50115966796875 656.47747802734375 580.32879638671875 505.346771240234375 445.9937744140625 403.868682861328125 354.050262451171875 298.625274658203125 262.441864013671875 259.075286865234375 295.8760986328125 318.12701416015625 274.364471435546875 203.5120391845703125 150.9376068115234375 132.35150146484375 135.0353240966796875 130.4834442138671875 139.852630615234375 169.0850982666015625 196.101043701171875 229.651275634765625 282.22174072265625 321.06329345703125 348.170928955078125 378.151611328125 408.734710693359375 435.586273193359375 468.283203125 492.795501708984375 537.956298828125 614.73492431640625 680.63775634765625 748.656005859375 803.76092529296875 853.28717041015625 886.0181884765625 912.98846435546875 964.29730224609375 1028.5185546875 1083.5537109375 1146.5316162109375 1212.187255859375 1265.2249755859375 1337.9400634765625 1417.924072265625 1458.2174072265625 1478.272216796875 1502.7431640625 1535.3306884765625 1560.7410888671875 1577.836669921875 1602.383544921875 1648.470703125 1686.5037841796875 1711.9027099609375 1744.7056884765625 1777.047119140625 1781.51318359375 1752.69482421875 1725.478515625 1694.9512939453125 1653.4503173828125 1597.1427001953125 1543.38916015625 1501.8243408203125 1482.4952392578125 1500.6087646484375 1537.267333984375 1579.20556640625 1619.7130126953125 1658.6566162109375 1689.28076171875 1683.10791015625 1631.548095703125 1568.518310546875 1523.94482421875 1488.1390380859375 1470.983642578125 1470.1640625 1457.4732666015625 1413.359375 1351.5225830078125 1305.995361328125 1285.4833984375 1286.8623046875 1304.1512451171875 1330.6375732421875 1372.67041015625 1431.2916259765625 1486.5079345703125 1540.5355224609375 1602.4503173828125 1643.4395751953125 1645.9202880859375 1629.236328125 1613.7142333984375 1614.4481201171875 1627.7589111328125 1633.3216552734375 1645.95263671875 1670.38916015625 1690.656982421875 1707.086669921875 1730.866455078125 1757.1480712890625 1785.3770751953125 1814.68798828125 1855.4498291015625 1897.7999267578125 1919.7286376953125 1922.5565185546875 1907.88623046875 1877.8419189453125 1859.8568115234375 1842.0020751953125 1815.3353271484375 1782.4276123046875 1741.3880615234375 1698.9710693359375 1652.733154296875 1607.609619140625 1572.7794189453125 1543.400390625 1517.977294921875 1487.9635009765625 1461.1031494140625 1435.7923583984375 1409.981201171875 1382.46826171875 1355.50732421875 1332.5008544921875 
1068.551025390625 1099.6990966796875 1155.791748046875 1206.72705078125 1191.34619140625 1167.169677734375 1197.269775390625 1226.6151123046875 1232.85546875 1283.0931396484375 1384.5491943359375 1519.4522705078125 1572.6627197265625 1587.6453857421875 1630.9588623046875 1664.4302978515625 1639.399658203125 1599.806640625 1571.2127685546875 1531.1348876953125 1452.9844970703125 1471.6497802734375 1520.009521484375 1525.542236328125 1536.11572265625 1529.8978271484375 1493.9608154296875 1451.6278076171875 1421.161376953125 1406.92578125 1391.1658935546875 1380.5509033203125 1354.5765380859375 1301.0042724609375 1243.4581298828125 1189.5357666015625 1139.5838623046875 1091.0928955078125 1039.0107421875 983.85986328125 923.1884765625 862.2579345703125 803.93267822265625 757.53570556640625 690.1552734375 608.51959228515625 526.076904296875 458.611419677734375 406.37884521484375 354.68548583984375 296.758056640625 266.860595703125 266.966033935546875 305.995361328125 338.217864990234375 312.32183837890625 256.901397705078125 204.7087554931640625 172.8737030029296875 143.67901611328125 127.70796966552734375 126.69414520263671875 148.3256683349609375 181.135772705078125 221.2912139892578125 270.946380615234375 320.78662109375 352.973663330078125 379.002655029296875 404.131866455078125 436.50970458984375 471.752685546875 496.45257568359375 545.26318359375 618.4412841796875 686.03265380859375 753.2947998046875 796.415283203125 842.672607421875 883.30499267578125 905.919189453125 952.33001708984375 1009.372802734375 1058.3310546875 1119.8519287109375 1185.484375 1240.91357421875 1313.9521484375 1396.2445068359375 1442.562255859375 1468.7647705078125 1490.0821533203125 1513.769287109375 1546.320068359375 1578.251953125 1601.4588623046875 1633.7952880859375 1671.0208740234375 1705.3399658203125 1738.351318359375 1780.3619384765625 1798.137451171875 1775.41748046875 1739.717529296875 1704.7957763671875 1660.6710205078125 1606.1331787109375 1553.32763671875 1510.985595703125 1493.1639404296875 1514.778564453125 1549.7218017578125 1590.4761962890625 1630.5302734375 1672.247314453125 1703.1485595703125 1696.142822265625 1636.3291015625 1576.6103515625 1541.4384765625 1506.961669921875 1498.8157958984375 1515.8992919921875 1495.6766357421875 1443.114990234375 1379.8043212890625 1329.9427490234375 1301.846923828125 1295.9935302734375 1302.360595703125 1324.3497314453125 1358.090576171875 1406.4154052734375 1460.837890625 1513.568603515625 1576.3973388671875 1635.4071044921875 1665.600830078125 1658.2515869140625 1637.9002685546875 1640.1070556640625 1655.815185546875 1655.8453369140625 1653.167724609375 1665.2412109375 1678.3741455078125 1692.012939453125 1711.7457275390625 1739.006591796875 1767.406982421875 1794.974365234375 1832.1650390625 1875.25048828125 1904.9892578125 1914.1588134765625 1905.404296875 1878.873779296875 1858.7667236328125 1840.576904296875 1811.5966796875 1772.6953125 1724.9366455078125 1684.90185546875 1648.1416015625 1612.5123291015625 1587.1988525390625 1565.4588623046875 1542.3206787109375 1507.8695068359375 1474.591064453125 1447.0511474609375 1422.843505859375 1390.2742919921875 1359.3551025390625 1330.881591796875 
983.61004638671875 1019.86224365234375 1086.4609375 1134.50732421875 1108.664306640625 1092.8236083984375 1136.23095703125 1173.5040283203125 1211.353515625 1295.314208984375 1388.628662109375 1490.093017578125 1510.5009765625 1516.819580078125 1563.8316650390625 1602.051513671875 1587.2965087890625 1538.871337890625 1506.846923828125 1469.7896728515625 1398.89453125 1395.0960693359375 1441.7938232421875 1447.9010009765625 1473.999755859375 1479.232666015625 1450.458740234375 1413.0816650390625 1382.059814453125 1371.1856689453125 1353.5657958984375 1317.36279296875 1329.34033203125 1300.1260986328125 1249.0057373046875 1198.08740234375 1160.105224609375 1123.4305419921875 1072.0421142578125 1015.34326171875 959.93359375 899.00274658203125 833.42303466796875 776.14202880859375 701.70379638671875 616.89678955078125 522.3167724609375 454.865081787109375 403.675750732421875 349.924652099609375 291.801788330078125 268.52490234375 270.82781982421875 311.0860595703125 345.059478759765625 330.796051025390625 296.058929443359375 266.0478515625 231.7513580322265625 187.5211029052734375 146.8913116455078125 128.51983642578125 131.34039306640625 167.7703094482421875 211.399627685546875 269.477325439453125 325.616302490234375 355.083099365234375 374.515655517578125 397.06854248046875 432.923614501953125 473.452423095703125 506.9281005859375 548.9478759765625 608.6729736328125 674.24566650390625 745.24456787109375 789.18511962890625 829.41033935546875 875.7449951171875 901.3839111328125 940.76922607421875 997.11328125 1043.9466552734375 1106.260986328125 1167.270263671875 1223.770263671875 1294.056884765625 1377.065185546875 1417.6353759765625 1441.77001953125 1466.58837890625 1482.819580078125 1517.7120361328125 1558.99462890625 1594.8311767578125 1622.96826171875 1656.90869140625 1693.0889892578125 1732.4052734375 1783.4234619140625 1811.35498046875 1797.1278076171875 1753.8741455078125 1710.6370849609375 1667.2322998046875 1615.199951171875 1563.0533447265625 1521.2882080078125 1503.9627685546875 1523.0380859375 1557.6123046875 1598.9091796875 1641.576904296875 1684.17041015625 1713.7467041015625 1699.6021728515625 1637.043701171875 1587.5340576171875 1567.849365234375 1546.6788330078125 1548.1871337890625 1556.9954833984375 1522.0841064453125 1468.86865234375 1404.0665283203125 1351.0830078125 1316.8917236328125 1301.6181640625 1303.328857421875 1319.48486328125 1347.749267578125 1391.433837890625 1440.6798095703125 1487.141357421875 1545.9168701171875 1609.2901611328125 1662.708251953125 1684.8887939453125 1667.32958984375 1665.2567138671875 1675.13427734375 1676.204833984375 1672.351318359375 1672.751220703125 1676.2410888671875 1685.0399169921875 1699.5406494140625 1723.59228515625 1751.296630859375 1778.0546875 1813.4251708984375 1853.6759033203125 1887.302490234375 1902.972900390625 1895.062744140625 1866.6790771484375 1839.78173828125 1821.3214111328125 1798.9306640625 1760.2520751953125 1716.7537841796875 1687.950439453125 1667.3043212890625 1640.8392333984375 1618.8876953125 1597.5384521484375 1573.87353515625 1546.6561279296875 1518.7117919921875 1483.656982421875 1448.2193603515625 1409.935791015625 1370.046630859375 1336.9722900390625 
899.3115234375 953.48779296875 1019.48681640625 1047.32080078125 1030.5455322265625 1035.497314453125 1081.2384033203125 1157.3687744140625 1248.50341796875 1348.7481689453125 1406.948974609375 1425.48779296875 1426.80517578125 1468.7900390625 1522.362060546875 1537.66259765625 1529.3231201171875 1471.8597412109375 1438.9686279296875 1401.41650390625 1333.8175048828125 1321.1978759765625 1363.26025390625 1377.1961669921875 1412.3778076171875 1413.5072021484375 1392.2720947265625 1364.72314453125 1331.9110107421875 1325.5604248046875 1306.24658203125 1238.614501953125 1265.6651611328125 1262.87255859375 1217.8712158203125 1178.95068359375 1168.3858642578125 1149.3201904296875 1103.83154296875 1044.6629638671875 982.70660400390625 919.18182373046875 857.491455078125 794.22613525390625 715.4583740234375 622.764892578125 528.77978515625 455.8851318359375 406.358245849609375 353.43096923828125 293.372406005859375 269.51507568359375 271.307403564453125 315.85137939453125 352.696533203125 353.431488037109375 339.430572509765625 318.62347412109375 278.689605712890625 232.5478668212890625 188.5236358642578125 143.7283172607421875 127.74884796142578125 154.392425537109375 200.1490325927734375 251.2822113037109375 300.2601318359375 329.880615234375 353.87811279296875 383.819549560546875 424.09619140625 465.4400634765625 502.947296142578125 541.6444091796875 590.9542236328125 656.223388671875 730.09649658203125 781.5462646484375 819.30999755859375 867.176513671875 896.5557861328125 932.96478271484375 985.85760498046875 1036.6728515625 1094.3822021484375 1160.1920166015625 1217.09228515625 1286.5443115234375 1359.733154296875 1388.60888671875 1401.0560302734375 1420.8497314453125 1441.2110595703125 1476.2232666015625 1526.15966796875 1579.0360107421875 1621.702392578125 1655.07177734375 1687.3023681640625 1733.9290771484375 1782.7392578125 1817.5279541015625 1815.3397216796875 1775.9200439453125 1723.88037109375 1673.9539794921875 1623.228759765625 1574.0408935546875 1535.7994384765625 1521.3194580078125 1536.65771484375 1566.8321533203125 1608.955078125 1652.2266845703125 1689.7269287109375 1717.31884765625 1699.5771484375 1641.6773681640625 1602.9454345703125 1594.48681640625 1596.9779052734375 1603.9654541015625 1584.92236328125 1541.263671875 1491.5428466796875 1430.045654296875 1372.12939453125 1331.1280517578125 1308.3582763671875 1306.921875 1315.233642578125 1339.1173095703125 1379.493408203125 1425.3123779296875 1465.0185546875 1517.451171875 1585.073486328125 1649.7830810546875 1698.6793212890625 1697.2392578125 1688.22119140625 1688.3154296875 1687.7574462890625 1684.7222900390625 1683.7784423828125 1681.0997314453125 1680.28271484375 1689.9974365234375 1710.694580078125 1737.4674072265625 1761.6102294921875 1795.0810546875 1832.727294921875 1868.639892578125 1888.3204345703125 1876.3583984375 1838.6031494140625 1806.038818359375 1794.1312255859375 1782.899658203125 1754.3753662109375 1723.629638671875 1700.0108642578125 1675.4844970703125 1647.36865234375 1625.71923828125 1603.3006591796875 1577.267578125 1552.9775390625 1523.0911865234375 1481.7242431640625 1441.95849609375 1404.0892333984375 1366.5220947265625 1333.1343994140625 
831.51312255859375 885.10235595703125 934.79638671875 954.15008544921875 961.525146484375 1001.99737548828125 1083.51025390625 1194.1407470703125 1279.04541015625 1339.165771484375 1353.701416015625 1344.0906982421875 1366.6829833984375 1433.563232421875 1472.648681640625 1468.255859375 1466.154541015625 1421.18408203125 1373.733154296875 1333.618896484375 1259.7984619140625 1249.302001953125 1290.8677978515625 1312.2789306640625 1345.322021484375 1342.7161865234375 1328.343994140625 1307.6781005859375 1277.6898193359375 1266.0609130859375 1245.375244140625 1168.43994140625 1197.3309326171875 1194.0147705078125 1137.359130859375 1130.425537109375 1146.66064453125 1150.42626953125 1120.665771484375 1061.73583984375 1002.56768798828125 940.241455078125 876.6619873046875 814.71942138671875 740.78753662109375 646.51873779296875 559.985595703125 473.851043701171875 409.6690673828125 354.388671875 294.71221923828125 269.666839599609375 270.810028076171875 314.70098876953125 353.67730712890625 373.75885009765625 378.813385009765625 348.558868408203125 301.07440185546875 256.10980224609375 211.3697357177734375 159.816253662109375 129.785552978515625 144.3462066650390625 184.3963775634765625 221.998291015625 256.3946533203125 292.7958984375 328.192901611328125 369.239013671875 418.40643310546875 457.37188720703125 494.82080078125 538.47027587890625 579.63250732421875 634.0552978515625 710.92529296875 772.435546875 814.16876220703125 859.20831298828125 889.66253662109375 922.567626953125 968.90234375 1024.5784912109375 1082.9979248046875 1155.90185546875 1214.62353515625 1270.8270263671875 1323.1138916015625 1343.7706298828125 1347.6541748046875 1365.669677734375 1397.0986328125 1438.9490966796875 1501.2860107421875 1572.8021240234375 1628.0369873046875 1665.6285400390625 1698.7708740234375 1737.9794921875 1771.5570068359375 1805.2840576171875 1816.4019775390625 1789.565185546875 1735.4044189453125 1679.3427734375 1631.665771484375 1590.3599853515625 1555.783935546875 1544.6448974609375 1555.44140625 1582.5390625 1626.9273681640625 1670.674560546875 1704.3521728515625 1728.804443359375 1696.569580078125 1641.3643798828125 1610.57568359375 1613.2008056640625 1638.4788818359375 1632.5650634765625 1597.701904296875 1558.298828125 1515.3817138671875 1460.2034912109375 1401.492919921875 1350.6121826171875 1318.61572265625 1308.4837646484375 1311.5223388671875 1331.4581298828125 1366.4598388671875 1409.357421875 1449.64453125 1494.4730224609375 1557.010498046875 1628.7252197265625 1693.5867919921875 1720.427978515625 1707.5916748046875 1702.4630126953125 1699.640380859375 1698.2598876953125 1694.2039794921875 1687.736328125 1681.0108642578125 1683.3890380859375 1700.3739013671875 1723.0350341796875 1747.40771484375 1777.208740234375 1812.427001953125 1850.0225830078125 1875.4085693359375 1860.2437744140625 1813.29296875 1775.5853271484375 1763.9742431640625 1759.2528076171875 1739.69091796875 1716.4434814453125 1696.213623046875 1672.58056640625 1649.7020263671875 1629.2415771484375 1604.6761474609375 1577.0338134765625 1551.1962890625 1521.8072509765625 1484.84228515625 1444.383056640625 1399.58544921875 1362.82861328125 1326.1455078125 
783.48779296875 818.18212890625 856.06170654296875 882.1630859375 916.8367919921875 983.58575439453125 1080.0283203125 1185.69580078125 1240.187744140625 1287.144775390625 1273.976806640625 1283.0206298828125 1345.41259765625 1402.8724365234375 1413.7734375 1400.606201171875 1418.58447265625 1399.6595458984375 1332.6776123046875 1280.8924560546875 1193.48876953125 1163.7137451171875 1217.859375 1248.28857421875 1279.2384033203125 1271.6212158203125 1258.7996826171875 1243.5052490234375 1221.1627197265625 1199.1881103515625 1173.0120849609375 1093.0555419921875 1103.159912109375 1084.2459716796875 1037.6832275390625 1060.131591796875 1099.9927978515625 1117.32421875 1092.2998046875 1052.66748046875 1027.64599609375 968.56915283203125 899.50714111328125 837.88922119140625 767.582763671875 685.86553955078125 593.27142333984375 503.732086181640625 413.894805908203125 346.226715087890625 292.1995849609375 273.19329833984375 273.293121337890625 302.468719482421875 332.03094482421875 364.61376953125 379.44866943359375 340.440216064453125 293.25811767578125 263.043548583984375 231.1173248291015625 173.0308074951171875 132.467254638671875 135.85345458984375 165.185333251953125 197.71929931640625 234.2170867919921875 286.41436767578125 335.49945068359375 376.91339111328125 420.844207763671875 460.873870849609375 498.117401123046875 541.587158203125 578.92431640625 622.5498046875 695.0850830078125 762.19659423828125 809.86846923828125 855.8165283203125 883.79339599609375 909.3912353515625 953.6387939453125 1007.9852294921875 1070.0443115234375 1141.7364501953125 1202.6566162109375 1238.0894775390625 1257.5267333984375 1270.553466796875 1283.62255859375 1318.1929931640625 1365.4066162109375 1419.1175537109375 1488.1329345703125 1563.6983642578125 1623.8271484375 1666.47900390625 1701.141845703125 1738.411865234375 1762.98095703125 1785.9376220703125 1805.757080078125 1788.6781005859375 1741.958984375 1683.6136474609375 1639.648193359375 1606.0770263671875 1575.653564453125 1567.9002685546875 1575.6444091796875 1599.7314453125 1650.1959228515625 1695.2823486328125 1725.46435546875 1740.93994140625 1694.124267578125 1644.62451171875 1624.56103515625 1636.8206787109375 1663.2713623046875 1639.82373046875 1601.3544921875 1566.83203125 1528.919921875 1485.0960693359375 1430.184326171875 1373.2987060546875 1332.532958984375 1312.589111328125 1311.11865234375 1327.4285888671875 1357.51953125 1395.412109375 1433.4932861328125 1476.409423828125 1530.6129150390625 1604.6387939453125 1677.6605224609375 1728.1962890625 1727.588623046875 1717.410888671875 1715.2921142578125 1712.224365234375 1705.26708984375 1696.8939208984375 1686.0673828125 1679.29931640625 1691.2872314453125 1712.0050048828125 1734.3092041015625 1762.6695556640625 1793.654541015625 1830.223876953125 1861.76806640625 1855.4337158203125 1810.8448486328125 1765.3648681640625 1747.2088623046875 1738.51904296875 1722.5853271484375 1702.8714599609375 1685.6951904296875 1664.33984375 1638.6488037109375 1612.6405029296875 1588.1895751953125 1566.9119873046875 1547.3057861328125 1518.441162109375 1482.7137451171875 1438.2005615234375 1396.5960693359375 1362.2230224609375 1331.2325439453125 
745.0911865234375 778.50555419921875 813.2177734375 837.83172607421875 889.98486328125 949.35467529296875 1012.79571533203125 1123.6510009765625 1181.9100341796875 1223.5234375 1208.9462890625 1237.617431640625 1313.5389404296875 1357.066650390625 1346.350830078125 1336.7940673828125 1372.2373046875 1361.2613525390625 1293.38671875 1237.02001953125 1141.72900390625 1083.00634765625 1142.5035400390625 1185.4769287109375 1215.911376953125 1204.2860107421875 1191.71875 1175.56982421875 1167.817138671875 1145.451904296875 1115.092041015625 1030.437255859375 1003.97222900390625 991.76861572265625 964.23809814453125 989.50152587890625 1030.637939453125 1049.548095703125 1032.4990234375 1023.39837646484375 1046.3450927734375 1004.578369140625 930.44287109375 863.249755859375 797.74407958984375 717.29705810546875 617.671875 519.3746337890625 421.477447509765625 339.79541015625 292.999786376953125 280.24200439453125 284.519744873046875 301.12908935546875 310.0025634765625 333.45458984375 345.912200927734375 314.285797119140625 284.46893310546875 262.34222412109375 234.65081787109375 175.830963134765625 126.914398193359375 127.0869140625 147.9745330810546875 186.45159912109375 232.178955078125 290.415435791015625 337.954345703125 373.671630859375 417.79095458984375 461.478271484375 503.02679443359375 546.2960205078125 586.2584228515625 626.400390625 699.7462158203125 760.2872314453125 808.1551513671875 853.05682373046875 878.46136474609375 900.69818115234375 940.7496337890625 995.51824951171875 1059.772216796875 1114.2593994140625 1162.7845458984375 1183.40380859375 1190.3736572265625 1201.6280517578125 1237.187744140625 1297.3680419921875 1353.3929443359375 1410.0628662109375 1479.9822998046875 1549.314208984375 1605.57666015625 1653.4803466796875 1696.06982421875 1726.666748046875 1749.912841796875 1770.991455078125 1784.69482421875 1776.7593994140625 1741.0810546875 1685.1446533203125 1642.707275390625 1616.1087646484375 1595.1390380859375 1587.23486328125 1595.7520751953125 1621.967041015625 1672.046875 1712.592529296875 1741.5201416015625 1747.191162109375 1695.3211669921875 1660.69091796875 1654.6044921875 1670.4404296875 1676.078857421875 1635.2637939453125 1596.006591796875 1563.5382080078125 1532.9195556640625 1500.6103515625 1456.0325927734375 1399.754150390625 1350.694091796875 1320.084228515625 1314.164794921875 1325.9613037109375 1351.62451171875 1387.9036865234375 1424.183837890625 1461.893798828125 1514.1556396484375 1579.8287353515625 1657.9847412109375 1728.6104736328125 1746.3394775390625 1743.4197998046875 1737.445068359375 1726.30712890625 1716.371337890625 1707.9571533203125 1696.2447509765625 1683.953857421875 1686.94140625 1705.6783447265625 1725.85693359375 1748.0665283203125 1775.369384765625 1809.4560546875 1845.0994873046875 1849.67626953125 1815.8701171875 1773.4735107421875 1753.5615234375 1736.659912109375 1715.0443115234375 1690.353271484375 1671.516845703125 1651.2113037109375 1619.1815185546875 1584.61572265625 1557.8856201171875 1537.452392578125 1521.5050048828125 1501.1102294921875 1468.1280517578125 1428.5091552734375 1390.6988525390625 1356.7423095703125 1330.0035400390625 
722.18365478515625 752.4412841796875 777.94329833984375 793.70269775390625 819.79876708984375 865.965576171875 909.1014404296875 979.41729736328125 1058.544189453125 1073.261474609375 1094.9478759765625 1179.841064453125 1249.1436767578125 1291.63232421875 1287.3662109375 1280.433837890625 1317.4481201171875 1308.9130859375 1250.44482421875 1183.1693115234375 1092.0052490234375 1026.864501953125 1088.021484375 1123.4970703125 1149.94384765625 1130.77490234375 1117.5755615234375 1104.17529296875 1100.901611328125 1089.121826171875 1043.1077880859375 954.0028076171875 921.4730224609375 908.64813232421875 887.69842529296875 911.4677734375 944.75238037109375 956.8734130859375 962.4825439453125 983.4971923828125 1035.79052734375 1026.0675048828125 965.6943359375 895.6763916015625 825.6357421875 735.95489501953125 630.82781982421875 522.32745361328125 420.401519775390625 344.50714111328125 306.895904541015625 289.755126953125 293.381866455078125 304.700927734375 299.572021484375 295.99774169921875 303.05975341796875 294.617828369140625 281.32171630859375 262.800506591796875 219.99774169921875 163.5298004150390625 119.72704315185546875 123.3063812255859375 143.579437255859375 181.3663330078125 223.588104248046875 273.73822021484375 316.889007568359375 358.01531982421875 413.14581298828125 463.70977783203125 506.59698486328125 549.70831298828125 598.335693359375 641.05255126953125 703.759033203125 755.89752197265625 799.85955810546875 843.5399169921875 874.368408203125 896.10272216796875 928.1734619140625 981.92083740234375 1044.335205078125 1076.9324951171875 1098.5279541015625 1110.48583984375 1123.450439453125 1157.8905029296875 1222.6549072265625 1296.9986572265625 1363.2166748046875 1420.351806640625 1482.4825439453125 1542.5125732421875 1594.466552734375 1645.6500244140625 1688.1387939453125 1716.895263671875 1737.720947265625 1759.498779296875 1767.4891357421875 1763.83935546875 1741.4578857421875 1693.5130615234375 1649.2156982421875 1629.605224609375 1614.8892822265625 1602.1533203125 1614.24755859375 1647.78857421875 1694.577880859375 1727.52392578125 1757.4423828125 1759.9053955078125 1705 1678.9774169921875 1683.3248291015625 1699.15576171875 1681.1036376953125 1625.3143310546875 1580.8773193359375 1551.606689453125 1526.978271484375 1504.55029296875 1474.139892578125 1425.12353515625 1370.2581787109375 1328.115966796875 1316.8160400390625 1322.5953369140625 1343.484375 1374.061767578125 1406.9033203125 1442.835693359375 1490.4849853515625 1557.5242919921875 1637.9434814453125 1714.09716796875 1761.4962158203125 1784.39892578125 1769.156494140625 1743.690673828125 1728.894775390625 1720.0853271484375 1710.19287109375 1697.54541015625 1691.200439453125 1706.5150146484375 1723.7451171875 1739.6947021484375 1758.090087890625 1789.5614013671875 1825.7589111328125 1836.6671142578125 1818.5648193359375 1786.2630615234375 1762.562744140625 1741.3736572265625 1709.8724365234375 1676.9798583984375 1654.2042236328125 1640.1851806640625 1618.045166015625 1579.2073974609375 1545.21484375 1516.0941162109375 1492.585693359375 1468.4267578125 1432.855712890625 1401.0848388671875 1371.022705078125 1340.82080078125 1311.146484375 
714.13226318359375 735.0115966796875 749.341796875 756.22906494140625 761.58441162109375 792.03387451171875 828.74176025390625 888.30084228515625 946.99224853515625 975.01141357421875 1005.84674072265625 1118.4246826171875 1189.1502685546875 1230.25830078125 1226.6754150390625 1221.4442138671875 1249.087890625 1243.2401123046875 1208.658935546875 1133.79736328125 1048.55810546875 965.2987060546875 1004.2349853515625 1053.2520751953125 1072.0400390625 1055.04833984375 1031.07666015625 1028.3931884765625 1024.4969482421875 1016.249755859375 949.394287109375 872.12481689453125 832.37359619140625 819.5924072265625 803.90533447265625 823.1285400390625 856.16839599609375 860.50555419921875 870.99395751953125 925.0479736328125 986.865478515625 1010.80535888671875 983.7164306640625 909.940185546875 819.27001953125 723.57293701171875 620.901611328125 511.310791015625 427.347808837890625 366.87811279296875 322.10406494140625 292.7142333984375 287.598175048828125 300.793792724609375 284.425628662109375 272.46746826171875 286.49700927734375 284.907196044921875 265.1285400390625 233.933380126953125 190.203704833984375 146.58135986328125 117.7568817138671875 129.26898193359375 153.483367919921875 182.9613037109375 222.41058349609375 271.4237060546875 321.8795166015625 375.31158447265625 426.011749267578125 475.92303466796875 516.80303955078125 560.5872802734375 613.31805419921875 651.9698486328125 698.0081787109375 745.665283203125 787.1629638671875 830.8826904296875 865.49139404296875 889.2357177734375 917.75140380859375 958.94219970703125 997.514892578125 1014.53424072265625 1024.8486328125 1038.505615234375 1073.5947265625 1148.03759765625 1228.9876708984375 1303.5921630859375 1375.9918212890625 1434.69921875 1489.2520751953125 1546.1536865234375 1598.853515625 1652.6064453125 1691.607421875 1712.668701171875 1730.0379638671875 1754.0537109375 1761.6175537109375 1758.226806640625 1748.5135498046875 1711.7196044921875 1667.433837890625 1644.9112548828125 1627.6787109375 1611.7734375 1622.784912109375 1660.02197265625 1704.4224853515625 1735.7142333984375 1767.6329345703125 1775.8751220703125 1723.7598876953125 1696.6983642578125 1712.660888671875 1730.049072265625 1694.3035888671875 1629.26025390625 1576.23486328125 1550.3365478515625 1528.751708984375 1508.16357421875 1487.873779296875 1448.0396728515625 1393.1976318359375 1341.2584228515625 1319.3902587890625 1321.12744140625 1334.5438232421875 1356.6824951171875 1383.1376953125 1420.062255859375 1469.8935546875 1538.6248779296875 1614.588134765625 1689.0802001953125 1755.753173828125 1807.9647216796875 1803.095458984375 1767.6888427734375 1744.8109130859375 1732.410888671875 1723.7779541015625 1713.2694091796875 1705.2774658203125 1711.8834228515625 1723.8778076171875 1737.533447265625 1747.0311279296875 1769.39794921875 1807.3726806640625 1828.722900390625 1823.279541015625 1794.228515625 1763.0830078125 1738.243896484375 1704.72509765625 1669.7425537109375 1646.0186767578125 1629.88623046875 1614.8843994140625 1592.5025634765625 1560.761962890625 1529.401611328125 1503.75390625 1470.937744140625 1426.01220703125 1382.489501953125 1341.798828125 1311.4464111328125 1286.5552978515625 
707.968505859375 712.7767333984375 720.786376953125 725.06390380859375 726.12164306640625 738.80718994140625 762.7552490234375 804.40850830078125 855.888671875 897.505859375 939.67572021484375 1031.168701171875 1123.1461181640625 1167.0631103515625 1157.2294921875 1153.0712890625 1177.563232421875 1163.745849609375 1145.3233642578125 1071.9088134765625 988.3194580078125 910.677978515625 925.78753662109375 985.31317138671875 995.325439453125 983.13671875 957.58453369140625 945.16339111328125 944.39727783203125 922.5572509765625 861.52178955078125 805.91229248046875 759.38079833984375 724.2532958984375 717.90765380859375 730.71337890625 754.4757080078125 772.1029052734375 787.6004638671875 869.2095947265625 925.94287109375 976.8968505859375 991.5516357421875 920.79638671875 793.0714111328125 696.8814697265625 605.62322998046875 515.87713623046875 445.9365234375 386.7828369140625 332.23931884765625 292.836395263671875 275.678375244140625 284.814605712890625 271.109893798828125 269.258270263671875 271.610595703125 247.4619598388671875 218.210906982421875 187.781036376953125 154.963409423828125 133.3478240966796875 123.68186187744140625 141.526123046875 168.8011016845703125 195.9764862060546875 235.5784912109375 288.76171875 342.96905517578125 403.39337158203125 453.955780029296875 492.42724609375 523.36297607421875 563.3291015625 619.0355224609375 657.80194091796875 691.44793701171875 735.6741943359375 774.5662841796875 816.0013427734375 853.36883544921875 880.68499755859375 905.79925537109375 921.8306884765625 930.82373046875 942.05047607421875 964.49139404296875 1002.30755615234375 1072.2138671875 1159.2977294921875 1233.2493896484375 1300.4014892578125 1364.6285400390625 1431.9088134765625 1493.1995849609375 1548.794189453125 1611.05859375 1659.3140869140625 1693.3402099609375 1711.1968994140625 1723.999755859375 1745.5904541015625 1760.751708984375 1758.4390869140625 1755.6329345703125 1730.364501953125 1688.7095947265625 1665.6317138671875 1643.25634765625 1621.6312255859375 1625.0299072265625 1658.456787109375 1702.90576171875 1736.5703125 1773.1390380859375 1790.4058837890625 1750.29638671875 1719.9527587890625 1735.13037109375 1753.9429931640625 1712.4718017578125 1647.7247314453125 1593.6959228515625 1561.6988525390625 1540.1407470703125 1520.6248779296875 1504.5133056640625 1469.4754638671875 1415.674072265625 1362.4837646484375 1326.8116455078125 1323.2471923828125 1328.239013671875 1341.4989013671875 1368.1446533203125 1405.1279296875 1453.572998046875 1520.13525390625 1593.5302734375 1664.6751708984375 1733.2576904296875 1796.35205078125 1818.311767578125 1789.23583984375 1760.9161376953125 1747.530517578125 1738.7100830078125 1725.234619140625 1714.2001953125 1717.52734375 1731.319580078125 1744.9166259765625 1747.017822265625 1757.2633056640625 1794.5716552734375 1824.6885986328125 1825.7037353515625 1797.856201171875 1758.584716796875 1734.2218017578125 1705.9921875 1673.0057373046875 1649.8536376953125 1631.1903076171875 1614.991943359375 1600.79443359375 1579.8406982421875 1550.855224609375 1521.88427734375 1479.980712890625 1429.1121826171875 1384.78466796875 1341.7860107421875 1308.323974609375 1290.30126953125 
716.93896484375 700.81402587890625 694.38818359375 692.6783447265625 693.48883056640625 698.3017578125 712.72674560546875 747.6448974609375 785.3521728515625 825.46240234375 880.0279541015625 951.9168701171875 1030.5946044921875 1091.7244873046875 1086.6944580078125 1072.865234375 1090.55859375 1064.7474365234375 1046.5810546875 1001.3143310546875 915.60430908203125 850.6363525390625 852.5845947265625 916.6221923828125 921.91064453125 919.368408203125 889.931884765625 865.53729248046875 868.33685302734375 845.0732421875 795.67486572265625 740.034423828125 682.58660888671875 638.7093505859375 639.443359375 645.38983154296875 664.87188720703125 689.2132568359375 723.34417724609375 821.168701171875 883.6077880859375 941.33148193359375 974.43194580078125 908.42010498046875 755.45391845703125 679.81610107421875 611.28253173828125 536.2320556640625 470.9669189453125 402.733642578125 335.568939208984375 287.913818359375 266.955322265625 268.355133056640625 269.554412841796875 271.41217041015625 234.048004150390625 194.988372802734375 168.119598388671875 148.183563232421875 131.40087890625 129.6588134765625 134.320831298828125 157.799346923828125 179.8433685302734375 209.307464599609375 248.1089324951171875 294.022216796875 345.17431640625 409.278839111328125 467.768829345703125 503.882080078125 526.18670654296875 564.17193603515625 620.91387939453125 655.5982666015625 679.70556640625 722.790771484375 763.34210205078125 806.04327392578125 837.99798583984375 861.12274169921875 874.221923828125 873.777099609375 880.92681884765625 911.4835205078125 958.2373046875 1021.2894287109375 1093.0665283203125 1168.7679443359375 1238.4813232421875 1292.7943115234375 1354.7711181640625 1425.9859619140625 1490.82275390625 1557.4229736328125 1614.3804931640625 1651.9949951171875 1686.9932861328125 1706.987060546875 1718.9093017578125 1741.1678466796875 1762.2000732421875 1761.94775390625 1762.5765380859375 1751.099853515625 1713.1954345703125 1686.6309814453125 1662.462646484375 1636.796142578125 1632.0325927734375 1657.28564453125 1700.7110595703125 1736.7861328125 1776.3369140625 1809.1585693359375 1788.2286376953125 1758.4100341796875 1763.1314697265625 1770.8974609375 1716.0595703125 1650.2183837890625 1605.8984375 1577.0677490234375 1561.044677734375 1549.372314453125 1535.68701171875 1492.1328125 1434.5484619140625 1381.2642822265625 1343.2576904296875 1332.134765625 1332.3485107421875 1338.60693359375 1361.3175048828125 1396.0643310546875 1440.848876953125 1504.5880126953125 1572.79541015625 1639.5748291015625 1708.4888916015625 1777.81689453125 1817.777099609375 1806.8173828125 1780.5972900390625 1765.34033203125 1754.9901123046875 1738.64111328125 1724.7664794921875 1728.14111328125 1746.7071533203125 1757.289794921875 1755.2032470703125 1758.1865234375 1791.2930908203125 1822.1959228515625 1828.8546142578125 1804.8466796875 1759.5933837890625 1732.789794921875 1709.9505615234375 1683.31982421875 1663.4749755859375 1651.674560546875 1642.0355224609375 1617.78857421875 1594.0712890625 1565.2716064453125 1530.899169921875 1495.615966796875 1440.227294921875 1391.619384765625 1353.2364501953125 1313.1878662109375 1278.8536376953125 
758.950439453125 720.16986083984375 693.96002197265625 680.8585205078125 673.42218017578125 671.0584716796875 684.1278076171875 715.31005859375 743.09454345703125 773.1793212890625 818.0101318359375 869.86859130859375 925.50921630859375 968.00830078125 958.78546142578125 948.11505126953125 967.06524658203125 966.1319580078125 971.8280029296875 925.1009521484375 847.098876953125 787.89093017578125 787.89776611328125 826.58697509765625 834.4840087890625 825.89959716796875 792.69287109375 762.40802001953125 777.90380859375 763.71746826171875 712.2205810546875 653.9627685546875 592.7747802734375 566.68157958984375 567.67022705078125 573.2369384765625 589.24188232421875 610.70751953125 655.2974853515625 761.121337890625 838.89422607421875 889.8333740234375 919.5050048828125 876.8768310546875 776.670654296875 703.353759765625 661.15997314453125 609.261474609375 539.18804931640625 440.98846435546875 344.707489013671875 282.325103759765625 259.6497802734375 260.62969970703125 269.345001220703125 254.7660064697265625 198.2597198486328125 157.23577880859375 133.5384368896484375 126.9244842529296875 123.48569488525390625 129.4675750732421875 148.37567138671875 172.51873779296875 192.37945556640625 220.7588653564453125 261.5006103515625 309.51953125 361.64019775390625 419.359619140625 474.0582275390625 509.178802490234375 528.5634765625 559.37115478515625 610.91937255859375 645.32843017578125 666.79425048828125 702.90826416015625 747.4580078125 791.1103515625 818.1966552734375 833.526611328125 833.0059814453125 840.94891357421875 873.638671875 921.74554443359375 982.90850830078125 1052.829345703125 1118.2750244140625 1184.3753662109375 1245.4290771484375 1291.2156982421875 1354.326416015625 1416.6846923828125 1484.9305419921875 1567.7784423828125 1608.535400390625 1641.5247802734375 1674.4464111328125 1693.6832275390625 1715.3858642578125 1740.62841796875 1762.5614013671875 1768.10791015625 1777.571533203125 1770.2552490234375 1738.4039306640625 1704.112548828125 1680.9132080078125 1657.441650390625 1645.3055419921875 1661.49072265625 1697.7640380859375 1733.4981689453125 1772.7706298828125 1820.3785400390625 1838.6636962890625 1829.4268798828125 1820.8330078125 1799.9959716796875 1725.3873291015625 1658.56591796875 1622.5380859375 1602.4273681640625 1591.3612060546875 1591.157470703125 1567.53955078125 1514.580078125 1452.3240966796875 1400.4901123046875 1361.505126953125 1341.6494140625 1337.6822509765625 1342.1636962890625 1358.059326171875 1390.9644775390625 1433.477783203125 1493.2490234375 1558.58642578125 1622.159912109375 1690.4476318359375 1758.989990234375 1810.8262939453125 1825.035400390625 1805.710205078125 1786.0706787109375 1772.9305419921875 1757.3248291015625 1741.134765625 1745.817138671875 1761.88818359375 1767.8863525390625 1763.068115234375 1765.797607421875 1796.7061767578125 1827.1370849609375 1833.9317626953125 1810.050537109375 1775.0330810546875 1747.452880859375 1732.1287841796875 1709.8099365234375 1689.70068359375 1674.7669677734375 1656.02685546875 1625.4908447265625 1595.9541015625 1560.7952880859375 1528.985595703125 1495.755615234375 1452.8831787109375 1411.5858154296875 1374.160400390625 1334.7769775390625 1293.16162109375 
827.2939453125 770.8170166015625 730.6221923828125 704.02490234375 682.59576416015625 665.2296142578125 664.9404296875 679.73077392578125 699.5670166015625 721.73394775390625 751.3363037109375 786.6953125 823.23504638671875 846.77008056640625 838.94525146484375 823.60125732421875 833.19293212890625 835.0821533203125 865.24896240234375 828.12188720703125 777.47589111328125 728.43280029296875 720.77154541015625 727.7281494140625 719.328369140625 694.013916015625 678.50140380859375 685.44219970703125 694.24212646484375 669.9556884765625 613.35174560546875 556.6024169921875 516.19952392578125 502.115203857421875 498.50958251953125 501.22808837890625 521.831787109375 545.45074462890625 580.9833984375 656.455322265625 739.07659912109375 792.294677734375 841.4302978515625 825.322509765625 800.44744873046875 768.45849609375 756.86248779296875 728.0712890625 650.8492431640625 512.6885986328125 381.525787353515625 296.747161865234375 260.3426513671875 255.761505126953125 261.42340087890625 233.659271240234375 182.86260986328125 142.4741363525390625 124.76117706298828125 122.92771148681640625 133.34649658203125 148.2003326416015625 164.85626220703125 186.3583984375 210.285919189453125 238.96783447265625 283.872467041015625 337.821746826171875 395.61102294921875 445.344696044921875 485.871978759765625 511.267730712890625 530.332763671875 551.34332275390625 593.82647705078125 624.1649169921875 645.78436279296875 673.66455078125 713.57452392578125 749.1123046875 773.13543701171875 787.71783447265625 799.22332763671875 829.34259033203125 878.83428955078125 933.7838134765625 1000.60272216796875 1069.8651123046875 1137.468994140625 1197.9671630859375 1247.6368408203125 1285.040283203125 1347.0380859375 1407.318115234375 1480.0333251953125 1559.9229736328125 1598.9578857421875 1630.4930419921875 1666.6417236328125 1688.4027099609375 1711.6270751953125 1738.69482421875 1760.883544921875 1774.11083984375 1786.030517578125 1784.836181640625 1761.5977783203125 1728.828369140625 1706.5777587890625 1685.95556640625 1666.9166259765625 1670.568603515625 1694.9427490234375 1729.2010498046875 1769.504638671875 1821.8681640625 1864.14013671875 1867.784912109375 1852.8310546875 1820.3831787109375 1759.73486328125 1705.189697265625 1673.045166015625 1659.998291015625 1645.11865234375 1628.2017822265625 1589.4508056640625 1534.4735107421875 1472.03857421875 1418.9581298828125 1377.9403076171875 1351.600830078125 1342.839599609375 1345.7679443359375 1357.833251953125 1386.4931640625 1424.366943359375 1482.8345947265625 1542.5950927734375 1602.1180419921875 1670.29150390625 1738.6302490234375 1801.232666015625 1834.198486328125 1830.9080810546875 1809.739990234375 1789.2669677734375 1769.8160400390625 1754.9749755859375 1759.6619873046875 1770.5577392578125 1774.0499267578125 1770.8236083984375 1777.03955078125 1805.120361328125 1832.4102783203125 1835.8089599609375 1813.3416748046875 1794.574462890625 1772.828125 1750.1815185546875 1718.4271240234375 1693.716796875 1671.7880859375 1650.6904296875 1620.35986328125 1590.392578125 1555.9708251953125 1519.288330078125 1480.7125244140625 1437.0294189453125 1396.0936279296875 1358.572021484375 1326.07470703125 1299.0262451171875 
894.19970703125 835.20135498046875 780.571044921875 745.26434326171875 714.04791259765625 679.072509765625 660.30126953125 656.2198486328125 660.46734619140625 675.44012451171875 690.69580078125 705.14410400390625 722.471923828125 733.47430419921875 742.54412841796875 749.010986328125 747.86065673828125 744.5125732421875 746.37548828125 733.516357421875 705.0435791015625 677.740234375 669.4688720703125 661.78753662109375 646.60443115234375 617.10174560546875 587.85565185546875 600.2122802734375 598.9420166015625 571.13916015625 519.5584716796875 474.7547607421875 458.247650146484375 451.2493896484375 444.692840576171875 444.369232177734375 459.428863525390625 480.187774658203125 506.065521240234375 547.26153564453125 603.87506103515625 680.704833984375 741.2723388671875 735.33123779296875 742.70220947265625 777.2911376953125 803.54022216796875 792.4200439453125 709.391845703125 575.80548095703125 434.303375244140625 326.5738525390625 268.467376708984375 252.8350830078125 254.7432403564453125 220.1236419677734375 176.2130126953125 140.25970458984375 125.61956787109375 130.2027740478515625 151.6443939208984375 167.678619384765625 184.3985137939453125 201.6880340576171875 226.1044158935546875 260.615936279296875 306.45550537109375 355.480194091796875 410.72491455078125 454.3939208984375 491.036102294921875 512.82891845703125 528.43316650390625 543.95391845703125 565.97412109375 585.08221435546875 608.25787353515625 634.04119873046875 663.11138916015625 693.42645263671875 719.42327880859375 745.14410400390625 778.32037353515625 826.861083984375 883.0960693359375 940.18035888671875 1009.8033447265625 1076.73046875 1139.9195556640625 1194.341064453125 1243.1092529296875 1281.8408203125 1333.3875732421875 1399.943359375 1470.805908203125 1534.968017578125 1578.4166259765625 1614.4635009765625 1653.205810546875 1682.662109375 1705.9287109375 1729.7930908203125 1755.61865234375 1774.988037109375 1789.2828369140625 1795.6842041015625 1778.6170654296875 1747.1435546875 1727.6505126953125 1714.401123046875 1689.6494140625 1683.684326171875 1699.189697265625 1724.4134521484375 1765.1943359375 1826.05810546875 1877.344970703125 1875.9453125 1844.5511474609375 1809.617919921875 1773.8321533203125 1749.3983154296875 1731.3056640625 1711.1748046875 1676.5263671875 1644.6234130859375 1606.73828125 1554.759033203125 1493.823974609375 1433.998779296875 1389.8560791015625 1363.3369140625 1348.7774658203125 1349.6822509765625 1364.1248779296875 1392.83154296875 1425.2049560546875 1474.97314453125 1527.932373046875 1583.5496826171875 1650.8045654296875 1714.235595703125 1772.42431640625 1822.3367919921875 1848.2640380859375 1833.8612060546875 1804.4566650390625 1781.6312255859375 1767.8494873046875 1769.5157470703125 1772.8125 1774.772216796875 1776.3031005859375 1787.7939453125 1813.75 1835.9613037109375 1834.81787109375 1812.4925537109375 1794.1134033203125 1774.32763671875 1752.98974609375 1719.67041015625 1691.3341064453125 1667.4344482421875 1643.7373046875 1616.847412109375 1592.3458251953125 1571.208984375 1537.1456298828125 1490.9197998046875 1439.9305419921875 1392.3631591796875 1346.2496337890625 1306.3016357421875 1275.3858642578125 
958.57354736328125 896.24786376953125 830.071533203125 781.107177734375 738.96136474609375 705.23785400390625 677.027099609375 655.0911865234375 645.06005859375 641.53021240234375 642.5718994140625 647.3436279296875 653.125244140625 658.91094970703125 670.54107666015625 682.361572265625 677.26226806640625 674.7952880859375 662.7371826171875 646.88592529296875 636.67010498046875 632.02374267578125 632.26611328125 614.5010986328125 588.197265625 552.80352783203125 526.5362548828125 516.6666259765625 504.644622802734375 483.726104736328125 461.446136474609375 446.667755126953125 441.663177490234375 433.90679931640625 425.889190673828125 413.679534912109375 414.746826171875 427.14013671875 445.420928955078125 472.506103515625 512.61419677734375 568.27093505859375 616.21136474609375 636.426025390625 656.44921875 742.2525634765625 801.576416015625 803.77398681640625 719.96746826171875 595.9920654296875 474.658203125 363.307952880859375 274.730865478515625 250.5642242431640625 242.0341949462890625 202.5074615478515625 167.367645263671875 135.5172119140625 126.78461456298828125 144.8525238037109375 173.4764862060546875 185.7638397216796875 197.800567626953125 215.1501922607421875 245.4993743896484375 278.746002197265625 320.071075439453125 361.069580078125 408.19464111328125 449.337066650390625 484.710479736328125 507.966827392578125 525.366943359375 531.92926025390625 535.46868896484375 550.09857177734375 573.42462158203125 595.469482421875 620.79949951171875 653.66650390625 689.4232177734375 731.43267822265625 779.377685546875 834.900634765625 889.99371337890625 952.923583984375 1019.6796875 1078.8929443359375 1135.0028076171875 1181.228271484375 1234.5067138671875 1278.719482421875 1319.743408203125 1383.8870849609375 1455.133056640625 1502.1998291015625 1545.43359375 1589.5987548828125 1630.7197265625 1675.16650390625 1698.486083984375 1722.5408935546875 1747.4276123046875 1772.033447265625 1789.3421630859375 1800.3514404296875 1792.4696044921875 1762.2825927734375 1742.287109375 1733.55712890625 1712.15771484375 1702.46728515625 1719.2093505859375 1732.3321533203125 1761.4033203125 1824.3114013671875 1875.7930908203125 1865.244140625 1809.283935546875 1764.86376953125 1738.6612548828125 1724.5416259765625 1716.9031982421875 1704.0791015625 1675.23388671875 1643.8447265625 1612.3011474609375 1566.3065185546875 1509.83935546875 1451.761962890625 1407.4423828125 1378.48046875 1357.777587890625 1353.517822265625 1366.105224609375 1393.452880859375 1419.7642822265625 1463.461181640625 1513.9134521484375 1568.5997314453125 1628.157470703125 1684.955322265625 1741.25537109375 1802.90185546875 1852.18798828125 1850.6026611328125 1817.039794921875 1791.0845947265625 1777.3798828125 1775.0028076171875 1774.7313232421875 1776.027099609375 1783.163818359375 1797.0943603515625 1814.452392578125 1826.0029296875 1823.9361572265625 1806.04296875 1784.6219482421875 1762.889404296875 1745.1953125 1721.623046875 1690.74560546875 1666.95654296875 1641.70361328125 1617.5098876953125 1600.9814453125 1586.2178955078125 1555.5262451171875 1506.97802734375 1450.273681640625 1401.8546142578125 1355.554931640625 1314.647216796875 1275.7174072265625 
1027.3670654296875 946.602294921875 886.6217041015625 839.29071044921875 788.1495361328125 745.63525390625 708.57855224609375 676.37554931640625 649.84857177734375 637.96478271484375 634.12054443359375 629.55133056640625 620.40777587890625 618.290771484375 620.7889404296875 627.31732177734375 621.59527587890625 615.86614990234375 601.31475830078125 584.70196533203125 585.63446044921875 593.74786376953125 594.57354736328125 570.36370849609375 540.04644775390625 513.226806640625 496.550048828125 489.7589111328125 480.151519775390625 470.088043212890625 463.860565185546875 467.841339111328125 472.367279052734375 475.834014892578125 474.429443359375 433.855865478515625 398.97406005859375 393.615234375 397.68975830078125 412.49310302734375 440.656158447265625 472.302642822265625 508.65374755859375 549.4862060546875 600.47705078125 698.2728271484375 761.072998046875 778.26104736328125 722.07415771484375 617.44671630859375 510.617645263671875 403.49407958984375 299.60565185546875 248.4871978759765625 219.015655517578125 179.784027099609375 155.89208984375 131.0041351318359375 125.8840179443359375 154.5897369384765625 184.37841796875 194.1753082275390625 208.5495452880859375 234.3779144287109375 267.856231689453125 300.15142822265625 331.1390380859375 363.667816162109375 400.96002197265625 438.53082275390625 470.5013427734375 496.678741455078125 507.46697998046875 505.33721923828125 515.343017578125 546.79241943359375 576.18170166015625 595.8114013671875 623.220703125 656.8062744140625 695.06109619140625 738.3309326171875 789.24969482421875 846.29852294921875 903.231201171875 960.30743408203125 1022.0859375 1073.4976806640625 1122.4139404296875 1168.343505859375 1226.9642333984375 1280.01953125 1316.2030029296875 1365.6444091796875 1420.7061767578125 1461.5777587890625 1509.8250732421875 1553.604248046875 1602.8721923828125 1657.953857421875 1688.4261474609375 1719.4111328125 1744.35302734375 1772.8858642578125 1787.553955078125 1798.197021484375 1804.1971435546875 1782.3614501953125 1756.94482421875 1742.660888671875 1731.3822021484375 1725.28369140625 1741.2381591796875 1752.569580078125 1773.770263671875 1825.20751953125 1867.7706298828125 1846.91015625 1780.3353271484375 1729.857421875 1706.6153564453125 1696.35986328125 1686.7344970703125 1673.2962646484375 1651.767822265625 1628.5098876953125 1606.2625732421875 1571.3917236328125 1519.7003173828125 1464.42626953125 1422.1773681640625 1393.9031982421875 1371.70361328125 1358.0860595703125 1369.4510498046875 1394.961669921875 1417.673583984375 1455.678466796875 1501.206787109375 1555.039794921875 1610.299560546875 1664.105712890625 1723.6722412109375 1782.984375 1840.893798828125 1855.3990478515625 1825.58349609375 1800.8427734375 1786.4923095703125 1781.3184814453125 1784.993408203125 1795.351806640625 1804.5443115234375 1811.409423828125 1806.67138671875 1803.236572265625 1802.325927734375 1792.2100830078125 1772.1494140625 1750.7744140625 1732.451416015625 1713.783203125 1689.468505859375 1670.1041259765625 1647.0997314453125 1626.3428955078125 1613.3197021484375 1583.6094970703125 1548.7510986328125 1508.2977294921875 1452.7069091796875 1399.024658203125 1353.4219970703125 1318.8812255859375 1291.37451171875 
1078.273681640625 991.9871826171875 953.69818115234375 914.49688720703125 860.234130859375 802.7965087890625 757.9776611328125 719.03985595703125 677.343017578125 655.3463134765625 653.73260498046875 645.83843994140625 631.16949462890625 618.5220947265625 609.5648193359375 603.398193359375 593.82379150390625 583.78759765625 575.32354736328125 565.87103271484375 558.92236328125 561.8704833984375 556.03997802734375 536.47113037109375 521.0177001953125 511.63470458984375 507.56732177734375 508.95556640625 510.957000732421875 497.977996826171875 496.972198486328125 518.58807373046875 530.3572998046875 556.59326171875 566.7252197265625 512.5924072265625 446.40753173828125 397.013916015625 378.66302490234375 374.44671630859375 383.543212890625 398.53436279296875 421.879486083984375 465.582977294921875 526.02349853515625 630.844970703125 690.8951416015625 707.6451416015625 699.83953857421875 642.697509765625 547.0299072265625 437.672393798828125 333.90771484375 252.0205535888671875 204.349029541015625 169.3137969970703125 149.95306396484375 133.4355316162109375 127.2866058349609375 153.53485107421875 187.589752197265625 199.6668701171875 224.0912017822265625 258.814849853515625 289.725860595703125 321.071258544921875 344.354888916015625 369.7069091796875 399.320037841796875 425.667572021484375 456.94256591796875 481.38275146484375 483.34893798828125 489.83917236328125 514.96514892578125 550.91455078125 580.15716552734375 602.00543212890625 634.43115234375 668.9774169921875 703.64215087890625 749.11248779296875 801.61175537109375 859.5655517578125 914.43682861328125 966.52825927734375 1024.178955078125 1070.072509765625 1111.5523681640625 1156.1568603515625 1217.8216552734375 1270.2337646484375 1307.36279296875 1341.1640625 1379.1685791015625 1420.2105712890625 1465.9073486328125 1509.91015625 1567.981689453125 1628.347412109375 1673.9393310546875 1714.0472412109375 1740.552734375 1775.7044677734375 1795.3060302734375 1800.593994140625 1808.64794921875 1806.9200439453125 1796.4012451171875 1777.949951171875 1758.8118896484375 1749.6939697265625 1757.8399658203125 1768.6820068359375 1788.8790283203125 1832.34765625 1861.836181640625 1846.6466064453125 1794.0216064453125 1736.03662109375 1702.9794921875 1692.39453125 1682.1739501953125 1664.790283203125 1638.8707275390625 1613.6282958984375 1594.4544677734375 1570.6673583984375 1527.492919921875 1476.81689453125 1432.572998046875 1403.805908203125 1383.86328125 1368.4405517578125 1373.2298583984375 1392.7093505859375 1413.814208984375 1448.0760498046875 1488.8873291015625 1540.6119384765625 1594.7918701171875 1643.2109375 1696.7042236328125 1756.55078125 1821.798828125 1854.5670166015625 1834.344482421875 1814.1739501953125 1805.8546142578125 1802.377197265625 1804.38818359375 1823.2520751953125 1837.3912353515625 1828.3419189453125 1803.3228759765625 1785.231689453125 1777.111328125 1774.1617431640625 1757.8958740234375 1737.698974609375 1716.598388671875 1695.72216796875 1680.28369140625 1670.6365966796875 1657.20849609375 1638.02392578125 1616.7813720703125 1579.2589111328125 1532.15234375 1490.0042724609375 1438.6419677734375 1389.4521484375 1344.2965087890625 1309.86279296875 1286.86474609375 
1104.6234130859375 1043.3931884765625 1037.3828125 994.59820556640625 938.28375244140625 877.8594970703125 815.88543701171875 762.43243408203125 718.445556640625 690.13519287109375 684.9720458984375 676.0615234375 656.97589111328125 639.26983642578125 627.24615478515625 615.7701416015625 602.24761962890625 595.3544921875 597.7723388671875 592.635498046875 576.410888671875 565.43511962890625 560.64208984375 563.7093505859375 560.08441162109375 556.846435546875 565.43231201171875 570.37786865234375 566.58477783203125 547.12066650390625 545.47772216796875 573.91815185546875 589.57513427734375 629.63250732421875 637.2122802734375 597.26666259765625 545.455810546875 468.407440185546875 409.280517578125 378.76678466796875 358.9342041015625 353.346832275390625 354.17401123046875 380.37921142578125 425.0220947265625 527.42333984375 596.08526611328125 616.900390625 644.73065185546875 651.89605712890625 579.52874755859375 466.273956298828125 363.0794677734375 265.92547607421875 203.0816192626953125 170.8729248046875 152.4766693115234375 133.4599761962890625 127.9653778076171875 143.9295806884765625 183.322845458984375 201.81201171875 234.9558563232421875 271.6304931640625 302.428924560546875 328.564666748046875 350.746246337890625 375.34661865234375 401.47601318359375 421.05078125 446.042205810546875 459.751953125 471.993988037109375 501.078277587890625 530.3951416015625 555.35009765625 578.7515869140625 604.62933349609375 635.067626953125 668.81683349609375 703.14288330078125 750.55224609375 805.07391357421875 864.6422119140625 918.1103515625 970.57342529296875 1019.9124755859375 1063.2042236328125 1100.7059326171875 1141.709228515625 1193.32861328125 1230.8858642578125 1264.8311767578125 1296.7320556640625 1332.33935546875 1377.6883544921875 1426.9449462890625 1476.934814453125 1538.5931396484375 1604.0255126953125 1665.890380859375 1711.999267578125 1741.0589599609375 1776.9893798828125 1800.853271484375 1808.2723388671875 1812.0347900390625 1818.9561767578125 1827.62646484375 1821.63037109375 1807.5216064453125 1791.97998046875 1783.4638671875 1785.0767822265625 1801.791259765625 1834.9957275390625 1858.0889892578125 1859.083251953125 1823.2008056640625 1773.793212890625 1733.550537109375 1715.6632080078125 1704.2080078125 1684.1575927734375 1651.6317138671875 1618.2242431640625 1594.0313720703125 1576.2454833984375 1538.962890625 1487.9862060546875 1440.6378173828125 1411.802001953125 1394.2611083984375 1379.4366455078125 1374.3975830078125 1389.89306640625 1412.916748046875 1442.6917724609375 1477.72314453125 1521.2432861328125 1574.1878662109375 1629.66943359375 1685.62744140625 1742.8179931640625 1808.0855712890625 1853.375 1851.436767578125 1838.431884765625 1840.8389892578125 1841.7235107421875 1837.1065673828125 1849.93017578125 1856.139404296875 1832.6456298828125 1799.30419921875 1777.0234375 1759.0831298828125 1754.6553955078125 1740.002685546875 1720.0682373046875 1698.1629638671875 1675.1724853515625 1659.0108642578125 1651.412353515625 1640.81396484375 1623.3470458984375 1600.4136962890625 1568.46240234375 1521.72802734375 1471.53564453125 1419.81884765625 1371.5592041015625 1327.0628662109375 1285.968017578125 1259.349853515625 
1136.445068359375 1106.4481201171875 1118.274169921875 1077.4949951171875 1008.520263671875 948.84417724609375 888.2000732421875 823.97198486328125 772.827880859375 735.15533447265625 715.68328857421875 706.35797119140625 689.18927001953125 677.4169921875 665.76422119140625 651.027099609375 637.8094482421875 635.25128173828125 641.69244384765625 638.93292236328125 631.05169677734375 631.82415771484375 640.5399169921875 658.66119384765625 667.9278564453125 664.7508544921875 658.489013671875 650.3043212890625 642.11566162109375 642.5274658203125 658.19940185546875 665.97076416015625 663.38214111328125 699.59417724609375 704.22918701171875 686.7462158203125 633.586181640625 554.33734130859375 481.488555908203125 428.780670166015625 386.20159912109375 361.285186767578125 342.05914306640625 341.939300537109375 359.0469970703125 407.54522705078125 484.461273193359375 525.80999755859375 571.32550048828125 622.78515625 594.44976806640625 490.608612060546875 369.67315673828125 268.20361328125 202.4267578125 173.0844268798828125 155.8381500244140625 130.4087982177734375 124.27275848388671875 133.7396240234375 167.665374755859375 204.1791839599609375 241.330474853515625 269.74468994140625 303.521636962890625 318.926849365234375 333.67816162109375 365.208984375 396.037872314453125 412.223419189453125 428.96380615234375 448.34820556640625 479.76153564453125 511.405914306640625 530.888671875 547.3055419921875 571.4296875 595.323974609375 620.627685546875 655.59912109375 699.11639404296875 750.55914306640625 804.471923828125 857.89727783203125 912.3948974609375 962.3148193359375 1005.88092041015625 1044.9388427734375 1080.5968017578125 1115.029052734375 1146.20849609375 1174.943603515625 1213.8836669921875 1261.8319091796875 1308.984619140625 1363.3421630859375 1422.8472900390625 1473.9647216796875 1530.2734375 1597.4134521484375 1664.511474609375 1715.03466796875 1748.9921875 1781.4610595703125 1801.4393310546875 1810.951416015625 1811.8775634765625 1818.2567138671875 1839.13232421875 1840.6070556640625 1834.9468994140625 1838.2000732421875 1827.394287109375 1815.34375 1815.7230224609375 1831.8275146484375 1850.7728271484375 1866.779052734375 1850.9451904296875 1816.98828125 1786.2144775390625 1761.5863037109375 1737.5631103515625 1710.410888671875 1680.81591796875 1648.576416015625 1616.1256103515625 1587.9542236328125 1547.1011962890625 1495.63134765625 1453.86767578125 1420.5599365234375 1401.00830078125 1389.6636962890625 1379.357666015625 1388.018310546875 1413.7498779296875 1440.926513671875 1472.8465576171875 1510.544921875 1558.1884765625 1621.7890625 1685.0550537109375 1735.7646484375 1794.030029296875 1850.8861083984375 1868.1929931640625 1867.2215576171875 1886.318115234375 1890.6807861328125 1880.5625 1867.1279296875 1851.54931640625 1818.987548828125 1784.468994140625 1757.6431884765625 1738.0125732421875 1729.2845458984375 1715.40478515625 1697.7767333984375 1674.7103271484375 1651.997314453125 1632.5540771484375 1622.0592041015625 1611.391357421875 1588.2298583984375 1562.4971923828125 1543.9732666015625 1513.9798583984375 1464.90283203125 1410.8389892578125 1360.3123779296875 1312.203857421875 1271.631591796875 1241.6259765625 
1195.46923828125 1185.7314453125 1198.914306640625 1158.28173828125 1076.2470703125 1022.92474365234375 972.14105224609375 901.67108154296875 831.14794921875 779.6038818359375 758.239013671875 752.22869873046875 734.44952392578125 721.1627197265625 716.11669921875 705.77459716796875 690.75567626953125 687.11895751953125 693.8980712890625 693.76129150390625 703.6612548828125 710.7567138671875 722.951904296875 747.53961181640625 762.13189697265625 755.72332763671875 754.4208984375 761.009521484375 752.33233642578125 771.915771484375 793.14239501953125 752.71826171875 737.9202880859375 776.2998046875 778.37548828125 767.222412109375 724.09869384765625 649.6116943359375 566.50506591796875 489.026611328125 447.44244384765625 413.39111328125 372.574127197265625 338.552978515625 324.3187255859375 342.3262939453125 390.963348388671875 446.03399658203125 497.47625732421875 572.00970458984375 581.77227783203125 492.92413330078125 372.237518310546875 278.49444580078125 205.68695068359375 173.0393829345703125 152.725311279296875 129.662750244140625 123.62508392333984375 126.84383392333984375 148.749176025390625 196.8202056884765625 245.90643310546875 267.28082275390625 290.639373779296875 302.4168701171875 319.770782470703125 353.437835693359375 385.2144775390625 405.59735107421875 425.9356689453125 455.44390869140625 491.274322509765625 510.2786865234375 519.5943603515625 534.70245361328125 557.65020751953125 585.3673095703125 618.99462890625 654.94586181640625 698.1097412109375 744.39569091796875 796.37457275390625 844.18963623046875 891.96868896484375 937.35699462890625 969.65985107421875 1000.0474853515625 1037.081298828125 1071.555908203125 1108.1982421875 1149.56298828125 1207.2091064453125 1278.4371337890625 1335.3106689453125 1397.025146484375 1458.3455810546875 1506.3753662109375 1551.737548828125 1604.191650390625 1662.7532958984375 1711.232421875 1749.9801025390625 1784.076416015625 1798.0535888671875 1804.5098876953125 1801.9713134765625 1807.0968017578125 1833.938720703125 1846.171875 1838.1231689453125 1846.8768310546875 1850.8326416015625 1843.0589599609375 1829.260009765625 1826.2440185546875 1841.8070068359375 1865.0157470703125 1867.8203125 1848.3668212890625 1824.8902587890625 1798.8966064453125 1768.467041015625 1739.0450439453125 1710.431396484375 1680.5740966796875 1641.9464111328125 1600.8118896484375 1559.805419921875 1508.789306640625 1464.8726806640625 1431.0908203125 1415.4442138671875 1404.754638671875 1387.524169921875 1392.3912353515625 1413.0362548828125 1439.472900390625 1471.0821533203125 1504.658447265625 1546.1253662109375 1603.8074951171875 1667.555419921875 1722.5096435546875 1779.8814697265625 1842.3043212890625 1873.6483154296875 1882.1568603515625 1904.6943359375 1905.1910400390625 1887.835205078125 1857.5791015625 1828.1036376953125 1798.6793212890625 1762.08740234375 1730.85302734375 1716.21923828125 1706.3282470703125 1690.9210205078125 1673.91064453125 1650.0238037109375 1623.795654296875 1604.8812255859375 1596.5531005859375 1587.6312255859375 1560.6751708984375 1520.9774169921875 1499.420654296875 1483.573974609375 1451.621826171875 1404.890625 1356.1741943359375 1308.7520751953125 1265.8895263671875 1237.61572265625 
1265.878662109375 1265.1175537109375 1279.0704345703125 1248.2890625 1179.7447509765625 1104.0386962890625 1046.3770751953125 969.421142578125 892.505126953125 826.3524169921875 819.26190185546875 817.2386474609375 800.32403564453125 780.0157470703125 780.8349609375 775.303955078125 768.004150390625 762.91455078125 759.92156982421875 769.30810546875 794.83172607421875 807.73486328125 802.9039306640625 840.1522216796875 873.53759765625 853.05047607421875 840.1103515625 852.83990478515625 881.0098876953125 921.48931884765625 888.7193603515625 812.99005126953125 817.6876220703125 854.15899658203125 869.0848388671875 869.26495361328125 827.72735595703125 736.14190673828125 642.35467529296875 550.1134033203125 495.66619873046875 462.982025146484375 418.368194580078125 363.747711181640625 319.414398193359375 314.2880859375 343.598541259765625 386.478851318359375 451.35821533203125 523.635986328125 542.5538330078125 477.434600830078125 384.599700927734375 294.410980224609375 215.2005767822265625 174.3094635009765625 150.3902587890625 128.934539794921875 121.91986083984375 123.56745147705078125 133.757965087890625 175.6547088623046875 237.135833740234375 266.819915771484375 288.7508544921875 311.80523681640625 336.06671142578125 368.843170166015625 393.08843994140625 410.51861572265625 430.998291015625 458.45208740234375 489.365570068359375 498.879486083984375 511.53277587890625 529.284423828125 553.4468994140625 585.42535400390625 619.5611572265625 656.6671142578125 696.71148681640625 732.8118896484375 776.4202880859375 814.57080078125 851.73944091796875 890.89715576171875 917.8017578125 955.27520751953125 1008.74493408203125 1061.0770263671875 1117.7760009765625 1172.7305908203125 1232.4317626953125 1299.98046875 1361.75048828125 1424.132568359375 1482.4630126953125 1535.53125 1590.165283203125 1634.1455078125 1677.4547119140625 1709.9234619140625 1743.1707763671875 1771.7449951171875 1786.763427734375 1787.53173828125 1782.4034423828125 1787.858642578125 1810.4031982421875 1829.5697021484375 1832.1485595703125 1838.37109375 1844.2232666015625 1845.710205078125 1835.3748779296875 1822.6688232421875 1833.4718017578125 1854.669677734375 1860.2655029296875 1844.3536376953125 1815.0904541015625 1779.49755859375 1753.9552001953125 1733.8736572265625 1712.1795654296875 1685.5770263671875 1652.969482421875 1614.3751220703125 1571.7664794921875 1523.0684814453125 1478.1602783203125 1442.5804443359375 1431.4532470703125 1420.6627197265625 1398.9635009765625 1401.4796142578125 1414.8515625 1438.001220703125 1468.2928466796875 1498.8035888671875 1539.958984375 1594.9849853515625 1653.75341796875 1710.339599609375 1772.283935546875 1825.8681640625 1864.53173828125 1883.455810546875 1907.493408203125 1905.476806640625 1877.052001953125 1831.669677734375 1802.0718994140625 1781.5948486328125 1748.4183349609375 1715.9632568359375 1703.1868896484375 1692.100830078125 1673.92919921875 1654.295654296875 1630.5732421875 1601.91552734375 1578.4158935546875 1568.003662109375 1562.433837890625 1544.22607421875 1505.151123046875 1472.9759521484375 1443.7794189453125 1414.3497314453125 1384.05419921875 1346.637939453125 1302.7508544921875 1264.085205078125 1238.76220703125 
1345.12158203125 1348.124267578125 1356.216064453125 1337.903076171875 1278.806884765625 1187.846435546875 1113.1422119140625 1023.03948974609375 933.44287109375 868.1265869140625 884.41510009765625 899.87091064453125 879 845.21435546875 848.4722900390625 859.43768310546875 866.4305419921875 870.39874267578125 841.2081298828125 846.56268310546875 875.2933349609375 890.876953125 887.923828125 931.3182373046875 986.4749755859375 994.705078125 952.814208984375 949.77337646484375 983.369140625 994.30718994140625 929.09271240234375 892.198974609375 929.32904052734375 950.28955078125 960.65753173828125 925.55084228515625 852.2568359375 759.06036376953125 666.74658203125 590.41180419921875 544.89141845703125 532.335205078125 475.49560546875 404.68743896484375 341.054412841796875 305.00885009765625 312.059814453125 337.63836669921875 398.33428955078125 468.940093994140625 488.623321533203125 462.241973876953125 393.285675048828125 311.35113525390625 236.8228759765625 188.781707763671875 162.409881591796875 139.9800567626953125 125.82793426513671875 122.4146728515625 125.00197601318359375 151.1950531005859375 214.4340362548828125 266.709228515625 294.30145263671875 320.512420654296875 349.234619140625 380.2691650390625 394.152313232421875 407.81890869140625 428.225006103515625 452.17041015625 476.682830810546875 483.83990478515625 509.368988037109375 532.153076171875 555.17633056640625 581.67724609375 616.5738525390625 657.00152587890625 694.727294921875 729.35943603515625 771.7039794921875 809.16729736328125 844.36865234375 882.713134765625 926.44207763671875 983.7813720703125 1044.314697265625 1093.5247802734375 1156.135986328125 1212.2889404296875 1265.96630859375 1321.262939453125 1376.4598388671875 1438.8128662109375 1494.732666015625 1553.978759765625 1612.674560546875 1652.9774169921875 1688.4754638671875 1715.650634765625 1743.2359619140625 1756.6856689453125 1765.654541015625 1765.3173828125 1761.72314453125 1768.071533203125 1784.6728515625 1802.501220703125 1816.0185546875 1827.773193359375 1833.96044921875 1836.65966796875 1832.2109375 1820.262451171875 1825.0469970703125 1839.848876953125 1840.5933837890625 1812.200439453125 1764.903564453125 1729.412841796875 1710.262939453125 1697.403076171875 1685.5020751953125 1665.446044921875 1642.1126708984375 1615.7061767578125 1579.2113037109375 1539.1651611328125 1496.005615234375 1459.5069580078125 1446.5694580078125 1437.51025390625 1411.0374755859375 1410.165771484375 1420.2626953125 1440.5146484375 1464.539306640625 1494.453857421875 1533.888671875 1583.0277099609375 1637.9183349609375 1691.034912109375 1750.0535888671875 1805.9615478515625 1853.0035400390625 1880.54638671875 1902.40380859375 1902.0194091796875 1867.22314453125 1817.2838134765625 1784.489990234375 1767.3092041015625 1741.05712890625 1710.101318359375 1694.9609375 1682.667724609375 1665.4039306640625 1646.5589599609375 1623.4324951171875 1593.634033203125 1566.083740234375 1546.028564453125 1533.3240966796875 1516.5274658203125 1481.4976806640625 1458.955078125 1437.201171875 1397.0750732421875 1360.541748046875 1327.4652099609375 1286.8076171875 1258.79248046875 1231.356689453125 
1433.1727294921875 1422.2862548828125 1401.2047119140625 1358.693359375 1300.1964111328125 1231.004638671875 1160.4765625 1078.1419677734375 957.76373291015625 918.363525390625 955.19091796875 978.21856689453125 953.377197265625 907.92596435546875 912.30352783203125 942.7164306640625 959.394775390625 950.47650146484375 911.54095458984375 915.1578369140625 939.74041748046875 959.3310546875 965.798095703125 1003.2808837890625 1064.6365966796875 1115.9200439453125 1111.1700439453125 1093.100341796875 1083.6927490234375 1045.77587890625 971.5159912109375 976.28350830078125 1010.64581298828125 1026.180419921875 1002.45904541015625 925.1043701171875 839.70123291015625 747.47662353515625 675.7388916015625 638.8583984375 623.16217041015625 603.1630859375 523.31427001953125 438.635528564453125 371.640960693359375 316.652862548828125 292.7421875 300.55010986328125 331.752349853515625 391.791961669921875 429.05426025390625 440.901275634765625 391.864776611328125 316.964599609375 254.4923248291015625 211.8456573486328125 179.265594482421875 163.6297454833984375 153.641143798828125 133.6164093017578125 123.449493408203125 133.7717437744140625 186.8727264404296875 258.88763427734375 293.284759521484375 322.20013427734375 357.38323974609375 389.196929931640625 396.412872314453125 409.30279541015625 424.168121337890625 443.865264892578125 460.351531982421875 470.627838134765625 502.0208740234375 527.0504150390625 547.95037841796875 577.4266357421875 619.60186767578125 663.17132568359375 694.08734130859375 726.86688232421875 778.31365966796875 830.1014404296875 871.3673095703125 910.505615234375 957.99462890625 1016.8524169921875 1081.5589599609375 1132.9534912109375 1181.669189453125 1232.98583984375 1294.669677734375 1349.920654296875 1390.8980712890625 1441.6822509765625 1492.8614501953125 1554.699462890625 1610.21533203125 1649.669921875 1687.75732421875 1716.091796875 1740.817138671875 1745.4154052734375 1746.2740478515625 1746.2276611328125 1741.2489013671875 1748.317626953125 1762.084228515625 1782.668701171875 1799.561767578125 1813.262451171875 1821.5601806640625 1822.300537109375 1822.8026123046875 1814.2752685546875 1815.470458984375 1824.44384765625 1816.987060546875 1775.56298828125 1723.82958984375 1698.0045166015625 1684.9713134765625 1672.5443115234375 1661.4163818359375 1645.9725341796875 1628.193603515625 1608.8697509765625 1580.9007568359375 1547.9271240234375 1507.7891845703125 1472.6566162109375 1458.2425537109375 1445.360107421875 1421.9224853515625 1421.924072265625 1430.01416015625 1445.1370849609375 1466.526611328125 1492.9864501953125 1523.3995361328125 1566.645751953125 1619.0831298828125 1673.8990478515625 1730.45068359375 1789.3446044921875 1837.5389404296875 1872.5203857421875 1901.67822265625 1901.6004638671875 1862.6611328125 1813.8951416015625 1778.0059814453125 1760.43701171875 1742.24462890625 1717.6287841796875 1700.5445556640625 1683.47314453125 1663.4993896484375 1647.0289306640625 1629.0582275390625 1601.025634765625 1573.6055908203125 1550.827880859375 1528.552490234375 1504.9693603515625 1465.6612548828125 1431.26123046875 1416.14990234375 1388.38720703125 1345.4761962890625 1310.765869140625 1277.765380859375 1256.2484130859375 1229.6654052734375 
1496.4359130859375 1455.830810546875 1395.0625 1334.9072265625 1274.3212890625 1210.292236328125 1143.26416015625 1070.239013671875 976.7020263671875 970.93231201171875 1022.96197509765625 1054.8067626953125 1025.0257568359375 972.2952880859375 973.89935302734375 1019.8040771484375 1047.23291015625 1028.484375 987.83984375 982.5911865234375 994.316162109375 1018.75543212890625 1034.724853515625 1075.30712890625 1132.7882080078125 1183.3975830078125 1210.5584716796875 1205.9404296875 1148.2939453125 1073.5125732421875 1026.5821533203125 1057.6861572265625 1085.6700439453125 1066.6358642578125 990.8729248046875 899.54107666015625 821.964111328125 764.3031005859375 741.56829833984375 725.251220703125 729.011474609375 690.219482421875 586.7314453125 491.543426513671875 414.96368408203125 347.072052001953125 295.48822021484375 277.3572998046875 284.60003662109375 325.121185302734375 377.59588623046875 410.517333984375 379.3280029296875 311.939117431640625 256.7376708984375 221.8384246826171875 199.5765838623046875 180.5653839111328125 171.943817138671875 156.7422332763671875 131.145477294921875 125.36962890625 167.826202392578125 250.325225830078125 287.00579833984375 315.290008544921875 351.56500244140625 385.665130615234375 399.3551025390625 409.528411865234375 417.320281982421875 431.28515625 444.779144287109375 462.065155029296875 489.013031005859375 513.929931640625 540.4581298828125 581.0634765625 628.00177001953125 667.94635009765625 702.07659912109375 734.433837890625 778.24798583984375 829.90985107421875 872.1488037109375 922.22662353515625 977.41522216796875 1035.640380859375 1098.5650634765625 1155.2972412109375 1190.5198974609375 1232.5205078125 1293.896240234375 1351.4686279296875 1388.24853515625 1432.4290771484375 1484.203369140625 1544.88232421875 1592.8485107421875 1637.52734375 1678.29541015625 1709.13916015625 1729.8951416015625 1731.5389404296875 1727.576171875 1722.98193359375 1718.3018798828125 1728.51806640625 1746.2105712890625 1768.5267333984375 1787.272216796875 1795.8095703125 1802.5869140625 1807.846435546875 1813.677978515625 1807.033447265625 1803.4715576171875 1805.310546875 1793.8353271484375 1755.82666015625 1710.5311279296875 1692.793701171875 1680.02294921875 1662.8076171875 1649.4652099609375 1636.1171875 1621.4453125 1604.6319580078125 1582.6024169921875 1549.6400146484375 1512.824462890625 1479.293212890625 1464.0223388671875 1451.69970703125 1432.383544921875 1427.8634033203125 1438.0439453125 1448.68017578125 1467.08935546875 1494.047119140625 1521.461669921875 1553.6937255859375 1599.0570068359375 1651.104736328125 1704.7528076171875 1766.6109619140625 1819.75390625 1864.4970703125 1899.451904296875 1909.2635498046875 1888.296630859375 1836.9437255859375 1786.669189453125 1762.5772705078125 1750.2701416015625 1732.5865478515625 1716.465087890625 1697.9677734375 1678.466064453125 1661.712890625 1643.22314453125 1617.149658203125 1593.4158935546875 1569.3367919921875 1540.7615966796875 1509.5540771484375 1464.517822265625 1418.1474609375 1388.7197265625 1377.78466796875 1348.720947265625 1318.7340087890625 1287.28515625 1249.811279296875 1217.1524658203125 
1497.9180908203125 1434.8162841796875 1364.20703125 1295.4505615234375 1235.20068359375 1172.659912109375 1102.3341064453125 1039.008056640625 1007.8104248046875 1035.7652587890625 1087.024658203125 1119.2032470703125 1097.75048828125 1042.1641845703125 1031.7806396484375 1086.6988525390625 1126.4022216796875 1111.9869384765625 1077.438232421875 1060.406982421875 1058.353271484375 1073.1441650390625 1101.093017578125 1138.111328125 1189.9935302734375 1247.11474609375 1272.732421875 1242.9136962890625 1174.4208984375 1105.6580810546875 1084.704345703125 1125.258056640625 1130.511962890625 1058.7239990234375 969.22247314453125 893.33538818359375 856.0443115234375 873.56817626953125 841.40704345703125 795.1497802734375 793.5218505859375 738.0787353515625 648.68585205078125 556.44573974609375 463.743621826171875 383.21185302734375 319.370452880859375 278.880889892578125 261.6080322265625 277.3402099609375 326.787384033203125 371.633636474609375 355.129791259765625 301.601318359375 255.4867095947265625 227.8035125732421875 216.009124755859375 192.5744171142578125 179.599822998046875 167.3855743408203125 145.269073486328125 126.8821868896484375 157.85223388671875 244.147003173828125 282.71435546875 303.477630615234375 328.081787109375 365.39764404296875 396.84478759765625 411.286865234375 417.695953369140625 429.1038818359375 442.161102294921875 458.38623046875 480.064422607421875 510.9794921875 542.982177734375 581.60223388671875 629.7059326171875 674.22552490234375 713.791015625 747.2999267578125 782.85821533203125 827.8502197265625 871.0189208984375 924.704833984375 979.21905517578125 1034.3267822265625 1095.437744140625 1154.6468505859375 1188.6072998046875 1224.18603515625 1277.289794921875 1330.6739501953125 1373.1307373046875 1419.223388671875 1472.404296875 1530.689697265625 1575.15576171875 1618.3173828125 1654.8829345703125 1689.931640625 1715.142578125 1721.874267578125 1712.8616943359375 1699.0068359375 1698.511962890625 1714.337158203125 1736.480712890625 1754.8258056640625 1769.1983642578125 1776.6348876953125 1781.381103515625 1796.506103515625 1807.2440185546875 1799.4451904296875 1789.23974609375 1784.170654296875 1780.88427734375 1759.5848388671875 1712.89794921875 1694.1363525390625 1680.6156005859375 1659.7139892578125 1648.390380859375 1636.860107421875 1620.700439453125 1606.6920166015625 1586.1776123046875 1556.0804443359375 1521.3604736328125 1487.8336181640625 1472.7047119140625 1467.0484619140625 1452.970947265625 1437.7386474609375 1441.0299072265625 1453.21630859375 1466.1776123046875 1491.50244140625 1520.499267578125 1550.303955078125 1585.8045654296875 1632.97119140625 1683.2869873046875 1740.3436279296875 1799.6614990234375 1853.78662109375 1893.0931396484375 1901.3184814453125 1888.0257568359375 1853.1810302734375 1815.239990234375 1783.4002685546875 1762.3948974609375 1742.27001953125 1726.0098876953125 1705.935791015625 1683.3380126953125 1657.5361328125 1628.5294189453125 1602.4898681640625 1582.96435546875 1557.150146484375 1521.0931396484375 1480.9569091796875 1438.42529296875 1395.85302734375 1358.4696044921875 1345.3160400390625 1330.4376220703125 1311.8671875 1282.49853515625 1251.6492919921875 1223.79052734375 
1461.2781982421875 1399.9144287109375 1330.641845703125 1263.3114013671875 1205.6700439453125 1149.9757080078125 1081.0849609375 1056.2919921875 1077.9249267578125 1109.98681640625 1158.6015625 1201.0654296875 1189.4012451171875 1125.5025634765625 1087.9197998046875 1142.4713134765625 1198.4991455078125 1196.077880859375 1169.114501953125 1153.9736328125 1131.7628173828125 1127.51806640625 1157.6993408203125 1197.808349609375 1240.053955078125 1296.0345458984375 1317.8414306640625 1272.2491455078125 1203.6195068359375 1147.6339111328125 1138.4586181640625 1166.3955078125 1134.7733154296875 1058.0045166015625 1021.71234130859375 1007.9676513671875 1030.857666015625 1032.9600830078125 944.4072265625 879.83001708984375 853.52618408203125 790.222412109375 695.1932373046875 593.2156982421875 496.40692138671875 405.987060546875 338.75946044921875 293.862640380859375 266.478424072265625 252.2349090576171875 267.4127197265625 309.590850830078125 321.02886962890625 286.916351318359375 250.1522369384765625 230.028656005859375 216.462158203125 196.1981048583984375 181.19622802734375 160.2314910888671875 145.151092529296875 130.424957275390625 154.4265594482421875 232.839080810546875 277.641448974609375 284.62890625 306.94110107421875 351.75006103515625 387.993316650390625 412.81866455078125 420.9527587890625 427.310546875 443.716217041015625 458.817413330078125 478.9345703125 510.2750244140625 545.156494140625 579.78082275390625 630.42120361328125 680.775390625 714.38037109375 743.72900390625 775.2161865234375 820.01995849609375 867.9149169921875 920.01605224609375 980.11260986328125 1031.8389892578125 1085.263427734375 1142.8917236328125 1179.800048828125 1213.84521484375 1259.0965576171875 1308.926025390625 1353.9339599609375 1405.825927734375 1461.2562255859375 1513.4539794921875 1551.1663818359375 1584.7642822265625 1611.6580810546875 1651.6224365234375 1696.354248046875 1708.5576171875 1700.470947265625 1684.6419677734375 1684.4256591796875 1703.4091796875 1725.1209716796875 1738.622314453125 1744.6546630859375 1751.2496337890625 1760.538330078125 1781.8505859375 1794.7481689453125 1787.09912109375 1776.969970703125 1774.406005859375 1776.7261962890625 1768.7113037109375 1730.6910400390625 1704.6571044921875 1691.9051513671875 1674.4036865234375 1663.11474609375 1650.521728515625 1631.684814453125 1615.6995849609375 1590.2781982421875 1558.5234375 1525.7314453125 1492.7412109375 1479.03173828125 1475.8580322265625 1464.5943603515625 1449.3287353515625 1447.4825439453125 1459.072509765625 1471.9520263671875 1491.5126953125 1517.9482421875 1546.3565673828125 1578.9962158203125 1618.918212890625 1662.8746337890625 1713.3253173828125 1774.1680908203125 1835.8109130859375 1877.6446533203125 1881.0888671875 1861.277099609375 1828.8193359375 1795.8389892578125 1766.1060791015625 1740.1376953125 1718.9442138671875 1699.7308349609375 1676.0928955078125 1650.123046875 1622.952880859375 1593.857421875 1569.04638671875 1551.155517578125 1522.2138671875 1486.5897216796875 1449.6328125 1412.2601318359375 1388.7242431640625 1363.2266845703125 1336.5194091796875 1313.3663330078125 1290.4908447265625 1261.449951171875 1242.7724609375 1235.222900390625 
1409.5516357421875 1352.8160400390625 1292.1104736328125 1237.6390380859375 1188.1741943359375 1137.30419921875 1098.07177734375 1127.14013671875 1164.3387451171875 1201.669189453125 1242.7469482421875 1277.15625 1263.850830078125 1202.45849609375 1154.67919921875 1189.50537109375 1252.566162109375 1271.278564453125 1248.070556640625 1233.9693603515625 1197.9246826171875 1179.150634765625 1210.761474609375 1256.802734375 1300.4061279296875 1344.350341796875 1353.3221435546875 1301.6728515625 1231.631103515625 1179.502197265625 1178.95068359375 1196.3209228515625 1157.8763427734375 1130.295166015625 1136.41162109375 1153.87841796875 1139.7874755859375 1083.9976806640625 1005.54730224609375 930.04730224609375 862.6932373046875 774.5262451171875 672.60382080078125 575.28070068359375 492.494232177734375 418.086517333984375 383.573974609375 350.05889892578125 303.30035400390625 264.453460693359375 240.2582550048828125 249.3259429931640625 268.355194091796875 257.37860107421875 238.5656890869140625 225.147918701171875 213.097381591796875 197.5547332763671875 174.6702423095703125 152.7993011474609375 141.490234375 130.7295989990234375 143.3526153564453125 207.13262939453125 256.29022216796875 272.8914794921875 301.74407958984375 339.42645263671875 375.33251953125 406.803802490234375 414.105926513671875 416.18603515625 433.080596923828125 449.585479736328125 472.952117919921875 503.3570556640625 540.37884521484375 575.35406494140625 623.39886474609375 673.0762939453125 707.17071533203125 739.23626708984375 773.7581787109375 813.61566162109375 864.96759033203125 917.42108154296875 982.107666015625 1033.0263671875 1078.78955078125 1130.357421875 1170.21337890625 1205.354248046875 1244.360595703125 1288.41064453125 1332.517578125 1390.4420166015625 1446.2738037109375 1488.2216796875 1511.17529296875 1536.463134765625 1562.977783203125 1608.90283203125 1669.1593017578125 1688.211669921875 1681.7781982421875 1668.2481689453125 1670.01806640625 1688.8487548828125 1704.931640625 1715.6885986328125 1719.068603515625 1726.307861328125 1742.157958984375 1763.333251953125 1776.625732421875 1780.0283203125 1776.6827392578125 1774.3961181640625 1775.3377685546875 1777.83251953125 1758.827392578125 1739.28955078125 1723.5855712890625 1703.6883544921875 1689.8021240234375 1672.23486328125 1643.1898193359375 1617.58544921875 1591.673095703125 1560.61572265625 1527.4029541015625 1497.6361083984375 1486.9361572265625 1482.6651611328125 1473.5128173828125 1462.721923828125 1457.5810546875 1465.04833984375 1478.9156494140625 1493.633544921875 1516.3707275390625 1542.344482421875 1572.8016357421875 1603.822998046875 1641.6861572265625 1690.796630859375 1748.847900390625 1810.837890625 1858.591064453125 1861.887451171875 1832.9927978515625 1794.76953125 1756.3629150390625 1726.2969970703125 1697.4686279296875 1676.2646484375 1656.1470947265625 1631.80078125 1609.296630859375 1588.2274169921875 1567.597412109375 1544.706787109375 1520.9827880859375 1492.373291015625 1467.689453125 1452.666748046875 1440.874755859375 1435.396728515625 1418.655517578125 1390.2745361328125 1354.714111328125 1311.7501220703125 1272.6087646484375 1242.9122314453125 1215.312744140625 
1359.027587890625 1307.5950927734375 1255.6904296875 1209.785400390625 1173.245849609375 1145.8564453125 1156.81787109375 1206.9259033203125 1249.521484375 1292.7713623046875 1334.785400390625 1362.292724609375 1323.2957763671875 1265.2569580078125 1233.1220703125 1260.31640625 1308.19921875 1331.947509765625 1317.080078125 1301.0703125 1253.841796875 1225.6507568359375 1253.7918701171875 1312.198486328125 1365.13525390625 1402.6370849609375 1385.3994140625 1330.589599609375 1259.766357421875 1211.534912109375 1222.93017578125 1242.837158203125 1225.67578125 1213.6563720703125 1209.475341796875 1204.4971923828125 1144.613037109375 1041.4176025390625 962.68304443359375 870.65814208984375 785.2911376953125 703.16961669921875 616.0030517578125 542.16949462890625 497.700958251953125 479.342864990234375 469.1337890625 420.434417724609375 356.008544921875 295.945281982421875 250.235260009765625 224.9004058837890625 222.3773040771484375 221.568603515625 214.180419921875 206.342254638671875 198.149261474609375 188.099578857421875 170.511383056640625 152.70025634765625 145.5334014892578125 133.9665985107421875 131.9595794677734375 177.097442626953125 231.56988525390625 266.326751708984375 293.470184326171875 324.417510986328125 359.301910400390625 394.417327880859375 405.734039306640625 408.091522216796875 419.845367431640625 438.632293701171875 464.94793701171875 496.881317138671875 532.97198486328125 570.501708984375 618.5418701171875 668.39935302734375 703.5758056640625 739.60845947265625 773.76739501953125 810.2257080078125 864.9136962890625 918.7733154296875 982.3082275390625 1032.264404296875 1073.041748046875 1117.7845458984375 1157.5272216796875 1195.25048828125 1228.7984619140625 1265.349853515625 1312.6654052734375 1369.7125244140625 1417.3114013671875 1440.9017333984375 1452.811279296875 1482.711181640625 1518.3856201171875 1568.5806884765625 1631.4398193359375 1660.6182861328125 1656.1845703125 1648.812744140625 1653.9979248046875 1669.4195556640625 1681.4302978515625 1689.4007568359375 1703.854736328125 1722.79736328125 1736.498779296875 1752.031982421875 1775.5986328125 1792.4029541015625 1793.0994873046875 1789.4423828125 1784.41064453125 1796.666748046875 1799.2288818359375 1784.353759765625 1766.598388671875 1735.6881103515625 1714.36767578125 1694.80859375 1651.58740234375 1614.6978759765625 1587.5950927734375 1560.59228515625 1530.5177001953125 1504.2093505859375 1494.6759033203125 1492.7025146484375 1489.040283203125 1480.3858642578125 1473.4796142578125 1470.4658203125 1485.26171875 1502.746337890625 1518.404052734375 1538.7684326171875 1561.4935302734375 1591.3424072265625 1629.891357421875 1673.0335693359375 1723.47998046875 1781.3377685546875 1835.737060546875 1840.4560546875 1799.6146240234375 1759.9903564453125 1726.2376708984375 1700.260498046875 1671.4976806640625 1650.7257080078125 1630.461181640625 1611.264892578125 1593.98388671875 1576.439453125 1554.6263427734375 1533.3023681640625 1513.5770263671875 1495.7392578125 1490.9100341796875 1491.4085693359375 1486.069091796875 1478.79150390625 1464.4964599609375 1435.1446533203125 1385.405517578125 1328.209228515625 1282.4892578125 1245.7918701171875 1209.983642578125 
1316.359375 1272.195556640625 1226.869140625 1188.7501220703125 1173.7711181640625 1196.3001708984375 1230.4715576171875 1272.5286865234375 1320.940673828125 1372.4735107421875 1423.2010498046875 1437.4351806640625 1376.7647705078125 1321.72216796875 1299.989990234375 1328.4263916015625 1373.426513671875 1401.1685791015625 1390.090087890625 1356.8880615234375 1305.392822265625 1280.929931640625 1306.4215087890625 1371.536376953125 1428.67333984375 1450.671630859375 1411.9815673828125 1353.547119140625 1291.755126953125 1251.821533203125 1268.9385986328125 1300.8609619140625 1305.839111328125 1283.99658203125 1242.884033203125 1190.263916015625 1101.8740234375 985.82305908203125 894.76171875 826.12939453125 749.50799560546875 676.90045166015625 616.82568359375 582.86737060546875 564.680419921875 559.6898193359375 534.91546630859375 480.461029052734375 423.183441162109375 366.230438232421875 306.61041259765625 249.8021240234375 223.6284027099609375 216.6808319091796875 209.8688812255859375 201.273681640625 193.9365997314453125 184.91900634765625 173.8425445556640625 160.2599639892578125 153.51898193359375 139.108978271484375 125.53790283203125 157.7810211181640625 223.5397491455078125 270.07354736328125 294.95184326171875 329.4525146484375 362.45660400390625 386.532958984375 396.226837158203125 398.3275146484375 408.90087890625 436.587127685546875 469.054412841796875 498.8836669921875 530.9686279296875 568.2615966796875 609.22906494140625 655.78546142578125 695.0677490234375 732.993408203125 766.89031982421875 802.8348388671875 860.40911865234375 915.36627197265625 973.849609375 1020.9259033203125 1057.3011474609375 1096.08154296875 1139.7322998046875 1180.72412109375 1207.022705078125 1235.2025146484375 1288.3316650390625 1336.43212890625 1363.234130859375 1375.8798828125 1388.440673828125 1430.0789794921875 1478.7025146484375 1535.3792724609375 1590.6209716796875 1619.6815185546875 1620.7254638671875 1628.8765869140625 1637.636962890625 1650.8592529296875 1670.4737548828125 1691.6834716796875 1717.7291259765625 1741.4813232421875 1752.1282958984375 1768.1268310546875 1793.5416259765625 1808.20703125 1808.9146728515625 1808.3978271484375 1803.054443359375 1810.4266357421875 1829.412353515625 1832.227294921875 1811.9041748046875 1777.0589599609375 1740.010009765625 1705.7418212890625 1656.9989013671875 1613.15185546875 1581.6046142578125 1558.85009765625 1535.4896240234375 1514.5692138671875 1508.6810302734375 1505.5584716796875 1502.853759765625 1494.3946533203125 1485.3038330078125 1478.2774658203125 1492.2872314453125 1513.446533203125 1527.2261962890625 1544.46142578125 1563.5616455078125 1591.4971923828125 1622.636474609375 1656.25341796875 1702.587890625 1758.6534423828125 1808.7642822265625 1813.4267578125 1775.23486328125 1741.9517822265625 1711.0887451171875 1688.9266357421875 1672.9114990234375 1659.5035400390625 1635.661865234375 1620.4951171875 1610.663818359375 1587.7529296875 1561.2537841796875 1545.1199951171875 1533.27001953125 1518.1871337890625 1512.8787841796875 1506.1478271484375 1500.2132568359375 1493.1739501953125 1475.2171630859375 1437.7762451171875 1386.850341796875 1329.247802734375 1279.4727783203125 1236.1300048828125 1198.91796875 
1287.1058349609375 1246.187744140625 1210.6839599609375 1192.14453125 1210.914306640625 1249.342529296875 1289.3623046875 1339.0430908203125 1388.2799072265625 1440.5115966796875 1493.828125 1491.045166015625 1423.8956298828125 1370.8331298828125 1357.04248046875 1392.425048828125 1447.1685791015625 1478.13037109375 1460.320068359375 1412.18359375 1362.85400390625 1340.4444580078125 1372.928466796875 1439.18408203125 1491.42822265625 1487.5513916015625 1436.28759765625 1379.7701416015625 1328.7332763671875 1296.950927734375 1317.939697265625 1371.3275146484375 1365.060546875 1293.09912109375 1215.947021484375 1142.390869140625 1077.5211181640625 972.31243896484375 905.10919189453125 851.55523681640625 788.6256103515625 718.09893798828125 670.11566162109375 653.57708740234375 633.4703369140625 626.64111328125 598.2838134765625 542.5130615234375 484.27825927734375 425.847747802734375 367.338623046875 311.15814208984375 272.7630615234375 255.9319610595703125 242.567169189453125 226.764190673828125 211.4525604248046875 200.1872406005859375 185.3808441162109375 169.1939849853515625 157.015594482421875 140.7821807861328125 124.13759613037109375 143.18182373046875 208.7512054443359375 265.384002685546875 295.0655517578125 328.9215087890625 357.95831298828125 374.60247802734375 381.979248046875 391.3685302734375 406.110137939453125 429.711700439453125 457.04815673828125 487.16455078125 523.01422119140625 562.876708984375 602.1405029296875 646.5653076171875 691.2703857421875 727.56500244140625 761.4630126953125 796.610107421875 849.5604248046875 902.09307861328125 952.4901123046875 998.558837890625 1038.46630859375 1079.7261962890625 1119.6270751953125 1154.971435546875 1176.03857421875 1196.0498046875 1242.8541259765625 1277.182861328125 1292.3291015625 1301.8143310546875 1328.387451171875 1382.8892822265625 1442.679443359375 1507.167724609375 1558.151611328125 1574.2518310546875 1577.8140869140625 1596.5650634765625 1614.60205078125 1647.087646484375 1680.3372802734375 1707.1964111328125 1733.7088623046875 1755.901611328125 1768.5992431640625 1781.6292724609375 1801.42724609375 1816.4263916015625 1818.5223388671875 1821.8909912109375 1818.7032470703125 1818.3780517578125 1836.917724609375 1843.15966796875 1808.095458984375 1762.263427734375 1716.026123046875 1679.7987060546875 1646.322509765625 1609.6558837890625 1575.3828125 1554.101318359375 1535.1290283203125 1521.182373046875 1520.6961669921875 1517.72412109375 1514.8363037109375 1505.943359375 1498.6856689453125 1489.4013671875 1499.108642578125 1518.6551513671875 1535.6810302734375 1550.8399658203125 1569.5191650390625 1591.755126953125 1619.6976318359375 1653.301513671875 1698.2081298828125 1741.3348388671875 1784.4581298828125 1790.520751953125 1764.1695556640625 1733.6629638671875 1703.0552978515625 1687.6119384765625 1681.620849609375 1672.2183837890625 1655.82177734375 1641.5697021484375 1629.612548828125 1602.7386474609375 1573.4315185546875 1559.3956298828125 1546.2313232421875 1533.697021484375 1527.1192626953125 1520.4288330078125 1513.8721923828125 1500.644775390625 1466.6513671875 1422.53857421875 1378.700927734375 1328.1905517578125 1278.37255859375 1232.89208984375 1191.5347900390625 
1260.30859375 1227.76025390625 1212.67724609375 1225.3726806640625 1263.23974609375 1304.6146240234375 1348.1134033203125 1394.51904296875 1442.1239013671875 1496.7159423828125 1550.473388671875 1534.2662353515625 1465.2322998046875 1418.1435546875 1414.6636962890625 1452.217529296875 1516.919921875 1558.1187744140625 1518.5784912109375 1466.078125 1426.7181396484375 1410.6033935546875 1448.826171875 1511.6925048828125 1558.2279052734375 1533.932373046875 1467.8427734375 1410.7308349609375 1371.7293701171875 1346.14697265625 1376.0928955078125 1421.845703125 1381.406005859375 1280.0284423828125 1199.7120361328125 1141.227294921875 1122.849609375 1041.6748046875 970.171630859375 896.020751953125 816.87701416015625 754.920166015625 725.6400146484375 718.16400146484375 703.63800048828125 694.95721435546875 654.797607421875 594.44573974609375 531.803955078125 469.278045654296875 416.2005615234375 375.9537353515625 346.36053466796875 313.058807373046875 277.0565185546875 245.299346923828125 226.0489044189453125 213.923187255859375 200.800262451171875 191.0305328369140625 172.8838958740234375 144.6886138916015625 124.35442352294921875 134.580535888671875 191.9085845947265625 260.4976806640625 292.156036376953125 320.364837646484375 342.610137939453125 356.024139404296875 371.0220947265625 389.740447998046875 409.868865966796875 431.035797119140625 456.842315673828125 490.82904052734375 530.322265625 566.66534423828125 602.8685302734375 652.24676513671875 695.25469970703125 726.52508544921875 756.35308837890625 791.54638671875 836.70660400390625 884.15631103515625 926.1871337890625 967.3145751953125 1009.48101806640625 1052.5948486328125 1081.88623046875 1102.15771484375 1124.3050537109375 1148.9708251953125 1183.4951171875 1202.4716796875 1210.7574462890625 1229.20654296875 1271.689697265625 1335.7396240234375 1406.879150390625 1477.211181640625 1515.31982421875 1521.48095703125 1526.4176025390625 1548.745361328125 1587.14404296875 1640.49169921875 1682.43505859375 1706.8544921875 1731.906005859375 1753.360595703125 1769.22021484375 1780.3590087890625 1793.41748046875 1803.484375 1807.3104248046875 1817.329833984375 1822.467529296875 1823.2001953125 1838.5126953125 1829.764404296875 1770.995849609375 1717.5291748046875 1681.882568359375 1653.742431640625 1629.106201171875 1601.230224609375 1569.9871826171875 1549.827392578125 1531.8857421875 1525.8404541015625 1530.66845703125 1531.5108642578125 1529.0660400390625 1518.596923828125 1508.0716552734375 1498.26318359375 1505.979248046875 1522.9508056640625 1537.0042724609375 1550.1910400390625 1565.825927734375 1585.935546875 1614.759765625 1654.4349365234375 1694.67041015625 1722.4609375 1764.775634765625 1785.346435546875 1762.0723876953125 1726.27880859375 1699.749755859375 1688.5562744140625 1683.3538818359375 1678.07275390625 1667.0767822265625 1652.7021484375 1638.216064453125 1611.920166015625 1582.5733642578125 1568.423583984375 1554.1395263671875 1545.11279296875 1540.7601318359375 1535.77978515625 1528.3851318359375 1499.5535888671875 1446.3780517578125 1398.0340576171875 1354.27734375 1309.431884765625 1264.7230224609375 1219.3082275390625 1179.4945068359375 
1240.6375732421875 1225.4085693359375 1239.109130859375 1266.7725830078125 1305.1075439453125 1351.668701171875 1402.6619873046875 1450.260498046875 1493.941162109375 1545.698486328125 1593.792236328125 1566.104736328125 1499.369140625 1454.391357421875 1451.477294921875 1495.2294921875 1568.00732421875 1611.9443359375 1564.397705078125 1506.7550048828125 1470.8599853515625 1468.793212890625 1512.7042236328125 1572.58056640625 1611.205078125 1575.856689453125 1495.5472412109375 1441.2493896484375 1414.9296875 1393.303955078125 1423.8602294921875 1452.4791259765625 1398.3846435546875 1321.3480224609375 1277.5206298828125 1232.203125 1175.848388671875 1085.1251220703125 1003.743896484375 916.87371826171875 841.88385009765625 798.142578125 790.3985595703125 781.01458740234375 774.43072509765625 759.191650390625 701.2850341796875 633.1787109375 568.33404541015625 517.1435546875 476.335235595703125 434.882598876953125 408.204132080078125 377.878173828125 327.58123779296875 274.319305419921875 239.2340850830078125 216.6696929931640625 204.476806640625 194.5780487060546875 171.97845458984375 138.9158477783203125 121.7987060546875 131.3819122314453125 177.879638671875 245.5682220458984375 282.417510986328125 308.176666259765625 329.09088134765625 349.623626708984375 367.64691162109375 392.07720947265625 420.07293701171875 446.01190185546875 467.847808837890625 498.3541259765625 540.96466064453125 575.1158447265625 600.8680419921875 643.91522216796875 685.16290283203125 718.7901611328125 747.21636962890625 780.2335205078125 820.2857666015625 862.75048828125 893.3582763671875 928.3895263671875 963.037841796875 995.67779541015625 1016.31854248046875 1029.9884033203125 1062.416015625 1089.3681640625 1110.0264892578125 1121.7255859375 1135.0897216796875 1167.2144775390625 1221.6842041015625 1298.2864990234375 1378.3731689453125 1432.08349609375 1451.8616943359375 1463.9031982421875 1482.6826171875 1518.1207275390625 1563.029541015625 1614.4417724609375 1658.5111083984375 1688.8912353515625 1712.7291259765625 1731.5892333984375 1746.9715576171875 1759.4954833984375 1769.51025390625 1773.779541015625 1776.9539794921875 1789.2950439453125 1807.040771484375 1817.28173828125 1827.5001220703125 1807.0457763671875 1742.1640625 1692.5643310546875 1660.77001953125 1634.75927734375 1614.2979736328125 1593.7479248046875 1577.1556396484375 1560.407470703125 1545.1781005859375 1538.2657470703125 1536.868408203125 1539.0531005859375 1536.2559814453125 1523.33642578125 1512.5338134765625 1505.1689453125 1511.206298828125 1525.375732421875 1535.2247314453125 1544.4554443359375 1555.536376953125 1579.634521484375 1610.5938720703125 1646.5758056640625 1678.06884765625 1703.6046142578125 1750.754638671875 1783.7672119140625 1756.9808349609375 1718.3359375 1697.5123291015625 1689.5924072265625 1681.31689453125 1675.457275390625 1667.8486328125 1656.64501953125 1640.1068115234375 1614.8485107421875 1590.8431396484375 1578.4228515625 1570.8463134765625 1563.890380859375 1555.791748046875 1543.5933837890625 1522.6787109375 1476.7989501953125 1421.81982421875 1375.5496826171875 1333.40771484375 1286.457763671875 1241.6063232421875 1198.1839599609375 1164.22265625 
1237.259765625 1242.3887939453125 1275.6451416015625 1307.7259521484375 1339.66552734375 1384.0361328125 1431.2518310546875 1483.812255859375 1540.3214111328125 1590.0875244140625 1621.415771484375 1582.7041015625 1520.358642578125 1477.0946044921875 1473.809326171875 1529.045654296875 1602.2122802734375 1641.6800537109375 1596.9967041015625 1538.0946044921875 1499.9505615234375 1501.179931640625 1550.100830078125 1611.8157958984375 1637.0347900390625 1590.7315673828125 1519.3199462890625 1472.4053955078125 1443.5692138671875 1440.88720703125 1476.9124755859375 1486.903076171875 1455.7186279296875 1408.3360595703125 1353.4368896484375 1281.148681640625 1194.693115234375 1096.64501953125 1009.3507080078125 927.08697509765625 877.3807373046875 861.8101806640625 860.38262939453125 849.65985107421875 839.55230712890625 806.464111328125 741.58367919921875 671.587158203125 610.97052001953125 579.97576904296875 550.69891357421875 507.81097412109375 474.893402099609375 448.912567138671875 404.801055908203125 329.276275634765625 260.926544189453125 222.396148681640625 202.7339935302734375 181.644500732421875 148.6208343505859375 127.72259521484375 120.217987060546875 128.775238037109375 161.141815185546875 216.4723052978515625 270.533660888671875 302.490142822265625 326.23095703125 345.60546875 371.529693603515625 409.42010498046875 444.877105712890625 470.155059814453125 493.646453857421875 510.91748046875 541.3577880859375 573.06005859375 594.05059814453125 628.1483154296875 668.9716796875 702.60662841796875 725.06036376953125 750.880615234375 789.3358154296875 827.35345458984375 845.3173828125 871.471435546875 891.22509765625 908.3173828125 935.230224609375 959.82208251953125 999.25323486328125 1017.61236572265625 1041.2584228515625 1062.152099609375 1093.73388671875 1136.974365234375 1184.2542724609375 1260.3079833984375 1336.196533203125 1376.3885498046875 1395.3792724609375 1425.0794677734375 1471.8997802734375 1518.513427734375 1561.1099853515625 1603.4505615234375 1640.312744140625 1664.9932861328125 1684.243896484375 1702.38623046875 1716.706298828125 1730.156494140625 1742.1654052734375 1747.697021484375 1750.4339599609375 1760.051025390625 1776.6475830078125 1795.0174560546875 1805.602294921875 1791.7037353515625 1734.98681640625 1689.466552734375 1658.2325439453125 1636.7760009765625 1617.33935546875 1601.271240234375 1588.63330078125 1573.1033935546875 1564.9156494140625 1557.266357421875 1545.9053955078125 1541.8780517578125 1539.195556640625 1529.8262939453125 1524.0194091796875 1519.3441162109375 1519.005126953125 1522.478271484375 1527.77685546875 1534.190673828125 1548.7154541015625 1572.4296875 1602.0006103515625 1635.770751953125 1661.912841796875 1686.265869140625 1738.69140625 1781.1026611328125 1763.998779296875 1725.10693359375 1702.33251953125 1695.0006103515625 1685.6463623046875 1672.085205078125 1665.033203125 1660.8662109375 1648.654052734375 1628.6663818359375 1607.2734375 1597.6351318359375 1595.1368408203125 1584.9830322265625 1559.8128662109375 1530.1571044921875 1497.0921630859375 1449.4334716796875 1399.2227783203125 1353.7396240234375 1313.55517578125 1265.9471435546875 1221.789794921875 1181.8189697265625 1150.759765625 
